; generated by PrusaSlicer 2.2.0+linux-x64 on 2020-10-29 at 11:12:18 UTC

; 

; external perimeters extrusion width = 0.60mm
; perimeters extrusion width = 0.50mm
; infill extrusion width = 0.50mm
; solid infill extrusion width = 0.50mm
; top infill extrusion width = 0.45mm
; first layer extrusion width = 0.42mm

M73 P0 R2
M73 Q0 S2
M201 X1000 Y1000 Z200 E5000 ; sets maximum accelerations, mm/sec^2
M203 X200 Y200 Z12 E120 ; sets maximum feedrates, mm/sec
M204 P1250 R1250 T1250 ; sets acceleration (P, T) and retract acceleration (R), mm/sec^2
M205 X8.00 Y8.00 Z0.40 E4.50 ; sets the jerk limits, mm/sec
M205 S0 T0 ; sets the minimum extruding and travel feed rate, mm/sec
M107
M862.3 P "MK3S" ; printer model check
M862.1 P0.4 ; nozzle diameter check
M115 U3.9.1 ; tell printer latest fw version
G90 ; use absolute coordinates
M83 ; extruder relative mode
M104 S215 ; set extruder temp
M140 S60 ; set bed temp
M190 S60 ; wait for bed temp
M109 S215 ; wait for extruder temp
G28 W ; home all without mesh bed level
G80 ; mesh bed leveling
G1 Y-3.0 F1000.0 ; go outside print area
G92 E0.0
G1 X60.0 E9.0 F1000.0 ; intro line
M73 Q2 S2
M73 P2 R2
G1 X100.0 E12.5 F1000.0 ; intro line
G92 E0.0
M221 S95

; Don't change E values below. Excessive value can damage the printer.

M907 E538 ; set extruder motor current
G21 ; set units to millimeters
G90 ; use absolute coordinates
M83 ; use relative distances for extrusion
M900 K0.05 ; Filament gcode LA 1.5
M900 K30 ; Filament gcode LA 1.0
;BEFORE_LAYER_CHANGE
G92 E0.0
;0.2


G1 E-0.80000 F2100.00000
G1 Z0.600 F10800.000
;AFTER_LAYER_CHANGE
;0.2
G1 X119.057 Y100.398
G1 Z0.200
G1 E0.80000 F2100.00000
M204 S1000
G1 F900
G1 X119.982 Y99.407 E0.04248
G1 X121.196 Y98.519 E0.04716
G1 X122.473 Y97.925 E0.04418
G1 X123.871 Y97.574 E0.04519
G1 X125.186 Y97.494 E0.04128
G1 X126.711 Y97.689 E0.04821
G1 X128.055 Y98.145 E0.04450
G1 X129.325 Y98.867 E0.04582
G1 X130.396 Y99.788 E0.04426
G1 X131.299 Y100.926 E0.04558
G1 X131.955 Y102.195 E0.04479
G1 X132.364 Y103.579 E0.04524
G1 X132.499 Y105.034 E0.04582
G1 X132.362 Y106.419 E0.04364
G1 X131.955 Y107.801 E0.04518
G1 X131.301 Y109.065 E0.04460
G1 X130.376 Y110.227 E0.04657
G1 X129.310 Y111.139 E0.04399
G1 X127.996 Y111.878 E0.04727
G1 X126.650 Y112.320 E0.04442
G1 X125.038 Y112.503 E0.05087
G1 X123.536 Y112.358 E0.04730
G1 X122.547 Y112.097 E0.03207
G1 X121.653 Y111.711 E0.03055
G1 X121.098 Y111.416 E0.01971
G1 X120.232 Y110.801 E0.03331
G1 X119.306 Y109.889 E0.04073
G1 X118.381 Y108.556 E0.05087
G1 X117.836 Y107.267 E0.04388
G1 X117.528 Y105.814 E0.04658
G1 X117.501 Y104.585 E0.03852
G1 X117.757 Y102.994 E0.05054
G1 X118.272 Y101.649 E0.04514
G1 X119.025 Y100.448 E0.04446
G1 X119.344 Y100.649 F10800.000
G1 F900
G1 X120.243 Y99.679 E0.04147
G1 X121.394 Y98.840 E0.04467
G1 X122.608 Y98.277 E0.04196
G1 X123.936 Y97.945 E0.04292
G1 X125.185 Y97.871 E0.03923
G1 X126.629 Y98.058 E0.04564
G1 X127.905 Y98.491 E0.04225
G1 X129.112 Y99.178 E0.04355
G1 X130.124 Y100.049 E0.04187
G1 X130.985 Y101.134 E0.04344
G1 X131.605 Y102.336 E0.04238
G1 X131.994 Y103.651 E0.04300
G1 X132.122 Y105.028 E0.04336
G1 X131.993 Y106.343 E0.04143
G1 X131.607 Y107.656 E0.04291
G1 X130.987 Y108.856 E0.04236
G1 X130.109 Y109.961 E0.04424
G1 X129.097 Y110.828 E0.04181
G1 X127.847 Y111.531 E0.04494
G1 X126.574 Y111.951 E0.04203
G1 X125.041 Y112.126 E0.04838
G1 X123.617 Y111.990 E0.04484
G1 X122.670 Y111.741 E0.03070
G1 X121.804 Y111.366 E0.02961
G1 X120.453 Y110.495 E0.05038
G1 X119.575 Y109.626 E0.03875
G1 X118.707 Y108.366 E0.04798
G1 X118.190 Y107.136 E0.04181
G1 X117.901 Y105.759 E0.04412
G1 X117.878 Y104.587 E0.03676
G1 X118.124 Y103.082 E0.04781
G1 X118.615 Y101.805 E0.04290
G1 X119.312 Y100.700 E0.04098
G1 X119.629 Y100.901 F10800.000
G1 F900
G1 X120.504 Y99.952 E0.04047
G1 X121.589 Y99.163 E0.04206
G1 X122.740 Y98.630 E0.03975
G1 X123.997 Y98.317 E0.04064
G1 X125.186 Y98.248 E0.03731
G1 X126.548 Y98.426 E0.04307
G1 X127.755 Y98.837 E0.03999
G1 X128.895 Y99.487 E0.04115
G1 X129.856 Y100.314 E0.03975
G1 X130.669 Y101.340 E0.04104
G1 X131.256 Y102.477 E0.04012
G1 X131.624 Y103.724 E0.04077
G1 X131.745 Y105.027 E0.04104
G1 X131.623 Y106.272 E0.03922
G1 X131.259 Y107.511 E0.04051
G1 X130.672 Y108.649 E0.04012
G1 X129.844 Y109.693 E0.04177
G1 X128.885 Y110.516 E0.03963
G1 X127.703 Y111.183 E0.04257
G1 X126.498 Y111.581 E0.03978
G1 X125.044 Y111.749 E0.04588
G1 X123.701 Y111.622 E0.04229
G1 X122.793 Y111.385 E0.02943
G1 X121.961 Y111.023 E0.02847
G1 X120.682 Y110.196 E0.04774
G1 X119.848 Y109.365 E0.03691
G1 X119.033 Y108.176 E0.04522
G1 X118.546 Y107.010 E0.03961
G1 X118.274 Y105.705 E0.04180
G1 X118.255 Y104.589 E0.03500
G1 X118.490 Y103.170 E0.04508
G1 X118.958 Y101.961 E0.04065
G1 X119.597 Y100.951 E0.03748
G1 X119.915 Y101.152 F10800.000
G1 F900
G1 X119.966 Y101.072 E0.00298
G1 X120.771 Y100.217 E0.03682
G1 X121.788 Y99.484 E0.03932
G1 X122.875 Y98.982 E0.03754
G1 X124.059 Y98.689 E0.03825
G1 X125.186 Y98.625 E0.03539
G1 X126.471 Y98.795 E0.04062
G1 X127.618 Y99.187 E0.03802
G1 X128.683 Y99.798 E0.03848
G1 X129.595 Y100.585 E0.03778
G1 X130.355 Y101.549 E0.03849
G1 X130.912 Y102.630 E0.03813
G1 X131.254 Y103.797 E0.03813
G1 X131.368 Y105.023 E0.03861
G1 X131.252 Y106.211 E0.03742
G1 X130.906 Y107.381 E0.03825
G1 X130.348 Y108.457 E0.03801
G1 X129.570 Y109.436 E0.03920
G1 X128.666 Y110.209 E0.03730
G1 X127.554 Y110.837 E0.04005
G1 X126.423 Y111.212 E0.03736
G1 X125.047 Y111.372 E0.04342
G1 X123.789 Y111.256 E0.03963
G1 X122.916 Y111.028 E0.02828
G1 X122.114 Y110.678 E0.02744
G1 X120.898 Y109.886 E0.04549
G1 X120.121 Y109.105 E0.03454
G1 X119.350 Y107.972 E0.04298
G1 X118.895 Y106.869 E0.03742
G1 X118.648 Y105.651 E0.03896
G1 X118.632 Y104.591 E0.03324
G1 X118.858 Y103.250 E0.04263
G1 X119.300 Y102.121 E0.03801
G1 X119.882 Y101.203 E0.03410
G1 F8640.000
G1 X119.966 Y101.072 E-0.03582
G1 X120.771 Y100.217 E-0.27119
G1 X121.788 Y99.484 E-0.28954
G1 X122.431 Y99.187 E-0.16345
G1 E-0.04000 F2100.00000
G1 Z0.800 F10800.000
G1 X123.298 Y107.508
G1 Z0.200
G1 E0.80000 F2100.00000
G1 F900
G1 X122.710 Y106.966 E0.02506
G1 X122.324 Y106.399 E0.02152
G1 X122.076 Y105.759 E0.02152
G1 X121.979 Y105.080 E0.02152
G1 X122.039 Y104.396 E0.02152
G1 X122.252 Y103.744 E0.02152
G1 X122.607 Y103.156 E0.02152
G1 X123.085 Y102.665 E0.02152
G1 X123.663 Y102.294 E0.02152
G1 X124.309 Y102.063 E0.02152
G1 X124.957 Y101.989 E0.02045
G1 X125.672 Y102.063 E0.02252
G1 X126.319 Y102.294 E0.02155
G1 X126.897 Y102.665 E0.02152
G1 X127.375 Y103.156 E0.02152
G1 X127.730 Y103.744 E0.02152
G1 X127.943 Y104.396 E0.02152
G1 X128.003 Y105.080 E0.02152
G1 X127.906 Y105.759 E0.02152
G1 X127.658 Y106.399 E0.02152
G1 X127.272 Y106.966 E0.02152
G1 X126.684 Y107.508 E0.02506
G1 X123.358 Y107.508 E0.10429
G1 X122.967 Y107.732 F10800.000
G1 X123.621 Y107.885
G1 F900
G1 X126.379 Y107.885 E0.08647
G1 X125.747 Y108.118 E0.02109
G1 X125.144 Y108.204 E0.01911
G1 X124.534 Y108.175 E0.01916
G1 X123.943 Y108.032 E0.01904
G1 X123.676 Y107.910 E0.00923
G1 X123.820 Y108.390 F10800.000
G1 F900
G1 X123.199 Y108.107 E0.02140
G1 X122.641 Y107.710 E0.02147
G1 X122.170 Y107.216 E0.02139
G1 X121.802 Y106.642 E0.02139
G1 X121.548 Y106.009 E0.02139
G1 X121.419 Y105.339 E0.02139
G1 X121.419 Y104.657 E0.02139
G1 X121.548 Y103.987 E0.02139
G1 X121.802 Y103.354 E0.02139
G1 X122.170 Y102.780 E0.02139
G1 X122.641 Y102.286 E0.02139
G1 X123.197 Y101.891 E0.02139
G1 X123.817 Y101.607 E0.02139
G1 X124.480 Y101.446 E0.02139
G1 X125.162 Y101.414 E0.02139
G1 X125.837 Y101.511 E0.02139
G1 X126.482 Y101.734 E0.02139
G1 X127.072 Y102.075 E0.02139
G1 X127.588 Y102.522 E0.02139
G1 X128.009 Y103.058 E0.02139
G1 X128.322 Y103.664 E0.02139
G1 X128.514 Y104.319 E0.02139
G1 X128.579 Y104.998 E0.02139
G1 X128.514 Y105.677 E0.02139
G1 X128.322 Y106.332 E0.02139
G1 X128.009 Y106.938 E0.02139
G1 X127.588 Y107.474 E0.02139
G1 X127.074 Y107.919 E0.02132
G1 X126.474 Y108.265 E0.02170
G1 X125.837 Y108.486 E0.02116
G1 X125.162 Y108.583 E0.02137
G1 X124.480 Y108.550 E0.02142
G1 X123.878 Y108.404 E0.01942
G1 X123.744 Y107.998 F10800.000
G1 F8640.000
G1 X123.199 Y108.107 E-0.17119
G1 X122.641 Y107.710 E-0.15808
G1 X122.170 Y107.216 E-0.15751
G1 X121.802 Y106.642 E-0.15751
G1 X121.615 Y106.177 E-0.11571
G1 E-0.04000 F2100.00000
G1 Z0.800 F10800.000
G1 X126.571 Y107.873
G1 Z0.200
G1 E0.80000 F2100.00000
G1 F900
G1 X126.813 Y107.757 E0.00390
G1 X126.909 Y107.687 E0.00171
G1 X127.374 Y107.271 E0.00905
G1 X127.492 Y107.142 E0.00252
G1 X127.759 Y106.777 E0.00655
G1 X127.911 Y106.520 E0.00432
G1 X128.045 Y106.221 E0.00475
G1 X128.175 Y105.840 E0.00582
G1 X128.223 Y105.621 E0.00325
G1 X128.287 Y104.998 E0.00907
G1 X128.220 Y104.328 E0.00974
G1 X128.048 Y103.774 E0.00840
G1 X127.982 Y103.617 E0.00247
G1 X127.759 Y103.219 E0.00660
G1 X127.590 Y102.977 E0.00427
G1 X127.372 Y102.728 E0.00480
G1 X127.066 Y102.440 E0.00608
G1 X126.900 Y102.317 E0.00300
G1 X126.435 Y102.034 E0.00789
G1 X125.769 Y101.792 E0.01026
G1 X125.148 Y101.711 E0.00907
G1 X124.966 Y101.706 E0.00263
G1 X124.523 Y101.741 E0.00644
G1 X124.236 Y101.793 E0.00422
G1 X123.915 Y101.889 E0.00485
G1 X123.548 Y102.038 E0.00573
G1 X123.345 Y102.147 E0.00335
G1 X122.897 Y102.452 E0.00784
G1 X122.398 Y102.959 E0.01031
G1 X122.063 Y103.489 E0.00907
G1 X121.991 Y103.636 E0.00237
G1 X121.834 Y104.071 E0.00670
G1 X121.767 Y104.330 E0.00387
G1 X121.716 Y104.685 E0.00520
G1 X121.699 Y105.077 E0.00568
G1 X121.714 Y105.311 E0.00339
G1 X121.804 Y105.841 E0.00779
G1 X122.058 Y106.510 E0.01036
G1 X122.402 Y107.034 E0.00907
G1 X122.504 Y107.158 E0.00233
G1 X122.836 Y107.485 E0.00675
G1 X123.170 Y107.756 E0.00622
G1 X123.426 Y107.893 E0.00422
M106 S255
;BEFORE_LAYER_CHANGE
G92 E0.0
;0.5


G1 F8640.000
G1 X123.170 Y107.756 E-0.06722
G1 X122.836 Y107.485 E-0.09922
G1 X122.504 Y107.158 E-0.10760
G1 X122.402 Y107.034 E-0.03708
G1 X122.058 Y106.510 E-0.14472
G1 X121.804 Y105.841 E-0.16517
G1 X121.714 Y105.311 E-0.12420
G1 X121.710 Y105.247 E-0.01480
G1 E-0.04000 F2100.00000
G1 Z0.800 F10800.000
;AFTER_LAYER_CHANGE
;0.5
G1 X117.528 Y105.814
G1 Z0.500
G1 E0.80000 F2100.00000
G1 F900
G1 X117.501 Y104.585 E0.05449
G1 X117.757 Y102.994 E0.07149
G1 X118.272 Y101.649 E0.06386
G1 X119.057 Y100.398 E0.06556
G1 X119.982 Y99.407 E0.06009
G1 X121.196 Y98.519 E0.06672
G1 X122.473 Y97.925 E0.06250
G1 X123.871 Y97.574 E0.06392
G1 X125.186 Y97.494 E0.05840
G1 X126.711 Y97.689 E0.06820
G1 X128.055 Y98.145 E0.06295
G1 X129.325 Y98.867 E0.06481
G1 X130.396 Y99.788 E0.06262
G1 X131.299 Y100.926 E0.06448
G1 X131.955 Y102.195 E0.06336
G1 X132.364 Y103.579 E0.06400
G1 X132.499 Y105.034 E0.06481
G1 X132.362 Y106.419 E0.06173
G1 X131.955 Y107.801 E0.06392
G1 X131.301 Y109.065 E0.06310
G1 X130.376 Y110.227 E0.06588
G1 X129.310 Y111.139 E0.06223
G1 X127.996 Y111.878 E0.06687
G1 X126.650 Y112.320 E0.06284
G1 X125.038 Y112.503 E0.07197
G1 X123.536 Y112.358 E0.06692
G1 X122.547 Y112.097 E0.04536
G1 X121.653 Y111.711 E0.04322
G1 X121.098 Y111.416 E0.02788
G1 X120.232 Y110.801 E0.04712
G1 X119.306 Y109.889 E0.05762
G1 X118.381 Y108.556 E0.07197
G1 X117.836 Y107.267 E0.06207
G1 X117.540 Y105.872 E0.06324
G1 X117.909 Y105.795 F10800.000
G1 F900
G1 X117.878 Y104.587 E0.05359
G1 X118.124 Y103.082 E0.06764
G1 X118.615 Y101.805 E0.06068
G1 X119.361 Y100.621 E0.06206
G1 X120.243 Y99.679 E0.05725
G1 X121.394 Y98.840 E0.06319
G1 X122.608 Y98.277 E0.05936
G1 X123.936 Y97.945 E0.06071
G1 X125.185 Y97.871 E0.05549
G1 X126.629 Y98.058 E0.06456
G1 X127.905 Y98.491 E0.05976
G1 X129.112 Y99.178 E0.06161
G1 X130.124 Y100.049 E0.05923
G1 X130.985 Y101.134 E0.06146
G1 X131.605 Y102.336 E0.05996
G1 X131.994 Y103.651 E0.06084
G1 X132.122 Y105.028 E0.06133
G1 X131.993 Y106.343 E0.05861
G1 X131.607 Y107.656 E0.06070
G1 X130.987 Y108.856 E0.05993
G1 X130.109 Y109.961 E0.06258
G1 X129.097 Y110.828 E0.05914
G1 X127.847 Y111.531 E0.06358
G1 X126.574 Y111.951 E0.05945
G1 X125.041 Y112.126 E0.06845
G1 X123.617 Y111.990 E0.06343
G1 X122.670 Y111.741 E0.04343
G1 X121.804 Y111.366 E0.04189
G1 X120.453 Y110.495 E0.07127
G1 X119.575 Y109.626 E0.05482
G1 X118.707 Y108.366 E0.06787
G1 X118.190 Y107.136 E0.05915
G1 X117.921 Y105.854 E0.05813
G1 X118.289 Y105.777 F10800.000
G1 F900
G1 X118.274 Y105.705 E0.00327
G1 X118.255 Y104.589 E0.04951
G1 X118.490 Y103.170 E0.06378
G1 X118.958 Y101.961 E0.05750
G1 X119.664 Y100.845 E0.05858
G1 X120.504 Y99.952 E0.05440
G1 X121.589 Y99.163 E0.05949
G1 X122.740 Y98.630 E0.05623
G1 X123.997 Y98.317 E0.05749
G1 X125.186 Y98.248 E0.05278
G1 X126.548 Y98.426 E0.06092
G1 X127.755 Y98.837 E0.05657
G1 X128.895 Y99.487 E0.05821
G1 X129.856 Y100.314 E0.05623
G1 X130.669 Y101.340 E0.05805
G1 X131.256 Y102.477 E0.05675
G1 X131.624 Y103.724 E0.05767
G1 X131.745 Y105.027 E0.05805
G1 X131.623 Y106.272 E0.05549
G1 X131.259 Y107.511 E0.05731
G1 X130.672 Y108.649 E0.05676
G1 X129.844 Y109.693 E0.05909
G1 X128.885 Y110.516 E0.05606
G1 X127.703 Y111.183 E0.06023
G1 X126.498 Y111.581 E0.05628
G1 X125.044 Y111.749 E0.06490
G1 X123.701 Y111.622 E0.05983
G1 X122.793 Y111.385 E0.04163
G1 X121.961 Y111.023 E0.04027
G1 X120.682 Y110.196 E0.06753
G1 X119.848 Y109.365 E0.05221
G1 X119.033 Y108.176 E0.06397
G1 X118.546 Y107.010 E0.05603
G1 X118.302 Y105.836 E0.05320
G1 X118.670 Y105.761 F10800.000
G1 F900
G1 X118.648 Y105.651 E0.00497
G1 X118.632 Y104.591 E0.04702
G1 X118.858 Y103.250 E0.06031
G1 X119.300 Y102.121 E0.05377
G1 X119.966 Y101.072 E0.05512
G1 X120.771 Y100.217 E0.05209
G1 X121.788 Y99.484 E0.05562
G1 X122.875 Y98.982 E0.05310
G1 X124.059 Y98.689 E0.05411
G1 X125.186 Y98.625 E0.05007
G1 X126.471 Y98.795 E0.05746
G1 X127.618 Y99.187 E0.05378
G1 X128.683 Y99.798 E0.05444
G1 X129.595 Y100.585 E0.05344
G1 X130.355 Y101.549 E0.05444
G1 X130.912 Y102.630 E0.05395
G1 X131.254 Y103.797 E0.05394
G1 X131.368 Y105.023 E0.05461
G1 X131.252 Y106.211 E0.05293
G1 X130.906 Y107.381 E0.05411
G1 X130.348 Y108.457 E0.05378
G1 X129.570 Y109.436 E0.05545
G1 X128.666 Y110.209 E0.05276
G1 X127.554 Y110.837 E0.05665
G1 X126.423 Y111.212 E0.05285
G1 X125.047 Y111.372 E0.06143
G1 X123.789 Y111.256 E0.05606
G1 X122.916 Y111.028 E0.04000
G1 X122.114 Y110.678 E0.03881
G1 X120.898 Y109.886 E0.06435
G1 X120.121 Y109.105 E0.04886
G1 X119.350 Y107.972 E0.06080
G1 X118.895 Y106.869 E0.05293
G1 X118.682 Y105.820 E0.04748
G1 F8640.000
G1 X118.648 Y105.651 E-0.03973
G1 X118.632 Y104.591 E-0.24480
G1 X118.858 Y103.250 E-0.31394
G1 X119.113 Y102.599 E-0.16154
G1 E-0.04000 F2100.00000
G1 Z1.100 F10800.000
G1 X123.341 Y107.398
G1 Z0.500
G1 E0.80000 F2100.00000
M204 S800
G1 F900
G1 X122.794 Y106.894 E0.04969
G1 X122.442 Y106.378 E0.04172
G1 X122.183 Y105.733 E0.04641
G1 X122.090 Y105.077 E0.04429
G1 X122.147 Y104.418 E0.04416
G1 X122.352 Y103.790 E0.04416
G1 X122.694 Y103.224 E0.04416
G1 X123.155 Y102.750 E0.04416
G1 X123.712 Y102.393 E0.04416
G1 X124.334 Y102.171 E0.04416
G1 X124.955 Y102.100 E0.04172
G1 X125.646 Y102.171 E0.04641
G1 X126.270 Y102.393 E0.04429
G1 X126.827 Y102.750 E0.04416
G1 X127.288 Y103.224 E0.04416
G1 X127.629 Y103.790 E0.04416
G1 X127.834 Y104.418 E0.04416
G1 X127.892 Y105.077 E0.04416
G1 X127.799 Y105.731 E0.04416
G1 X127.560 Y106.347 E0.04416
G1 X127.188 Y106.894 E0.04416
G1 X126.641 Y107.398 E0.04969
G1 X123.401 Y107.398 E0.21647
M204 S1000
G1 X123.009 Y107.622 F10800.000
G1 X123.613 Y107.884
M204 S800
G1 F900
G1 X126.382 Y107.884 E0.15042
G1 X126.308 Y107.926 E0.00461
G1 X125.743 Y108.119 E0.03245
G1 X125.151 Y108.205 E0.03249
G1 X124.491 Y108.169 E0.03592
G1 X123.945 Y108.034 E0.03059
G1 X123.668 Y107.908 E0.01651
M204 S1000
G1 X123.785 Y108.495 F10800.000
M204 S800
G1 F900
G1 X123.202 Y108.230 E0.04275
G1 X122.567 Y107.792 E0.05154
G1 X122.084 Y107.284 E0.04683
G1 X121.703 Y106.693 E0.04697
G1 X121.442 Y106.040 E0.04697
G1 X121.309 Y105.350 E0.04697
G1 X121.309 Y104.646 E0.04697
G1 X121.442 Y103.956 E0.04697
G1 X121.703 Y103.303 E0.04697
G1 X122.084 Y102.712 E0.04697
G1 X122.569 Y102.203 E0.04697
G1 X123.142 Y101.795 E0.04697
G1 X123.781 Y101.503 E0.04697
G1 X124.465 Y101.337 E0.04697
G1 X125.167 Y101.304 E0.04697
G1 X125.821 Y101.397 E0.04412
G1 X126.529 Y101.634 E0.04989
