; generated by PrusaSlicer 2.2.0+linux-x64 on 2020-10-28 at 08:39:35 UTC

; 

; external perimeters extrusion width = 0.60mm
; perimeters extrusion width = 0.50mm
; infill extrusion width = 0.50mm
; solid infill extrusion width = 0.50mm
; top infill extrusion width = 0.45mm
; first layer extrusion width = 0.42mm

M73 P0 R2
M73 Q0 S2
M201 X1000 Y1000 Z200 E5000 ; sets maximum accelerations, mm/sec^2
M203 X200 Y200 Z12 E120 ; sets maximum feedrates, mm/sec
M204 P1250 R1250 T1250 ; sets acceleration (P, T) and retract acceleration (R), mm/sec^2
M205 X8.00 Y8.00 Z0.40 E4.50 ; sets the jerk limits, mm/sec
M205 S0 T0 ; sets the minimum extruding and travel feed rate, mm/sec
M107
M862.3 P "MK3S" ; printer model check
M862.1 P0.4 ; nozzle diameter check
M115 U3.9.1 ; tell printer latest fw version
G90 ; use absolute coordinates
M83 ; extruder relative mode
M104 S215 ; set extruder temp
M140 S60 ; set bed temp
M190 S60 ; wait for bed temp
M109 S215 ; wait for extruder temp
G28 W ; home all without mesh bed level
G80 ; mesh bed leveling
G1 Y-3.0 F1000.0 ; go outside print area
G92 E0.0
G1 X60.0 E9.0 F1000.0 ; intro line
M73 Q3 S2
M73 P3 R2
G1 X100.0 E12.5 F1000.0 ; intro line
G92 E0.0
M221 S95

; Don't change E values below. Excessive value can damage the printer.

M907 E538 ; set extruder motor current
G21 ; set units to millimeters
G90 ; use absolute coordinates
M83 ; use relative distances for extrusion
M900 K0.05 ; Filament gcode LA 1.5
M900 K30 ; Filament gcode LA 1.0
;BEFORE_LAYER_CHANGE
G92 E0.0
;0.2


G1 E-0.80000 F2100.00000
G1 Z0.600 F10800.000
;AFTER_LAYER_CHANGE
;0.2
G1 X120.033 Y100.065
G1 Z0.200
G1 E0.80000 F2100.00000
M204 S1000
G1 F900
G1 X120.756 Y99.424 E0.03030
G1 X121.551 Y98.910 E0.02969
G1 X122.772 Y98.363 E0.04194
G1 X124.180 Y98.043 E0.04527
G1 X125.329 Y98.007 E0.03605
G1 X126.810 Y98.230 E0.04698
G1 X128.028 Y98.681 E0.04072
G1 X129.183 Y99.378 E0.04228
G1 X130.160 Y100.258 E0.04124
G1 X130.961 Y101.314 E0.04156
G1 X131.553 Y102.516 E0.04199
G1 X131.897 Y103.768 E0.04072
G1 X132.002 Y105.217 E0.04556
G1 X131.863 Y106.406 E0.03753
G1 X131.415 Y107.807 E0.04612
G1 X130.775 Y108.957 E0.04125
G1 X130.176 Y109.725 E0.03054
G1 X129.462 Y110.396 E0.03073
G1 X128.223 Y111.222 E0.04670
G1 X127.020 Y111.710 E0.04069
G1 X125.702 Y111.973 E0.04214
G1 X124.460 Y111.987 E0.03896
G1 X123.114 Y111.750 E0.04286
G1 X121.893 Y111.282 E0.04098
G1 X120.784 Y110.597 E0.04087
G1 X119.802 Y109.701 E0.04167
G1 X119.029 Y108.670 E0.04040
G1 X118.442 Y107.471 E0.04185
G1 X118.102 Y106.228 E0.04043
G1 X117.998 Y104.783 E0.04541
G1 X118.126 Y103.644 E0.03594
G1 X118.516 Y102.344 E0.04253
G1 X119.104 Y101.213 E0.03997
G1 X119.995 Y100.112 E0.04442
G1 X120.286 Y100.346 F10800.000
G1 F900
G1 X120.987 Y99.723 E0.02942
G1 X121.750 Y99.230 E0.02849
G1 X122.909 Y98.715 E0.03976
G1 X124.240 Y98.415 E0.04279
G1 X125.329 Y98.384 E0.03416
G1 X126.725 Y98.598 E0.04429
G1 X127.876 Y99.027 E0.03851
G1 X128.964 Y99.685 E0.03986
G1 X129.888 Y100.519 E0.03904
G1 X130.640 Y101.512 E0.03905
G1 X131.199 Y102.645 E0.03960
G1 X131.525 Y103.829 E0.03851
G1 X131.625 Y105.200 E0.04312
G1 X131.496 Y106.320 E0.03536
G1 X131.073 Y107.647 E0.04365
G1 X130.475 Y108.730 E0.03879
G1 X129.898 Y109.470 E0.02942
G1 X129.209 Y110.116 E0.02962
G1 X128.038 Y110.894 E0.04407
G1 X126.899 Y111.353 E0.03850
G1 X125.652 Y111.599 E0.03987
G1 X124.476 Y111.610 E0.03686
G1 X123.211 Y111.385 E0.04028
G1 X122.057 Y110.942 E0.03878
G1 X121.012 Y110.296 E0.03851
G1 X120.082 Y109.449 E0.03945
G1 X119.351 Y108.473 E0.03823
G1 X118.797 Y107.343 E0.03946
G1 X118.474 Y106.167 E0.03823
G1 X118.375 Y104.800 E0.04298
G1 X118.494 Y103.727 E0.03386
G1 X118.859 Y102.500 E0.04013
G1 X119.413 Y101.429 E0.03782
G1 X120.248 Y100.393 E0.04170
G1 X120.539 Y100.627 F10800.000
G1 F900
G1 X121.215 Y100.023 E0.02841
G1 X121.950 Y99.550 E0.02739
G1 X123.046 Y99.066 E0.03757
G1 X124.300 Y98.787 E0.04029
G1 X125.325 Y98.761 E0.03216
G1 X126.636 Y98.964 E0.04159
G1 X127.720 Y99.370 E0.03629
G1 X128.741 Y99.990 E0.03746
G1 X129.611 Y100.774 E0.03671
G1 X130.319 Y101.711 E0.03683
G1 X130.845 Y102.775 E0.03721
G1 X131.153 Y103.891 E0.03629
G1 X131.248 Y105.184 E0.04067
G1 X131.129 Y106.232 E0.03308
G1 X130.735 Y107.480 E0.04104
G1 X130.174 Y108.502 E0.03655
G1 X129.619 Y109.216 E0.02834
G1 X128.956 Y109.836 E0.02847
G1 X127.854 Y110.565 E0.04143
G1 X126.783 Y110.994 E0.03618
G1 X125.610 Y111.224 E0.03746
G1 X124.493 Y111.233 E0.03503
G1 X123.305 Y111.020 E0.03785
G1 X122.220 Y110.602 E0.03644
G1 X121.239 Y109.995 E0.03617
G1 X120.362 Y109.195 E0.03722
G1 X119.674 Y108.279 E0.03593
G1 X119.151 Y107.213 E0.03721
G1 X118.847 Y106.109 E0.03591
G1 X118.752 Y104.816 E0.04067
G1 X118.862 Y103.808 E0.03180
G1 X119.204 Y102.654 E0.03773
G1 X119.724 Y101.642 E0.03567
G1 X120.502 Y100.674 E0.03894
G1 X120.793 Y100.907 F10800.000
G1 F900
G1 X121.530 Y100.258 E0.03079
G1 X122.581 Y99.650 E0.03806
G1 X123.393 Y99.347 E0.02717
G1 X124.240 Y99.178 E0.02709
G1 X125.327 Y99.138 E0.03409
G1 X126.551 Y99.332 E0.03886
G1 X127.576 Y99.718 E0.03436
G1 X128.534 Y100.304 E0.03519
G1 X129.336 Y101.033 E0.03400
G1 X129.999 Y101.910 E0.03448
G1 X130.491 Y102.907 E0.03484
G1 X130.785 Y103.963 E0.03436
G1 X130.871 Y105.165 E0.03780
G1 X130.761 Y106.160 E0.03138
G1 X130.394 Y107.319 E0.03814
G1 X129.996 Y108.095 E0.02733
G1 X129.481 Y108.793 E0.02721
G1 X128.694 Y109.565 E0.03457
G1 X127.669 Y110.235 E0.03838
G1 X126.658 Y110.638 E0.03412
G1 X125.564 Y110.850 E0.03495
G1 X124.513 Y110.857 E0.03293
G1 X123.405 Y110.657 E0.03531
G1 X122.386 Y110.264 E0.03424
G1 X121.454 Y109.687 E0.03436
G1 X120.641 Y108.941 E0.03460
G1 X119.997 Y108.083 E0.03365
G1 X119.506 Y107.086 E0.03484
G1 X119.215 Y106.037 E0.03412
G1 X119.129 Y104.835 E0.03780
G1 X119.232 Y103.874 E0.03031
G1 X119.549 Y102.805 E0.03495
G1 X120.037 Y101.854 E0.03353
G1 X120.756 Y100.953 E0.03613
G1 F8640.000
G1 X121.530 Y100.258 E-0.24038
G1 X122.581 Y99.650 E-0.28029
G1 X123.393 Y99.347 E-0.20009
G1 X123.560 Y99.314 E-0.03925
G1 E-0.04000 F2100.00000
G1 Z0.800 F10800.000
G1 X126.642 Y107.320
G1 Z0.200
G1 E0.80000 F2100.00000
G1 F900
G1 X126.110 Y107.412 E0.01693
G1 X125.660 Y107.450 E0.01417
G1 X124.782 Y107.459 E0.02752
G1 X124.339 Y107.450 E0.01390
G1 X123.890 Y107.412 E0.01413
G1 X123.358 Y107.320 E0.01693
G1 X122.862 Y106.860 E0.02121
G1 X122.514 Y106.354 E0.01923
G1 X122.280 Y105.781 E0.01941
G1 X122.174 Y105.178 E0.01921
G1 X122.201 Y104.563 E0.01929
G1 X122.359 Y103.967 E0.01935
G1 X122.648 Y103.422 E0.01934
G1 X123.045 Y102.952 E0.01928
G1 X123.534 Y102.579 E0.01928
G1 X124.091 Y102.318 E0.01928
G1 X124.691 Y102.182 E0.01932
G1 X125.307 Y102.182 E0.01931
G1 X125.605 Y102.246 E0.00954
G1 X125.911 Y102.319 E0.00986
G1 X126.466 Y102.579 E0.01924
G1 X126.953 Y102.951 E0.01922
G1 X127.353 Y103.423 E0.01940
G1 X127.641 Y103.967 E0.01928
G1 X127.799 Y104.561 E0.01929
G1 X127.825 Y105.179 E0.01939
G1 X127.720 Y105.783 E0.01923
G1 X127.488 Y106.351 E0.01923
G1 X127.137 Y106.861 E0.01940
G1 X126.686 Y107.279 E0.01928
G1 X126.592 Y107.717 F10800.000
G1 X126.938 Y107.561
G1 F900
G1 X126.697 Y107.702 E0.00877
G1 X126.441 Y107.807 E0.00865
G1 X125.865 Y107.974 E0.01880
G1 X125.287 Y108.075 E0.01842
G1 X124.713 Y108.075 E0.01798
G1 X124.135 Y107.974 E0.01842
G1 X123.559 Y107.807 E0.01880
G1 X123.303 Y107.702 E0.00865
G1 X123.062 Y107.561 E0.00877
G1 X122.626 Y107.164 E0.01848
G1 X122.269 Y106.690 E0.01860
G1 X122.004 Y106.160 E0.01859
G1 X121.842 Y105.591 E0.01856
G1 X121.788 Y105.000 E0.01860
G1 X121.813 Y104.705 E0.00929
G1 X121.843 Y104.411 E0.00926
G1 X122.005 Y103.840 E0.01861
G1 X122.269 Y103.309 E0.01859
G1 X122.627 Y102.836 E0.01860
G1 X123.064 Y102.436 E0.01857
G1 X123.568 Y102.125 E0.01856
G1 X124.121 Y101.911 E0.01859
G1 X124.704 Y101.802 E0.01860
G1 X125.296 Y101.802 E0.01859
G1 X125.879 Y101.911 E0.01859
G1 X126.432 Y102.125 E0.01860
G1 X126.936 Y102.436 E0.01856
G1 X127.373 Y102.836 E0.01857
G1 X127.731 Y103.309 E0.01860
G1 X127.995 Y103.840 E0.01859
G1 X128.157 Y104.410 E0.01859
G1 X128.212 Y105.002 E0.01866
G1 X128.190 Y105.296 E0.00923
G1 X128.158 Y105.589 E0.00924
G1 X127.996 Y106.160 E0.01861
G1 X127.731 Y106.690 E0.01859
G1 X127.374 Y107.164 E0.01860
G1 X126.983 Y107.520 E0.01659
G1 X126.682 Y107.448 F10800.000
G1 X126.484 Y107.561
G1 F900
G1 X125.971 Y107.679 E0.00312
G1
G1 X125.260 Y107.765 E0.00981
G1 X124.783 Y107.767 E0.00653
G1 X124.321 Y107.726 E0.00634
G1 X124.029 Y107.679 E0.00406
G1
G1 X123.862 Y107.647 E0.00186
G1
G1 X123.633 Y107.595 E0.00191
G1
G1 X123.516 Y107.561 E0.00072
M106 S255
;BEFORE_LAYER_CHANGE
G92 E0.0
;0.5


G1 F8640.000
G1 X123.633 Y107.595 E-0.02809
G1 E-0.77191 F2100.00000
G1 Z0.800 F10800.000
;AFTER_LAYER_CHANGE
;0.5
G1 X121.893 Y111.282
G1 Z0.500
G1 E0.80000 F2100.00000
G1 F900
G1 X120.784 Y110.597 E0.05781
G1 X119.802 Y109.701 E0.05895
G1 X119.029 Y108.670 E0.05716
G1 X118.442 Y107.471 E0.05920
G1 X118.102 Y106.228 E0.05720
G1 X117.998 Y104.783 E0.06424
G1 X118.126 Y103.644 E0.05085
G1 X118.516 Y102.344 E0.06017
G1 X119.104 Y101.213 E0.05654
G1 X120.033 Y100.065 E0.06550
G1 X120.756 Y99.424 E0.04286
G1 X121.551 Y98.910 E0.04200
G1 X122.772 Y98.363 E0.05933
G1 X124.180 Y98.043 E0.06405
G1 X125.329 Y98.007 E0.05100
G1 X126.810 Y98.230 E0.06646
G1 X128.028 Y98.681 E0.05760
G1 X129.183 Y99.378 E0.05980
G1 X130.160 Y100.258 E0.05834
G1 X130.961 Y101.314 E0.05879
G1 X131.553 Y102.516 E0.05941
G1 X131.897 Y103.768 E0.05761
G1 X132.002 Y105.217 E0.06444
G1 X131.863 Y106.406 E0.05309
G1 X131.415 Y107.807 E0.06524
G1 X130.775 Y108.957 E0.05835
G1 X130.176 Y109.725 E0.04320
G1 X129.462 Y110.396 E0.04348
G1 X128.223 Y111.222 E0.06607
G1 X127.020 Y111.710 E0.05756
G1 X125.702 Y111.973 E0.05961
G1 X124.460 Y111.987 E0.05511
G1 X123.114 Y111.750 E0.06063
G1 X121.949 Y111.303 E0.05532
G1 X122.084 Y110.953 F10800.000
G1 F900
G1 X121.012 Y110.296 E0.05574
G1 X120.082 Y109.449 E0.05581
G1 X119.351 Y108.473 E0.05408
G1 X118.797 Y107.343 E0.05582
G1 X118.474 Y106.167 E0.05409
G1 X118.375 Y104.800 E0.06080
G1 X118.494 Y103.727 E0.04790
G1 X118.859 Y102.500 E0.05676
G1 X119.413 Y101.429 E0.05350
G1 X120.290 Y100.341 E0.06196
G1 X120.987 Y99.723 E0.04132
G1 X121.750 Y99.230 E0.04030
G1 X122.909 Y98.715 E0.05624
G1 X124.240 Y98.415 E0.06053
G1 X125.329 Y98.384 E0.04833
G1 X126.725 Y98.598 E0.06265
G1 X127.876 Y99.027 E0.05447
G1 X128.964 Y99.685 E0.05639
G1 X129.888 Y100.519 E0.05523
G1 X130.640 Y101.512 E0.05524
G1 X131.199 Y102.645 E0.05601
G1 X131.525 Y103.829 E0.05447
G1 X131.625 Y105.200 E0.06100
G1 X131.496 Y106.320 E0.05002
G1 X131.073 Y107.647 E0.06175
G1 X130.475 Y108.730 E0.05487
G1 X129.898 Y109.470 E0.04163
G1 X129.209 Y110.116 E0.04190
G1 X128.038 Y110.894 E0.06234
G1 X126.899 Y111.353 E0.05446
G1 X125.652 Y111.599 E0.05640
G1 X124.476 Y111.610 E0.05215
G1 X123.211 Y111.385 E0.05698
G1 X122.140 Y110.974 E0.05091
G1 X122.275 Y110.623 F10800.000
G1 F900
G1 X121.239 Y109.995 E0.05372
G1 X120.362 Y109.195 E0.05266
G1 X119.674 Y108.279 E0.05083
G1 X119.151 Y107.213 E0.05264
G1 X118.847 Y106.109 E0.05080
G1 X118.752 Y104.816 E0.05753
G1 X118.862 Y103.808 E0.04499
G1 X119.204 Y102.654 E0.05338
G1 X119.724 Y101.642 E0.05046
G1 X120.549 Y100.615 E0.05840
G1 X121.215 Y100.023 E0.03955
G1 X121.950 Y99.550 E0.03875
G1 X123.046 Y99.066 E0.05315
G1 X124.300 Y98.787 E0.05699
G1 X125.325 Y98.761 E0.04549
G1 X126.636 Y98.964 E0.05883
G1 X127.720 Y99.370 E0.05134
G1 X128.741 Y99.990 E0.05299
G1 X129.611 Y100.774 E0.05194
G1 X130.319 Y101.711 E0.05209
G1 X130.845 Y102.775 E0.05264
G1 X131.153 Y103.891 E0.05134
G1 X131.248 Y105.184 E0.05753
G1 X131.129 Y106.232 E0.04680
G1 X130.735 Y107.480 E0.05805
G1 X130.174 Y108.502 E0.05171
G1 X129.619 Y109.216 E0.04009
G1 X128.956 Y109.836 E0.04027
G1 X127.854 Y110.565 E0.05861
G1 X126.783 Y110.994 E0.05119
G1 X125.610 Y111.224 E0.05300
G1 X124.493 Y111.233 E0.04956
G1 X123.305 Y111.020 E0.05354
G1 X122.331 Y110.645 E0.04629
G1 X122.466 Y110.294 F10800.000
G1 F900
G1 X122.386 Y110.264 E0.00379
G1 X121.454 Y109.687 E0.04861
G1 X120.641 Y108.941 E0.04894
G1 X119.997 Y108.083 E0.04760
G1 X119.506 Y107.086 E0.04928
G1 X119.215 Y106.037 E0.04827
G1 X119.129 Y104.835 E0.05347
G1 X119.232 Y103.874 E0.04288
G1 X119.549 Y102.805 E0.04944
G1 X120.037 Y101.854 E0.04743
G1 X120.806 Y100.891 E0.05463
G1 X121.530 Y100.258 E0.04270
G1 X122.581 Y99.650 E0.05384
G1 X123.393 Y99.347 E0.03844
G1 X124.240 Y99.178 E0.03833
G1 X125.327 Y99.138 E0.04822
G1 X126.551 Y99.332 E0.05497
G1 X127.576 Y99.718 E0.04861
G1 X128.534 Y100.304 E0.04978
G1 X129.336 Y101.033 E0.04810
G1 X129.999 Y101.910 E0.04878
G1 X130.491 Y102.907 E0.04928
G1 X130.785 Y103.963 E0.04861
G1 X130.871 Y105.165 E0.05347
G1 X130.761 Y106.160 E0.04439
G1 X130.394 Y107.319 E0.05396
G1 X129.996 Y108.095 E0.03866
G1 X129.481 Y108.793 E0.03849
G1 X128.694 Y109.565 E0.04890
G1 X127.669 Y110.235 E0.05430
G1 X126.658 Y110.638 E0.04827
G1 X125.564 Y110.850 E0.04945
G1 X124.513 Y110.857 E0.04659
G1 X123.405 Y110.657 E0.04995
G1 X122.522 Y110.316 E0.04199
G1 F8640.000
G1 X122.386 Y110.264 E-0.03357
G1 X121.454 Y109.687 E-0.25306
G1 X120.641 Y108.941 E-0.25480
G1 X120.072 Y108.184 E-0.21857
G1 E-0.04000 F2100.00000
G1 Z1.100 F10800.000
G1 X123.366 Y107.350
G1 Z0.500
G1 E0.80000 F2100.00000
M204 S800
G1 F900
G1 X122.849 Y106.872 E0.04706
G1 X122.495 Y106.363 E0.04141
G1 X122.260 Y105.789 E0.04141
G1 X122.154 Y105.179 E0.04141
G1 X122.182 Y104.559 E0.04141
G1 X122.344 Y103.961 E0.04141
G1 X122.631 Y103.412 E0.04141
G1 X123.031 Y102.937 E0.04141
G1 X123.523 Y102.561 E0.04141
G1 X124.085 Y102.299 E0.04141
G1 X124.690 Y102.165 E0.04141
G1 X125.310 Y102.165 E0.04141
G1 X125.915 Y102.299 E0.04141
G1 X126.477 Y102.561 E0.04141
G1 X126.969 Y102.937 E0.04141
G1 X127.369 Y103.412 E0.04141
G1 X127.656 Y103.961 E0.04141
G1 X127.818 Y104.559 E0.04141
G1 X127.846 Y105.179 E0.04141
G1 X127.740 Y105.789 E0.04141
G1 X127.505 Y106.363 E0.04141
G1 X127.175 Y106.838 E0.03868
G1 X126.636 Y107.350 E0.04962
G1 X123.426 Y107.350 E0.21447
M204 S1000
G1 X123.035 Y107.574 F10800.000
G1 X123.072 Y107.553
M204 S800
G1 F900
G1 X122.636 Y107.155 E0.03943
G1 X122.280 Y106.684 E0.03943
G1 X122.017 Y106.156 E0.03943
G1 X121.856 Y105.588 E0.03943
G1 X121.801 Y105.000 E0.03943
G1 X121.856 Y104.412 E0.03943
G1 X122.017 Y103.844 E0.03943
G1 X122.280 Y103.316 E0.03943
G1 X122.636 Y102.845 E0.03943
G1 X123.072 Y102.447 E0.03943
G1 X123.574 Y102.137 E0.03943
G1 X124.125 Y101.923 E0.03943
G1 X124.705 Y101.815 E0.03943
G1 X125.295 Y101.815 E0.03943
G1 X125.833 Y101.915 E0.03654
G1 X126.427 Y102.138 E0.04241
G1 X126.928 Y102.447 E0.03931
G1 X127.364 Y102.845 E0.03943
G1 X127.720 Y103.316 E0.03943
G1 X127.983 Y103.844 E0.03943
G1 X128.144 Y104.412 E0.03943
G1 X128.199 Y105.000 E0.03943
G1 X128.144 Y105.588 E0.03943
G1 X127.983 Y106.156 E0.03943
G1 X127.720 Y106.684 E0.03943
G1 X127.364 Y107.155 E0.03943
G1 X126.928 Y107.553 E0.03943
G1 X126.463 Y107.841 E0.03654
G1 X125.874 Y108.077 E0.04241
G1 X125.295 Y108.185 E0.03931
G1 X124.705 Y108.185 E0.03943
G1 X124.125 Y108.077 E0.03943
G1 X123.574 Y107.863 E0.03943
G1 X123.123 Y107.584 E0.03543
M204 S1000
G1 X123.121 Y107.156 F10800.000
G1 X123.679 Y107.617
G1 F900
G1 X123.816 Y107.643 E0.00188
G1
G1 X123.953 Y107.668 E0.00272
G1
G1 X124.089 Y107.694 E0.00356
G1
G1 X124.226 Y107.720 E0.00440
G1
G1 X124.744 Y107.768 E0.01648
G1 X125.256 Y107.768 E0.01627
G1 X125.903 Y107.694 E0.02064
G1
G1 X126.302 Y107.617 E0.00551
;BEFORE_LAYER_CHANGE
G92 E0.0
;0.8


G1 F8640.000
G1 X125.903 Y107.694 E-0.09392
G1 E-0.70608 F2100.00000
G1 Z1.100 F10800.000
;AFTER_LAYER_CHANGE
;0.8
G1 X128.223 Y111.222
G1 Z0.800
G1 E0.80000 F2100.00000
G1 F900
G1 X127.020 Y111.710 E0.05756
G1 X125.702 Y111.973 E0.05961
G1 X124.460 Y111.987 E0.05511
G1 X123.114 Y111.750 E0.06063
G1 X121.893 Y111.282 E0.05798
G1 X120.784 Y110.597 E0.05781
G1 X119.802 Y109.701 E0.05895
G1 X119.029 Y108.670 E0.05716
G1 X118.442 Y107.471 E0.05920
G1 X118.102 Y106.228 E0.05720
G1 X117.998 Y104.783 E0.06424
G1 X118.126 Y103.644 E0.05085
G1 X118.516 Y102.344 E0.06017
G1 X119.104 Y101.213 E0.05654
G1 X120.033 Y100.065 E0.06550
