; generated by PrusaSlicer 2.2.0+linux-x64 on 2020-11-02 at 19:49:50 UTC

; 

; external perimeters extrusion width = 0.60mm
; perimeters extrusion width = 0.50mm
; infill extrusion width = 0.50mm
; solid infill extrusion width = 0.50mm
; top infill extrusion width = 0.45mm
; first layer extrusion width = 0.42mm

M73 P0 R55
M73 Q0 S55
M201 X1000 Y1000 Z200 E5000 ; sets maximum accelerations, mm/sec^2
M203 X200 Y200 Z12 E120 ; sets maximum feedrates, mm/sec
M204 P1250 R1250 T1250 ; sets acceleration (P, T) and retract acceleration (R), mm/sec^2
M205 X8.00 Y8.00 Z0.40 E4.50 ; sets the jerk limits, mm/sec
M205 S0 T0 ; sets the minimum extruding and travel feed rate, mm/sec
M107
M862.3 P "MK3S" ; printer model check
M862.1 P0.4 ; nozzle diameter check
M115 U3.9.1 ; tell printer latest fw version
G90 ; use absolute coordinates
M83 ; extruder relative mode
M104 S215 ; set extruder temp
M140 S60 ; set bed temp
M190 S60 ; wait for bed temp
M109 S215 ; wait for extruder temp
G28 W ; home all without mesh bed level
G80 ; mesh bed leveling
G1 Y-3.0 F1000.0 ; go outside print area
G92 E0.0
G1 X60.0 E9.0 F1000.0 ; intro line
M73 Q0 S55
M73 P0 R54
G1 X100.0 E12.5 F1000.0 ; intro line
G92 E0.0
M221 S95

; Don't change E values below. Excessive value can damage the printer.

M907 E538 ; set extruder motor current
G21 ; set units to millimeters
G90 ; use absolute coordinates
M83 ; use relative distances for extrusion
M900 K0.05 ; Filament gcode LA 1.5
M900 K30 ; Filament gcode LA 1.0
;BEFORE_LAYER_CHANGE
G92 E0.0
;0.2


G1 E-0.80000 F2100.00000
G1 Z0.600 F10800.000
;AFTER_LAYER_CHANGE
;0.2
G1 X64.160 Y81.276
G1 Z0.200
G1 E0.80000 F2100.00000
M204 S1000
G1 F1200.000
G1 X64.995 Y81.123 E0.02661
G1 X185.004 Y81.123 E3.76279
G1 X185.902 Y81.301 E0.02872
G1 X186.667 Y81.805 E0.02872
G1 X187.184 Y82.562 E0.02872
G1 X187.377 Y83.457 E0.02872
G1 X187.376 Y126.580 E1.35209
G1 X187.251 Y127.263 E0.02178
G1 X186.932 Y127.885 E0.02190
G1 X186.450 Y128.384 E0.02178
G1 X185.840 Y128.724 E0.02190
G1 X185.005 Y128.877 E0.02661
G1 X64.973 Y128.877 E3.76350
G1 X64.273 Y128.763 E0.02225
G1 X63.637 Y128.448 E0.02225
G1 X63.123 Y127.959 E0.02225
G1 X62.776 Y127.340 E0.02225
G1 X62.623 Y126.509 E0.02649
G1 X62.624 Y83.428 E1.35078
G1 X62.748 Y82.740 E0.02190
G1 X63.066 Y82.119 E0.02190
G1 X63.550 Y81.616 E0.02190
G1 X64.108 Y81.305 E0.02001
G1 F8640.000
G1 X64.995 Y81.123 E-0.20912
G1 X67.381 Y81.123 E-0.55088
G1 E-0.04000 F2100.00000
G1 Z0.800 F10800.000
G1 X63.213 Y79.102
G1 Z0.200
G1 E0.80000 F2100.00000
G1 F1200.000
G1 X64.548 Y78.787 E0.04300
G1 X185.486 Y78.790 E3.79193
G1 X186.435 Y78.974 E0.03029
G1 X187.343 Y79.365 E0.03101
G1 X188.562 Y80.388 E0.04990
G1 X189.353 Y81.606 E0.04551
G1 X189.713 Y82.989 E0.04481
G1 X189.713 Y127.010 E1.38026
G1 X189.404 Y128.271 E0.04070
G1 X188.799 Y129.327 E0.03818
G1 X187.927 Y130.228 E0.03931
G1 X186.787 Y130.898 E0.04147
G1 X185.452 Y131.213 E0.04300
G1 X64.490 Y131.213 E3.79268
G1 X63.229 Y130.904 E0.04070
G1 X62.173 Y130.299 E0.03818
G1 X61.272 Y129.427 E0.03931
G1 X60.602 Y128.287 E0.04147
G1 X60.287 Y126.952 E0.04300
G1 X60.287 Y82.990 E1.37840
G1 X60.596 Y81.729 E0.04070
G1 X61.201 Y80.673 E0.03818
G1 X62.073 Y79.772 E0.03931
G1 X63.161 Y79.132 E0.03959
G1 X63.351 Y79.458 F10800.000
G1 F1200.000
G1 X64.569 Y79.164 E0.03932
G1 X185.467 Y79.167 E3.79067
G1 X186.341 Y79.340 E0.02792
G1 X187.166 Y79.699 E0.02823
G1 X188.297 Y80.658 E0.04647
G1 X188.996 Y81.732 E0.04018
G1 X189.336 Y83.013 E0.04157
G1 X189.336 Y126.986 E1.37874
G1 X189.045 Y128.153 E0.03769
G1 X188.485 Y129.117 E0.03497
G1 X187.676 Y129.946 E0.03633
G1 X186.622 Y130.558 E0.03820
G1 X185.431 Y130.836 E0.03837
G1 X64.514 Y130.836 E3.79127
G1 X63.347 Y130.545 E0.03769
G1 X62.383 Y129.985 E0.03497
G1 X61.554 Y129.176 E0.03633
G1 X60.942 Y128.122 E0.03820
G1 X60.664 Y126.931 E0.03837
G1 X60.664 Y83.014 E1.37699
G1 X60.955 Y81.847 E0.03769
G1 X61.515 Y80.883 E0.03497
G1 X62.324 Y80.054 E0.03633
G1 X63.299 Y79.488 E0.03534
G1 X63.540 Y79.783 F10800.000
G1 F1200.000
G1 X64.591 Y79.541 E0.03380
G1 X185.448 Y79.544 E3.78941
M73 Q2 S54
M73 P2 R53
G1 X186.246 Y79.705 E0.02550
G1 X186.988 Y80.033 E0.02545
G1 X188.030 Y80.926 E0.04302
G1 X188.663 Y81.910 E0.03669
G1 X188.959 Y83.038 E0.03655
G1 X188.959 Y126.962 E1.37724
G1 X188.687 Y128.033 E0.03462
G1 X188.173 Y128.905 E0.03174
G1 X187.426 Y129.662 E0.03336
G1 X186.460 Y130.217 E0.03493
G1 X185.409 Y130.459 E0.03379
G1 X64.538 Y130.459 E3.78985
G1 X63.467 Y130.187 E0.03462
G1 X62.595 Y129.673 E0.03174
G1 X61.838 Y128.926 E0.03336
G1 X61.283 Y127.960 E0.03493
G1 X61.041 Y126.909 E0.03379
G1 X61.041 Y83.038 E1.37557
G1 X61.313 Y81.967 E0.03462
G1 X61.827 Y81.095 E0.03174
G1 X62.574 Y80.338 E0.03336
G1 X63.488 Y79.813 E0.03305
G1 X63.674 Y80.141 F10800.000
G1 F1200.000
G1 X64.612 Y79.918 E0.03023
G1 X185.429 Y79.921 E3.78814
G1 X186.148 Y80.070 E0.02304
G1 X186.808 Y80.365 E0.02266
G1 X187.762 Y81.192 E0.03960
G1 X188.306 Y82.037 E0.03149
G1 X188.582 Y83.063 E0.03331
G1 X188.582 Y126.938 E1.37567
G1 X188.329 Y127.911 E0.03151
G1 X187.862 Y128.690 E0.02850
G1 X187.178 Y129.378 E0.03041
G1 X186.299 Y129.875 E0.03167
G1 X185.389 Y130.082 E0.02927
G1 X64.562 Y130.082 E3.78843
G1 X63.589 Y129.829 E0.03151
G1 X62.810 Y129.362 E0.02850
G1 X62.122 Y128.678 E0.03041
G1 X61.625 Y127.799 E0.03167
G1 X61.418 Y126.889 E0.02927
G1 X61.418 Y83.062 E1.37415
G1 X61.671 Y82.089 E0.03151
G1 X62.138 Y81.310 E0.02850
G1 X62.822 Y80.622 E0.03041
G1 X63.621 Y80.171 E0.02879
G1 X63.860 Y80.468 F10800.000
G1 F1200.000
G1 X64.632 Y80.295 E0.02481
G1 X185.410 Y80.298 E3.78689
G1 X186.013 Y80.423 E0.01933
G1 X186.628 Y80.697 E0.02110
G1 X187.492 Y81.457 E0.03609
G1 X187.972 Y82.214 E0.02809
G1 X188.205 Y83.087 E0.02835
G1 X188.205 Y126.913 E1.37412
G1 X187.972 Y127.786 E0.02833
G1 X187.553 Y128.473 E0.02525
G1 X186.931 Y129.091 E0.02747
G1 X186.140 Y129.532 E0.02840
G1 X185.368 Y129.705 E0.02480
G1 X64.587 Y129.705 E3.78700
G1 X63.714 Y129.472 E0.02833
G1 X63.027 Y129.053 E0.02525
G1 X62.409 Y128.431 E0.02747
G1 X61.968 Y127.640 E0.02840
G1 X61.795 Y126.868 E0.02480
G1 X61.795 Y83.087 E1.37271
G1 X62.028 Y82.214 E0.02833
G1 X62.447 Y81.527 E0.02525
G1 X63.069 Y80.909 E0.02747
G1 X63.808 Y80.497 E0.02652
G1 F8640.000
G1 X64.632 Y80.295 E-0.19600
G1 X67.075 Y80.295 E-0.56400
G1 E-0.04000 F2100.00000
G1 Z0.800 F10800.000
G1 X62.383 Y82.342
G1 Z0.200
G1 E0.80000 F2100.00000
G1 F1200.000
G1 X62.755 Y81.746 E0.02200
G1 X63.313 Y81.197 E0.02457
G1 X64.017 Y80.812 E0.02513
G1 X64.652 Y80.672 E0.02041
G1 X185.389 Y80.676 E3.78562
G1 X185.914 Y80.787 E0.01682
G1 X186.445 Y81.028 E0.01829
G1 X187.222 Y81.721 E0.03263
G1 X187.616 Y82.341 E0.02306
G1 X187.828 Y83.113 E0.02510
G1 X187.828 Y126.887 E1.37249
G1 X187.617 Y127.658 E0.02508
G1 X187.245 Y128.254 E0.02200
G1 X186.687 Y128.803 E0.02457
G1 X185.983 Y129.188 E0.02513
G1 X185.348 Y129.328 E0.02041
G1 X64.613 Y129.328 E3.78555
M73 Q3 S53
M73 P3 R52
G1 X63.842 Y129.117 E0.02508
G1 X63.246 Y128.745 E0.02200
G1 X62.697 Y128.187 E0.02457
G1 X62.312 Y127.483 E0.02513
G1 X62.172 Y126.848 E0.02041
G1 X62.172 Y83.113 E1.37127
G1 X62.368 Y82.400 E0.02320
G1 X63.090 Y82.612 F10800.000
G1 F1200.000
G1 X63.317 Y82.250 E0.01342
G1 X63.768 Y81.799 E0.01999
G1 X64.284 Y81.518 E0.01842
G1 X64.694 Y81.426 E0.01318
G1 X185.346 Y81.430 E3.78294
G1 X185.705 Y81.513 E0.01157
G1 X186.071 Y81.685 E0.01268
G1 X186.676 Y82.243 E0.02580
G1 X186.908 Y82.605 E0.01347
G1 X187.074 Y83.168 E0.01841
G1 X187.074 Y126.832 E1.36905
G1 X186.908 Y127.396 E0.01842
G1 X186.683 Y127.750 E0.01318
G1 X186.232 Y128.201 E0.01999
G1 X185.716 Y128.482 E0.01842
G1 X185.306 Y128.574 E0.01318
G1 X64.668 Y128.574 E3.78251
G1 X64.104 Y128.408 E0.01842
G1 X63.750 Y128.183 E0.01318
G1 X63.299 Y127.732 E0.01999
G1 X63.018 Y127.216 E0.01842
G1 X62.926 Y126.806 E0.01318
G1 X62.926 Y83.168 E1.36823
G1 X63.073 Y82.670 E0.01629
G1 X63.303 Y83.198 F10800.000
G1 F1200.000
G1 X63.444 Y82.742 E0.01496
G1 X63.598 Y82.502 E0.00892
G1 X64.014 Y82.086 E0.01845
G1 X64.436 Y81.864 E0.01496
G1 X64.714 Y81.803 E0.00892
G1 X185.324 Y81.807 E3.78164
G1 X185.562 Y81.862 E0.00767
G1 X185.882 Y82.013 E0.01109
G1 X186.401 Y82.501 E0.02233
G1 X186.556 Y82.742 E0.00898
G1 X186.697 Y83.198 E0.01495
G1 X186.697 Y126.802 E1.36720
G1 X186.556 Y127.258 E0.01496
G1 X186.402 Y127.498 E0.00892
G1 X185.986 Y127.914 E0.01845
G1 X185.564 Y128.136 E0.01496
G1 X185.286 Y128.197 E0.00892
G1 X64.698 Y128.197 E3.78097
G1 X64.242 Y128.056 E0.01496
G1 X64.002 Y127.902 E0.00892
G1 X63.586 Y127.486 E0.01845
G1 X63.364 Y127.064 E0.01496
G1 X63.303 Y126.786 E0.00892
G1 X63.303 Y83.258 E1.36480
G1 F8640.000
G1 X63.444 Y82.742 E-0.12345
G1 X63.598 Y82.502 E-0.06572
G1 X64.014 Y82.086 E-0.13588
G1 X64.436 Y81.864 E-0.11015
G1 X64.714 Y81.803 E-0.06572
G1 X65.836 Y81.803 E-0.25908
G1 E-0.04000 F2100.00000
G1 Z0.800 F10800.000
G1 X64.582 Y82.212
G1 Z0.200
G1 E0.80000 F2100.00000
G1 F1200.000
G1 X64.733 Y82.180 E0.00484
G1 X185.302 Y82.184 E3.78036
G1 X185.419 Y82.211 E0.00377
G1 X185.692 Y82.340 E0.00947
G1 X186.123 Y82.757 E0.01880
G1 X186.207 Y82.885 E0.00479
G1 X186.320 Y83.229 E0.01136
G1 X186.320 Y126.771 E1.36521
G1 X186.207 Y127.115 E0.01136
G1 X186.122 Y127.244 E0.00484
G1 X185.742 Y127.625 E0.01687
G1 X185.418 Y127.788 E0.01136
G1 X185.267 Y127.820 E0.00484
G1 X64.729 Y127.820 E3.77938
G1 X64.385 Y127.707 E0.01136
G1 X64.256 Y127.622 E0.00484
G1 X63.875 Y127.242 E0.01687
G1 X63.712 Y126.918 E0.01136
G1 X63.680 Y126.767 E0.00484
G1 X63.680 Y83.229 E1.36510
G1 X63.793 Y82.885 E0.01136
G1 X63.878 Y82.756 E0.00484
G1 X64.258 Y82.375 E0.01687
G1 X64.528 Y82.239 E0.00948
G1 X64.688 Y82.578 F10800.000
G1 F1200.000
G1 X64.750 Y82.557 E0.00205
G1 X185.282 Y82.564 E3.77918
G1 X185.500 Y82.667 E0.00757
G1 X185.843 Y83.010 E0.01522
G1 X185.943 Y83.264 E0.00856
G1 X185.943 Y126.736 E1.36301
M73 Q5 S52
M73 P5 R51
G1 X185.861 Y126.963 E0.00757
G1 X185.500 Y127.333 E0.01622
G1 X185.250 Y127.443 E0.00856
G1 X64.764 Y127.443 E3.77773
G1 X64.537 Y127.361 E0.00757
G1 X64.167 Y127.000 E0.01622
G1 X64.057 Y126.750 E0.00856
G1 X64.057 Y83.264 E1.36345
G1 X64.157 Y83.010 E0.00856
G1 X64.500 Y82.667 E0.01522
G1 X64.634 Y82.604 E0.00464
G1 X64.737 Y82.963 F10800.000
G1 F1200.000
G1 X64.806 Y82.934 E0.00235
G1 X185.194 Y82.934 E3.77466
G1 X185.263 Y82.963 E0.00235
G1 X185.537 Y83.237 E0.01215
G1 X185.566 Y83.306 E0.00235
G1 X185.566 Y126.694 E1.36038
G1 X185.537 Y126.763 E0.00235
G1 X185.263 Y127.037 E0.01215
G1 X185.194 Y127.066 E0.00235
G1 X64.806 Y127.066 E3.77466
G1 X64.737 Y127.037 E0.00235
G1 X64.463 Y126.763 E0.01215
G1 X64.434 Y126.694 E0.00235
G1 X64.434 Y83.306 E1.36038
G1 X64.463 Y83.237 E0.00235
G1 X64.695 Y83.006 E0.01027
G1 X64.922 Y83.311 F10800.000
G1 F1200.000
G1 X185.078 Y83.311 E3.76741
G1 X185.189 Y83.422 E0.00490
G1 X185.189 Y126.578 E1.35313
G1 X185.078 Y126.689 E0.00490
G1 X64.922 Y126.689 E3.76741
G1 X64.811 Y126.578 E0.00490
G1 X64.811 Y83.422 E1.35313
G1 X64.879 Y83.354 E0.00302
G1 X65.410 Y83.910 F10800.000
G1 F1200.000
G1 X184.590 Y83.910 E3.73681
G1 X184.590 Y126.090 E1.32252
G1 X65.410 Y126.090 E3.73681
G1 X65.410 Y83.970 E1.32064
G1 X65.807 Y83.955 F10800.000
G1 X65.787 Y84.287
G1 F1200.000
G1 X184.213 Y84.287 E3.71316
M73 Q7 S51
M73 P7 R50
G1 X184.213 Y125.713 E1.29888
G1 X65.787 Y125.713 E3.71316
G1 X65.787 Y84.347 E1.29700
G1 F8640.000
G1 X69.079 Y84.345 E-0.76000
G1 E-0.04000 F2100.00000
G1 Z0.800 F10800.000
G1 X101.007 Y119.234
G1 Z0.200
G1 E0.80000 F2100.00000
G1 F1200.000
G1 X101.487 Y118.808 E0.02013
G1 X102.056 Y118.510 E0.02013
G1 X102.679 Y118.356 E0.02013
G1 X103.321 Y118.356 E0.02013
G1 X103.944 Y118.510 E0.02013
G1 X104.513 Y118.808 E0.02013
G1 X104.993 Y119.234 E0.02013
G1 X105.358 Y119.762 E0.02013
G1 X105.586 Y120.363 E0.02013
G1 X105.663 Y121.000 E0.02013
G1 X105.590 Y121.601 E0.01898
G1 X105.359 Y122.236 E0.02120
G1 X104.993 Y122.766 E0.02017
G1 X104.513 Y123.192 E0.02013
G1 X103.944 Y123.490 E0.02013
G1 X103.321 Y123.644 E0.02013
G1 X102.679 Y123.644 E0.02013
G1 X102.056 Y123.490 E0.02013
G1 X101.487 Y123.192 E0.02013
G1 X101.007 Y122.766 E0.02013
G1 X100.642 Y122.238 E0.02013
G1 X100.414 Y121.637 E0.02013
G1 X100.337 Y121.000 E0.02013
G1 X100.410 Y120.399 E0.01898
G1 X100.641 Y119.764 E0.02120
G1 X100.973 Y119.283 E0.01829
G1 X100.879 Y118.855 F10800.000
G1 X100.303 Y119.589
G1 F1200.000
G1 X100.722 Y118.982 E0.02313
G1 X101.271 Y118.496 E0.02300
G1 X101.921 Y118.155 E0.02300
G1 X102.633 Y117.979 E0.02300
G1 X103.367 Y117.979 E0.02300
G1 X104.079 Y118.155 E0.02300
G1 X104.729 Y118.496 E0.02300
G1 X105.278 Y118.982 E0.02300
G1 X105.694 Y119.586 E0.02300
G1 X105.954 Y120.272 E0.02300
G1 X106.043 Y121.000 E0.02300
G1 X105.959 Y121.689 E0.02177
G1 X105.697 Y122.411 E0.02407
G1 X105.278 Y123.018 E0.02313
G1 X104.729 Y123.504 E0.02300
G1 X104.079 Y123.845 E0.02300
G1 X103.367 Y124.021 E0.02300
G1 X102.633 Y124.021 E0.02300
G1 X101.921 Y123.845 E0.02300
G1 X101.271 Y123.504 E0.02300
G1 X100.722 Y123.018 E0.02300
G1 X100.306 Y122.414 E0.02300
G1 X100.046 Y121.728 E0.02300
G1 X99.957 Y121.000 E0.02300
G1 X100.041 Y120.311 E0.02177
G1 X100.283 Y119.646 E0.02219
G1 F8640.000
G1 X100.722 Y118.982 E-0.18374
G1 X101.271 Y118.496 E-0.16938
G1 X101.921 Y118.155 E-0.16938
G1 X102.633 Y117.979 E-0.16938
G1 X102.928 Y117.979 E-0.06812
G1 E-0.04000 F2100.00000
G1 Z0.800 F10800.000
G1 X81.663 Y121.000
G1 Z0.200
G1 E0.80000 F2100.00000
G1 F1200.000
G1 X81.586 Y121.637 E0.02013
G1 X81.358 Y122.238 E0.02013
G1 X80.993 Y122.766 E0.02013
G1 X80.513 Y123.192 E0.02013
G1 X79.977 Y123.473 E0.01898
G1 X79.322 Y123.644 E0.02120
G1 X78.679 Y123.644 E0.02017
G1 X78.056 Y123.490 E0.02013
G1 X77.487 Y123.192 E0.02013
G1 X77.007 Y122.766 E0.02013
G1 X76.642 Y122.238 E0.02013
G1 X76.414 Y121.637 E0.02013
G1 X76.337 Y121.000 E0.02013
G1 X76.414 Y120.363 E0.02013
G1 X76.642 Y119.762 E0.02013
G1 X77.007 Y119.234 E0.02013
G1 X77.487 Y118.808 E0.02013
G1 X78.023 Y118.527 E0.01898
G1 X78.678 Y118.356 E0.02120
G1 X79.321 Y118.356 E0.02017
G1 X79.944 Y118.510 E0.02013
G1 X80.513 Y118.808 E0.02013
G1 X80.993 Y119.234 E0.02013
G1 X81.358 Y119.762 E0.02013
G1 X81.586 Y120.363 E0.02013
G1 X81.656 Y120.940 E0.01825
G1 X82.009 Y121.200 F10800.000
G1 X82.043 Y121.000
G1 F1200.000
G1 X81.954 Y121.728 E0.02300
G1 X81.694 Y122.414 E0.02300
G1 X81.278 Y123.018 E0.02300
G1 X80.729 Y123.504 E0.02300
G1 X80.114 Y123.827 E0.02177
G1 X79.371 Y124.021 E0.02407
G1 X78.633 Y124.021 E0.02313
G1 X77.921 Y123.845 E0.02300
G1 X77.271 Y123.504 E0.02300
G1 X76.722 Y123.018 E0.02300
G1 X76.306 Y122.414 E0.02300
G1 X76.046 Y121.728 E0.02300
G1 X75.957 Y121.000 E0.02300
G1 X76.046 Y120.272 E0.02300
G1 X76.306 Y119.586 E0.02300
G1 X76.722 Y118.982 E0.02300
G1 X77.271 Y118.496 E0.02300
G1 X77.886 Y118.173 E0.02177
G1 X78.629 Y117.979 E0.02407
G1 X79.367 Y117.979 E0.02313
G1 X80.079 Y118.155 E0.02300
G1 X80.729 Y118.496 E0.02300
G1 X81.278 Y118.982 E0.02300
G1 X81.694 Y119.586 E0.02300
G1 X81.954 Y120.272 E0.02300
G1 X82.036 Y120.940 E0.02112
G1 F8640.000
G1 X81.954 Y121.728 E-0.18286
G1 X81.694 Y122.414 E-0.16938
G1 X81.278 Y123.018 E-0.16938
G1 X80.729 Y123.504 E-0.16938
G1 X80.464 Y123.643 E-0.06900
G1 E-0.04000 F2100.00000
G1 Z0.800 F10800.000
G1 X77.410 Y117.410
G1 Z0.200
G1 E0.80000 F2100.00000
G1 F1200.000
G1 X66.590 Y117.410 E0.33925
G1 X66.590 Y96.590 E0.65280
G1 X77.410 Y96.590 E0.33925
G1 X77.410 Y117.350 E0.65092
G1 X77.474 Y117.805 F10800.000
G1 F8640.000
G1 X74.119 Y117.368 E-0.76000
G1 E-0.04000 F2100.00000
G1 Z0.800 F10800.000
G1 X66.213 Y96.213
G1 Z0.200
G1 E0.80000 F2100.00000
G1 F1200.000
G1 X77.787 Y96.213 E0.36290
G1 X77.787 Y117.787 E0.67644
G1 X66.213 Y117.787 E0.36290
G1 X66.213 Y96.273 E0.67456
G1 F8640.000
G1 X69.504 Y96.256 E-0.76000
G1 E-0.04000 F2100.00000
G1 Z0.800 F10800.000
G1 X76.642 Y90.238
G1 Z0.200
G1 E0.80000 F2100.00000
G1 F1200.000
G1 X76.414 Y89.637 E0.02013
G1 X76.337 Y89.000 E0.02013
G1 X76.414 Y88.363 E0.02013
G1 X76.642 Y87.762 E0.02013
G1 X77.007 Y87.234 E0.02013
G1 X77.487 Y86.808 E0.02013
G1 X78.023 Y86.527 E0.01898
G1 X78.678 Y86.356 E0.02120
