; generated by PrusaSlicer 2.2.0+linux-x64 on 2020-10-27 at 15:29:13 UTC

; 

; external perimeters extrusion width = 0.45mm
; perimeters extrusion width = 0.45mm
; infill extrusion width = 0.45mm
; solid infill extrusion width = 0.45mm
; top infill extrusion width = 0.40mm
; first layer extrusion width = 0.42mm

M73 P0 R96
M73 Q0 S97
M201 X1000 Y1000 Z200 E5000 ; sets maximum accelerations, mm/sec^2
M203 X200 Y200 Z12 E120 ; sets maximum feedrates, mm/sec
M204 P1250 R1250 T1250 ; sets acceleration (P, T) and retract acceleration (R), mm/sec^2
M205 X8.00 Y8.00 Z0.40 E4.50 ; sets the jerk limits, mm/sec
M205 S0 T0 ; sets the minimum extruding and travel feed rate, mm/sec
M107
M862.3 P "MK3S" ; printer model check
M862.1 P0.4 ; nozzle diameter check
M115 U3.9.1 ; tell printer latest fw version
G90 ; use absolute coordinates
M83 ; extruder relative mode
M104 S215 ; set extruder temp
M140 S60 ; set bed temp
M190 S60 ; wait for bed temp
M109 S215 ; wait for extruder temp
G28 W ; home all without mesh bed level
G80 ; mesh bed leveling
G1 Y-3.0 F1000.0 ; go outside print area
G92 E0.0
G1 X60.0 E9.0 F1000.0 ; intro line
M73 Q0 S97
M73 P0 R96
G1 X100.0 E12.5 F1000.0 ; intro line
G92 E0.0
M221 S95

; Don't change E values below. Excessive value can damage the printer.

M907 E538 ; set extruder motor current
G21 ; set units to millimeters
G90 ; use absolute coordinates
M83 ; use relative distances for extrusion
M900 K0.05 ; Filament gcode LA 1.5
M900 K30 ; Filament gcode LA 1.0
;BEFORE_LAYER_CHANGE
G92 E0.0
;0.2


G1 E-0.80000 F2100.00000
G1 Z0.600 F10800.000
;AFTER_LAYER_CHANGE
;0.2
G1 X147.892 Y78.297
G1 Z0.200
G1 E0.80000 F2100.00000
M204 S1000
G1 F1200.000
G1 X148.653 Y78.792 E0.02849
G1 X149.172 Y79.534 E0.02837
G1 X149.376 Y80.419 E0.02849
G1 X149.377 Y129.527 E1.53974
G1 X149.226 Y130.335 E0.02579
G1 X148.805 Y131.046 E0.02590
G1 X148.434 Y131.395 E0.01597
G1 X148.001 Y131.656 E0.01585
G1 X147.519 Y131.820 E0.01597
G1 X147.013 Y131.877 E0.01597
G1 X102.970 Y131.877 E1.38094
G1 X102.161 Y131.724 E0.02579
G1 X101.454 Y131.305 E0.02579
G1 X101.114 Y130.947 E0.01550
G1 X100.855 Y130.525 E0.01550
G1 X100.689 Y130.056 E0.01562
G1 X100.624 Y129.566 E0.01550
G1 X100.630 Y123.321 E0.19580
G1 X100.802 Y122.594 E0.02343
G1 X101.195 Y121.954 E0.02355
G1 X139.356 Y78.783 E1.80661
G1 X140.022 Y78.333 E0.02520
G1 X140.796 Y78.132 E0.02508
G1 X147.004 Y78.123 E0.19464
G1 X147.833 Y78.285 E0.02649
G1 F8640.000
G1 X148.653 Y78.792 E-0.22269
G1 X149.172 Y79.534 E-0.20892
G1 X149.376 Y80.419 E-0.20978
G1 X149.376 Y80.933 E-0.11860
G1 E-0.04000 F2100.00000
G1 Z0.800 F10800.000
G1 X146.213 Y81.287
G1 Z0.200
G1 E0.80000 F2100.00000
G1 F1200.000
G1 X146.213 Y128.713 E1.48700
G1 X103.787 Y128.713 E1.33023
G1 X103.787 Y124.287 E0.13877
G1 X141.787 Y124.287 E1.19146
G1 X141.787 Y81.287 E1.34823
G1 X146.153 Y81.287 E0.13689
G1 F8640.000
G1 X146.157 Y84.579 E-0.76000
G1 E-0.04000 F2100.00000
G1 Z0.800 F10800.000
G1 X141.410 Y123.910
G1 Z0.200
G1 E0.80000 F2100.00000
G1 F1200.000
G1 X141.410 Y80.910 E1.34823
G1 X146.590 Y80.910 E0.16242
G1 X146.590 Y129.090 E1.51065
G1 X103.410 Y129.090 E1.35388
G1 X103.410 Y123.910 E0.16242
G1 X141.350 Y123.910 E1.18958
G1 X141.810 Y123.892 F10800.000
G1 F8640.000
G1 X141.355 Y120.619 E-0.76000
G1 E-0.04000 F2100.00000
G1 Z0.800 F10800.000
G1 X146.100 Y82.166
G1 Z0.200
G1 E0.80000 F2100.00000
G1 F1200.000
G1 X145.503 Y81.570 E0.02657
G1 X144.968 Y81.570 E0.01688
G1 X145.930 Y82.532 E0.04288
G1 X145.930 Y83.068 E0.01688
G1 X144.432 Y81.570 E0.06675
G1 X143.896 Y81.570 E0.01688
G1 X145.930 Y83.604 E0.09061
G1 X145.930 Y84.140 E0.01688
G1 X143.360 Y81.570 E0.11448
G1 X142.825 Y81.570 E0.01688
G1 X145.930 Y84.675 E0.13835
G1 X145.930 Y85.211 E0.01688
G1 X142.289 Y81.570 E0.16222
G1 X142.070 Y81.570 E0.00690
G1 X142.070 Y81.887 E0.00998
G1 X145.930 Y85.747 E0.17197
G1 X145.930 Y86.283 E0.01688
G1 X142.070 Y82.422 E0.17197
G1 X142.070 Y82.958 E0.01688
G1 X145.930 Y86.819 E0.17197
G1 X145.930 Y87.354 E0.01688
G1 X142.070 Y83.494 E0.17197
G1 X142.070 Y84.030 E0.01688
G1 X145.930 Y87.890 E0.17197
G1 X145.930 Y88.426 E0.01688
G1 X142.070 Y84.566 E0.17197
G1 X142.070 Y85.101 E0.01688
G1 X145.930 Y88.962 E0.17197
G1 X145.930 Y89.497 E0.01688
G1 X142.070 Y85.637 E0.17197
G1 X142.070 Y86.173 E0.01688
G1 X145.930 Y90.033 E0.17197
G1 X145.930 Y90.569 E0.01688
G1 X142.070 Y86.709 E0.17197
G1 X142.070 Y87.244 E0.01688
G1 X145.930 Y91.105 E0.17197
G1 X145.930 Y91.641 E0.01688
G1 X142.070 Y87.780 E0.17197
G1 X142.070 Y88.316 E0.01688
G1 X145.930 Y92.176 E0.17197
G1 X145.930 Y92.712 E0.01688
G1 X142.070 Y88.852 E0.17197
G1 X142.070 Y89.388 E0.01688
G1 X145.930 Y93.248 E0.17197
G1 X145.930 Y93.784 E0.01688
G1 X142.070 Y89.923 E0.17197
G1 X142.070 Y90.459 E0.01688
G1 X145.930 Y94.319 E0.17197
G1 X145.930 Y94.855 E0.01688
G1 X142.070 Y90.995 E0.17197
G1 X142.070 Y91.531 E0.01688
G1 X145.930 Y95.391 E0.17197
G1 X145.930 Y95.927 E0.01688
G1 X142.070 Y92.066 E0.17197
G1 X142.070 Y92.602 E0.01688
G1 X145.930 Y96.462 E0.17197
G1 X145.930 Y96.998 E0.01688
G1 X142.070 Y93.138 E0.17197
G1 X142.070 Y93.674 E0.01688
G1 X145.930 Y97.534 E0.17197
G1 X145.930 Y98.070 E0.01688
G1 X142.070 Y94.210 E0.17197
G1 X142.070 Y94.745 E0.01688
G1 X145.930 Y98.606 E0.17197
G1 X145.930 Y99.141 E0.01688
G1 X142.070 Y95.281 E0.17197
G1 X142.070 Y95.817 E0.01688
G1 X145.930 Y99.677 E0.17197
G1 X145.930 Y100.213 E0.01688
G1 X142.070 Y96.353 E0.17197
G1 X142.070 Y96.888 E0.01688
G1 X145.930 Y100.749 E0.17197
G1 X145.930 Y101.284 E0.01688
G1 X142.070 Y97.424 E0.17197
G1 X142.070 Y97.960 E0.01688
G1 X145.930 Y101.820 E0.17197
G1 X145.930 Y102.356 E0.01688
G1 X142.070 Y98.496 E0.17197
G1 X142.070 Y99.032 E0.01688
G1 X145.930 Y102.892 E0.17197
G1 X145.930 Y103.428 E0.01688
G1 X142.070 Y99.567 E0.17197
G1 X142.070 Y100.103 E0.01688
G1 X145.930 Y103.963 E0.17197
G1 X145.930 Y104.499 E0.01688
G1 X142.070 Y100.639 E0.17197
G1 X142.070 Y101.175 E0.01688
G1 X145.930 Y105.035 E0.17197
G1 X145.930 Y105.571 E0.01688
G1 X142.070 Y101.710 E0.17197
G1 X142.070 Y102.246 E0.01688
G1 X145.930 Y106.106 E0.17197
G1 X145.930 Y106.642 E0.01688
G1 X142.070 Y102.782 E0.17197
G1 X142.070 Y103.318 E0.01688
G1 X145.930 Y107.178 E0.17197
G1 X145.930 Y107.714 E0.01688
G1 X142.070 Y103.854 E0.17197
G1 X142.070 Y104.389 E0.01688
G1 X145.930 Y108.250 E0.17197
G1 X145.930 Y108.785 E0.01688
G1 X142.070 Y104.925 E0.17197
G1 X142.070 Y105.461 E0.01688
G1 X145.930 Y109.321 E0.17197
G1 X145.930 Y109.857 E0.01688
G1 X142.070 Y105.997 E0.17197
G1 X142.070 Y106.532 E0.01688
G1 X145.930 Y110.393 E0.17197
G1 X145.930 Y110.928 E0.01688
G1 X142.070 Y107.068 E0.17197
G1 X142.070 Y107.604 E0.01688
G1 X145.930 Y111.464 E0.17197
G1 X145.930 Y112.000 E0.01688
G1 X142.070 Y108.140 E0.17197
G1 X142.070 Y108.676 E0.01688
G1 X145.930 Y112.536 E0.17197
G1 X145.930 Y113.072 E0.01688
G1 X142.070 Y109.211 E0.17197
G1 X142.070 Y109.747 E0.01688
G1 X145.930 Y113.607 E0.17197
G1 X145.930 Y114.143 E0.01688
G1 X142.070 Y110.283 E0.17197
G1 X142.070 Y110.819 E0.01688
G1 X145.930 Y114.679 E0.17197
G1 X145.930 Y115.215 E0.01688
G1 X142.070 Y111.354 E0.17197
G1 X142.070 Y111.890 E0.01688
G1 X145.930 Y115.750 E0.17197
G1 X145.930 Y116.286 E0.01688
G1 X142.070 Y112.426 E0.17197
G1 X142.070 Y112.962 E0.01688
G1 X145.930 Y116.822 E0.17197
G1 X145.930 Y117.358 E0.01688
G1 X142.070 Y113.498 E0.17197
G1 X142.070 Y114.033 E0.01688
G1 X145.930 Y117.894 E0.17197
G1 X145.930 Y118.429 E0.01688
G1 X142.070 Y114.569 E0.17197
G1 X142.070 Y115.105 E0.01688
G1 X145.930 Y118.965 E0.17197
G1 X145.930 Y119.501 E0.01688
G1 X142.070 Y115.641 E0.17197
G1 X142.070 Y116.176 E0.01688
G1 X145.930 Y120.037 E0.17197
G1 X145.930 Y120.572 E0.01688
G1 X142.070 Y116.712 E0.17197
G1 X142.070 Y117.248 E0.01688
G1 X145.930 Y121.108 E0.17197
G1 X145.930 Y121.644 E0.01688
G1 X142.070 Y117.784 E0.17197
G1 X142.070 Y118.320 E0.01688
G1 X145.930 Y122.180 E0.17197
G1 X145.930 Y122.716 E0.01688
G1 X142.070 Y118.855 E0.17197
G1 X142.070 Y119.391 E0.01688
G1 X145.930 Y123.251 E0.17197
G1 X145.930 Y123.787 E0.01688
G1 X142.070 Y119.927 E0.17197
G1 X142.070 Y120.463 E0.01688
G1 X145.930 Y124.323 E0.17197
G1 X145.930 Y124.859 E0.01688
G1 X142.070 Y120.998 E0.17197
G1 X142.070 Y121.534 E0.01688
G1 X145.930 Y125.394 E0.17197
G1 X145.930 Y125.930 E0.01688
G1 X142.070 Y122.070 E0.17197
G1 X142.070 Y122.606 E0.01688
G1 X145.930 Y126.466 E0.17197
G1 X145.930 Y127.002 E0.01688
G1 X142.070 Y123.141 E0.17197
G1 X142.070 Y123.677 E0.01688
G1 X145.930 Y127.538 E0.17197
G1 X145.930 Y128.073 E0.01688
G1 X142.070 Y124.213 E0.17197
G1 X142.070 Y124.570 E0.01124
G1 X141.891 Y124.570 E0.00564
G1 X145.751 Y128.430 E0.17197
G1 X145.215 Y128.430 E0.01688
G1 X141.355 Y124.570 E0.17197
G1 X140.819 Y124.570 E0.01688
G1 X144.680 Y128.430 E0.17197
G1 X144.144 Y128.430 E0.01688
G1 X140.284 Y124.570 E0.17197
M73 Q1 S96
G1 X139.748 Y124.570 E0.01688
G1 X143.608 Y128.430 E0.17197
M73 P1 R95
G1 X143.072 Y128.430 E0.01688
G1 X139.212 Y124.570 E0.17197
G1 X138.676 Y124.570 E0.01688
G1 X142.537 Y128.430 E0.17197
G1 X142.001 Y128.430 E0.01688
G1 X138.140 Y124.570 E0.17197
G1 X137.605 Y124.570 E0.01688
G1 X141.465 Y128.430 E0.17197
G1 X140.929 Y128.430 E0.01688
G1 X137.069 Y124.570 E0.17197
G1 X136.533 Y124.570 E0.01688
G1 X140.393 Y128.430 E0.17197
G1 X139.858 Y128.430 E0.01688
G1 X135.997 Y124.570 E0.17197
G1 X135.462 Y124.570 E0.01688
G1 X139.322 Y128.430 E0.17197
G1 X138.786 Y128.430 E0.01688
G1 X134.926 Y124.570 E0.17197
G1 X134.390 Y124.570 E0.01688
G1 X138.250 Y128.430 E0.17197
G1 X137.715 Y128.430 E0.01688
G1 X133.854 Y124.570 E0.17197
G1 X133.319 Y124.570 E0.01688
G1 X137.179 Y128.430 E0.17197
G1 X136.643 Y128.430 E0.01688
G1 X132.783 Y124.570 E0.17197
G1 X132.247 Y124.570 E0.01688
G1 X136.107 Y128.430 E0.17197
G1 X135.571 Y128.430 E0.01688
G1 X131.711 Y124.570 E0.17197
G1 X131.175 Y124.570 E0.01688
G1 X135.036 Y128.430 E0.17197
G1 X134.500 Y128.430 E0.01688
G1 X130.640 Y124.570 E0.17197
G1 X130.104 Y124.570 E0.01688
G1 X133.964 Y128.430 E0.17197
G1 X133.428 Y128.430 E0.01688
G1 X129.568 Y124.570 E0.17197
G1 X129.032 Y124.570 E0.01688
G1 X132.893 Y128.430 E0.17197
G1 X132.357 Y128.430 E0.01688
G1 X128.497 Y124.570 E0.17197
G1 X127.961 Y124.570 E0.01688
G1 X131.821 Y128.430 E0.17197
G1 X131.285 Y128.430 E0.01688
G1 X127.425 Y124.570 E0.17197
G1 X126.889 Y124.570 E0.01688
G1 X130.749 Y128.430 E0.17197
G1 X130.214 Y128.430 E0.01688
G1 X126.353 Y124.570 E0.17197
G1 X125.818 Y124.570 E0.01688
G1 X129.678 Y128.430 E0.17197
G1 X129.142 Y128.430 E0.01688
G1 X125.282 Y124.570 E0.17197
G1 X124.746 Y124.570 E0.01688
G1 X128.606 Y128.430 E0.17197
G1 X128.071 Y128.430 E0.01688
G1 X124.210 Y124.570 E0.17197
G1 X123.675 Y124.570 E0.01688
G1 X127.535 Y128.430 E0.17197
G1 X126.999 Y128.430 E0.01688
G1 X123.139 Y124.570 E0.17197
G1 X122.603 Y124.570 E0.01688
G1 X126.463 Y128.430 E0.17197
G1 X125.927 Y128.430 E0.01688
G1 X122.067 Y124.570 E0.17197
G1 X121.531 Y124.570 E0.01688
G1 X125.392 Y128.430 E0.17197
G1 X124.856 Y128.430 E0.01688
G1 X120.996 Y124.570 E0.17197
G1 X120.460 Y124.570 E0.01688
G1 X124.320 Y128.430 E0.17197
G1 X123.784 Y128.430 E0.01688
G1 X119.924 Y124.570 E0.17197
G1 X119.388 Y124.570 E0.01688
G1 X123.249 Y128.430 E0.17197
G1 X122.713 Y128.430 E0.01688
G1 X118.853 Y124.570 E0.17197
G1 X118.317 Y124.570 E0.01688
G1 X122.177 Y128.430 E0.17197
G1 X121.641 Y128.430 E0.01688
G1 X117.781 Y124.570 E0.17197
G1 X117.245 Y124.570 E0.01688
G1 X121.105 Y128.430 E0.17197
G1 X120.570 Y128.430 E0.01688
G1 X116.709 Y124.570 E0.17197
G1 X116.174 Y124.570 E0.01688
G1 X120.034 Y128.430 E0.17197
G1 X119.498 Y128.430 E0.01688
G1 X115.638 Y124.570 E0.17197
G1 X115.102 Y124.570 E0.01688
G1 X118.962 Y128.430 E0.17197
G1 X118.427 Y128.430 E0.01688
G1 X114.566 Y124.570 E0.17197
G1 X114.031 Y124.570 E0.01688
G1 X117.891 Y128.430 E0.17197
G1 X117.355 Y128.430 E0.01688
G1 X113.495 Y124.570 E0.17197
G1 X112.959 Y124.570 E0.01688
G1 X116.819 Y128.430 E0.17197
G1 X116.283 Y128.430 E0.01688
G1 X112.423 Y124.570 E0.17197
G1 X111.887 Y124.570 E0.01688
G1 X115.748 Y128.430 E0.17197
G1 X115.212 Y128.430 E0.01688
G1 X111.352 Y124.570 E0.17197
G1 X110.816 Y124.570 E0.01688
G1 X114.676 Y128.430 E0.17197
G1 X114.140 Y128.430 E0.01688
G1 X110.280 Y124.570 E0.17197
G1 X109.744 Y124.570 E0.01688
G1 X113.605 Y128.430 E0.17197
G1 X113.069 Y128.430 E0.01688
G1 X109.209 Y124.570 E0.17197
G1 X108.673 Y124.570 E0.01688
G1 X112.533 Y128.430 E0.17197
G1 X111.997 Y128.430 E0.01688
G1 X108.137 Y124.570 E0.17197
G1 X107.601 Y124.570 E0.01688
G1 X111.461 Y128.430 E0.17197
G1 X110.926 Y128.430 E0.01688
G1 X107.065 Y124.570 E0.17197
G1 X106.530 Y124.570 E0.01688
G1 X110.390 Y128.430 E0.17197
G1 X109.854 Y128.430 E0.01688
G1 X105.994 Y124.570 E0.17197
G1 X105.458 Y124.570 E0.01688
G1 X109.318 Y128.430 E0.17197
G1 X108.783 Y128.430 E0.01688
G1 X104.922 Y124.570 E0.17197
G1 X104.387 Y124.570 E0.01688
G1 X108.247 Y128.430 E0.17197
G1 X107.711 Y128.430 E0.01688
G1 X104.070 Y124.789 E0.16221
G1 X104.070 Y125.325 E0.01688
G1 X107.175 Y128.430 E0.13835
G1 X106.640 Y128.430 E0.01688
G1 X104.070 Y125.860 E0.11448
G1 X104.070 Y126.396 E0.01688
G1 X106.104 Y128.430 E0.09061
G1 X105.568 Y128.430 E0.01688
G1 X104.070 Y126.932 E0.06674
G1 X104.070 Y127.468 E0.01688
G1 X105.032 Y128.430 E0.04287
G1 X104.496 Y128.430 E0.01688
G1 X103.900 Y127.834 E0.02656
M106 S255
;BEFORE_LAYER_CHANGE
G92 E0.0
;0.4


G1 F8640.000
G1 X104.496 Y128.430 E-0.19469
G1 X105.032 Y128.430 E-0.12371
G1 X104.070 Y127.468 E-0.31424
G1 X104.070 Y126.932 E-0.12371
G1 X104.081 Y126.943 E-0.00365
G1 E-0.04000 F2100.00000
G1 Z0.800 F10800.000
;AFTER_LAYER_CHANGE
;0.4
G1 X102.161 Y131.724
G1 Z0.400
G1 E0.80000 F2100.00000
G1 F3000.000
G1 X101.454 Y131.305 E0.02579
G1 X101.114 Y130.947 E0.01550
G1 X100.855 Y130.525 E0.01550
G1 X100.689 Y130.056 E0.01562
G1 X100.624 Y129.566 E0.01550
G1 X100.630 Y123.321 E0.19580
G1 X100.802 Y122.594 E0.02343
G1 X101.195 Y121.954 E0.02355
G1 X139.356 Y78.783 E1.80661
G1 X140.022 Y78.333 E0.02520
G1 X140.796 Y78.132 E0.02508
G1 X147.004 Y78.123 E0.19464
G1 X147.892 Y78.297 E0.02837
G1 X148.653 Y78.792 E0.02849
G1 X149.172 Y79.534 E0.02837
G1 X149.376 Y80.419 E0.02849
G1 X149.377 Y129.527 E1.53974
G1 X149.226 Y130.335 E0.02579
G1 X148.805 Y131.046 E0.02590
G1 X148.434 Y131.395 E0.01597
G1 X148.001 Y131.656 E0.01585
G1 X147.519 Y131.820 E0.01597
G1 X147.013 Y131.877 E0.01597
G1 X102.970 Y131.877 E1.38094
G1 X102.220 Y131.735 E0.02390
G1 F8640.000
G1 X101.454 Y131.305 E-0.20297
G1 X101.114 Y130.947 E-0.11413
G1 X100.855 Y130.525 E-0.11413
G1 X100.689 Y130.056 E-0.11500
G1 X100.624 Y129.566 E-0.11413
G1 X100.624 Y129.134 E-0.09963
G1 E-0.04000 F2100.00000
G1 Z1.000 F10800.000
G1 X103.632 Y128.868
G1 Z0.400
G1 E0.80000 F2100.00000
M204 S800
G1 F3600.000
G1 X103.632 Y124.132 E0.16030
G1 X141.632 Y124.132 E1.28625
G1 X141.632 Y81.132 E1.45550
G1 X146.368 Y81.132 E0.16030
G1 X146.368 Y128.868 E1.61580
G1 X103.692 Y128.868 E1.44453
M204 S1000
G1 F8640.000
G1 X103.650 Y125.577 E-0.76000
G1 E-0.04000 F2100.00000
G1 Z1.000 F10800.000
G1 X141.225 Y123.725
G1 Z0.400
G1 E0.80000 F2100.00000
M204 S800
G1 X141.225 Y80.725 E1.45550
G1 X146.775 Y80.725 E0.18786
G1 X146.775 Y129.275 E1.64336
G1 X103.225 Y129.275 E1.47412
G1 X103.225 Y123.725 E0.18786
G1 X141.165 Y123.725 E1.28422
M204 S1000
G1 X141.625 Y123.706 F10800.000
G1 F8640.000
G1 X141.170 Y120.434 E-0.76000
G1 E-0.04000 F2100.00000
G1 Z1.000 F10800.000
G1 X145.419 Y128.746
G1 Z0.400
G1 E0.80000 F2100.00000
G1 F7819
G1 X146.063 Y128.102 E0.03097
G1 X146.063 Y127.523 E0.01968
G1 X145.023 Y128.563 E0.04999
G1 X144.445 Y128.563 E0.01968
G1 X146.063 Y126.945 E0.07782
G1 X146.063 Y126.366 E0.01968
G1 X143.866 Y128.563 E0.10564
G1 X143.288 Y128.563 E0.01968
G1 X146.063 Y125.788 E0.13347
G1 X146.063 Y125.209 E0.01968
G1 X142.709 Y128.563 E0.16130
G1 X142.131 Y128.563 E0.01968
G1 X146.063 Y124.631 E0.18912
G1 X146.063 Y124.052 E0.01968
G1 X141.552 Y128.563 E0.21695
G1 X140.974 Y128.563 E0.01968
G1 X146.063 Y123.474 E0.24478
G1 X146.063 Y122.895 E0.01968
G1 X140.395 Y128.563 E0.27260
G1 X139.817 Y128.563 E0.01968
