; generated by PrusaSlicer 2.2.0+linux-x64 on 2020-10-29 at 13:29:42 UTC

; 

; external perimeters extrusion width = 0.60mm
; perimeters extrusion width = 0.50mm
; infill extrusion width = 0.50mm
; solid infill extrusion width = 0.50mm
; top infill extrusion width = 0.45mm
; first layer extrusion width = 0.42mm

M73 P0 R18
M73 Q0 S18
M201 X1000 Y1000 Z200 E5000 ; sets maximum accelerations, mm/sec^2
M203 X200 Y200 Z12 E120 ; sets maximum feedrates, mm/sec
M204 P1250 R1250 T1250 ; sets acceleration (P, T) and retract acceleration (R), mm/sec^2
M205 X8.00 Y8.00 Z0.40 E4.50 ; sets the jerk limits, mm/sec
M205 S0 T0 ; sets the minimum extruding and travel feed rate, mm/sec
M107
M862.3 P "MK3S" ; printer model check
M862.1 P0.4 ; nozzle diameter check
M115 U3.9.1 ; tell printer latest fw version
G90 ; use absolute coordinates
M83 ; extruder relative mode
M104 S215 ; set extruder temp
M140 S60 ; set bed temp
M190 S60 ; wait for bed temp
M109 S215 ; wait for extruder temp
G28 W ; home all without mesh bed level
G80 ; mesh bed leveling
G1 Y-3.0 F1000.0 ; go outside print area
G92 E0.0
G1 X60.0 E9.0 F1000.0 ; intro line
M73 Q0 S18
M73 P0 R18
G1 X100.0 E12.5 F1000.0 ; intro line
G92 E0.0
M221 S95

; Don't change E values below. Excessive value can damage the printer.

M907 E538 ; set extruder motor current
G21 ; set units to millimeters
G90 ; use absolute coordinates
M83 ; use relative distances for extrusion
M900 K0.05 ; Filament gcode LA 1.5
M900 K30 ; Filament gcode LA 1.0
;BEFORE_LAYER_CHANGE
G92 E0.0
;0.2


G1 E-0.80000 F2100.00000
G1 Z0.600 F10800.000
;AFTER_LAYER_CHANGE
;0.2
G1 X95.750 Y98.391
G1 Z0.200
G1 E0.80000 F2100.00000
M204 S1000
G1 F1200.000
G1 X96.310 Y97.942 E0.02249
G1 X96.978 Y97.681 E0.02249
G1 X97.495 Y97.623 E0.01633
G1 X152.504 Y97.623 E1.72476
G1 X153.392 Y97.797 E0.02837
G1 X154.153 Y98.292 E0.02849
G1 X154.672 Y99.034 E0.02837
G1 X154.876 Y99.915 E0.02837
G1 X154.851 Y110.349 E0.32715
G1 X154.643 Y111.028 E0.02225
G1 X154.242 Y111.617 E0.02237
G1 X153.684 Y112.061 E0.02237
G1 X153.022 Y112.319 E0.02225
G1 X152.505 Y112.377 E0.01633
G1 X97.428 Y112.376 E1.72691
G1 X96.665 Y112.226 E0.02437
G1 X95.989 Y111.835 E0.02449
G1 X95.476 Y111.246 E0.02449
G1 X95.181 Y110.522 E0.02449
G1 X95.123 Y110.009 E0.01621
G1 X95.146 Y99.670 E0.32417
G1 X95.352 Y98.983 E0.02249
G1 X95.717 Y98.441 E0.02049
G1 F8640.000
G1 X96.310 Y97.942 E-0.17887
G1 X96.978 Y97.681 E-0.16559
G1 X97.495 Y97.623 E-0.12025
G1 X98.774 Y97.623 E-0.29529
G1 E-0.04000 F2100.00000
G1 Z0.800 F10800.000
G1 X130.643 Y102.542
G1 Z0.200
G1 E0.80000 F2100.00000
G1 F1200.000
G1 X130.806 Y102.111 E0.01446
G1 X131.068 Y101.731 E0.01446
G1 X131.413 Y101.426 E0.01446
G1 X131.822 Y101.211 E0.01446
G1 X132.269 Y101.101 E0.01446
G1 X132.731 Y101.101 E0.01446
G1 X133.178 Y101.211 E0.01446
G1 X133.587 Y101.426 E0.01446
G1 X133.907 Y101.709 E0.01341
G1 X134.193 Y102.109 E0.01542
G1 X134.357 Y102.542 E0.01452
G1 X134.413 Y103.000 E0.01446
G1 X134.357 Y103.458 E0.01446
G1 X134.206 Y103.858 E0.01341
G1 X133.933 Y104.267 E0.01542
G1 X133.587 Y104.574 E0.01452
G1 X133.178 Y104.789 E0.01446
G1 X132.731 Y104.899 E0.01446
G1 X132.269 Y104.899 E0.01446
G1 X131.822 Y104.789 E0.01446
G1 X131.413 Y104.574 E0.01446
G1 X131.068 Y104.269 E0.01446
G1 X130.806 Y103.889 E0.01446
G1 X130.643 Y103.458 E0.01446
G1 X130.587 Y103.000 E0.01446
G1 X130.635 Y102.602 E0.01258
G1 X130.354 Y102.265 F10800.000
G1 F8640.000
G1 X130.806 Y102.111 E-0.11998
G1 X131.068 Y101.731 E-0.10649
G1 X131.413 Y101.426 E-0.10649
G1 X131.822 Y101.211 E-0.10649
G1 X132.269 Y101.101 E-0.10649
G1 X132.731 Y101.101 E-0.10649
G1 X133.178 Y101.211 E-0.10649
G1 X133.183 Y101.214 E-0.00110
G1 E-0.04000 F2100.00000
G1 Z0.800 F10800.000
G1 X119.413 Y103.000
G1 Z0.200
G1 E0.80000 F2100.00000
G1 F1200.000
G1 X119.357 Y103.458 E0.01446
G1 X119.194 Y103.889 E0.01446
G1 X118.932 Y104.269 E0.01446
G1 X118.587 Y104.574 E0.01446
G1 X118.178 Y104.789 E0.01446
G1 X117.731 Y104.899 E0.01446
G1 X117.269 Y104.899 E0.01446
G1 X116.822 Y104.789 E0.01446
G1 X116.413 Y104.574 E0.01446
G1 X116.093 Y104.291 E0.01341
G1 X115.807 Y103.891 E0.01542
G1 X115.643 Y103.458 E0.01452
G1 X115.587 Y103.000 E0.01446
G1 X115.643 Y102.542 E0.01446
G1 X115.794 Y102.142 E0.01341
G1 X116.067 Y101.733 E0.01542
G1 X116.413 Y101.426 E0.01452
G1 X116.792 Y101.227 E0.01341
G1 X117.268 Y101.101 E0.01542
G1 X117.731 Y101.101 E0.01452
G1 X118.178 Y101.211 E0.01446
G1 X118.587 Y101.426 E0.01446
G1 X118.932 Y101.731 E0.01446
G1 X119.194 Y102.111 E0.01446
G1 X119.357 Y102.542 E0.01446
G1 X119.406 Y102.940 E0.01258
G1 X119.759 Y103.200 F10800.000
G1 F8640.000
G1 X119.357 Y103.458 E-0.11998
G1 X119.194 Y103.889 E-0.10649
G1 X118.932 Y104.269 E-0.10649
G1 X118.587 Y104.574 E-0.10649
G1 X118.178 Y104.789 E-0.10649
G1 X117.731 Y104.899 E-0.10649
G1 X117.269 Y104.899 E-0.10649
G1 X117.265 Y104.898 E-0.00110
G1 E-0.04000 F2100.00000
G1 Z0.800 F10800.000
G1 X118.033 Y100.787
G1 Z0.200
G1 E0.80000 F2100.00000
G1 F1200.000
G1 X131.967 Y100.787 E0.43690
G1 X131.687 Y100.856 E0.00905
G1 X131.198 Y101.113 E0.01733
G1 X130.784 Y101.480 E0.01733
G1 X130.470 Y101.934 E0.01733
G1 X130.274 Y102.451 E0.01733
G1 X130.207 Y103.000 E0.01733
G1 X130.274 Y103.549 E0.01733
G1 X130.470 Y104.066 E0.01733
G1 X130.784 Y104.520 E0.01733
G1 X131.198 Y104.887 E0.01733
G1 X131.687 Y105.144 E0.01733
G1 X132.224 Y105.276 E0.01733
G1 X132.776 Y105.276 E0.01733
G1 X133.313 Y105.144 E0.01733
G1 X133.802 Y104.887 E0.01733
G1 X134.220 Y104.517 E0.01749
G1 X134.543 Y104.031 E0.01829
G1 X134.726 Y103.549 E0.01618
G1 X134.793 Y103.000 E0.01733
G1 X134.726 Y102.451 E0.01733
G1 X134.528 Y101.930 E0.01749
G1 X134.189 Y101.455 E0.01829
G1 X133.802 Y101.113 E0.01618
G1 X133.313 Y100.856 E0.01733
G1 X133.033 Y100.787 E0.00905
G1 X151.713 Y100.787 E0.58570
G1 X151.713 Y109.213 E0.26419
G1 X98.287 Y109.213 E1.67513
G1 X98.287 Y100.787 E0.26419
G1 X116.980 Y100.787 E0.58609
G1 X116.655 Y100.873 E0.01055
G1 X116.198 Y101.113 E0.01618
G1 X115.780 Y101.483 E0.01749
G1 X115.457 Y101.969 E0.01829
G1 X115.274 Y102.451 E0.01618
G1 X115.207 Y103.000 E0.01733
G1 X115.274 Y103.549 E0.01733
G1 X115.472 Y104.070 E0.01749
G1 X115.811 Y104.545 E0.01829
G1 X116.198 Y104.887 E0.01618
G1 X116.687 Y105.144 E0.01733
G1 X117.224 Y105.276 E0.01733
G1 X117.776 Y105.276 E0.01733
G1 X118.313 Y105.144 E0.01733
G1 X118.802 Y104.887 E0.01733
G1 X119.216 Y104.520 E0.01733
G1 X119.530 Y104.066 E0.01733
G1 X119.726 Y103.549 E0.01733
G1 X119.793 Y103.000 E0.01733
G1 X119.726 Y102.451 E0.01733
G1 X119.530 Y101.934 E0.01733
G1 X119.216 Y101.480 E0.01733
G1 X118.802 Y101.113 E0.01733
G1 X118.313 Y100.856 E0.01733
G1 X118.091 Y100.801 E0.00717
G1 F8640.000
G1 X121.383 Y100.798 E-0.76000
G1 E-0.04000 F2100.00000
G1 Z0.800 F10800.000
G1 X97.910 Y100.410
G1 Z0.200
G1 E0.80000 F2100.00000
G1 F1200.000
G1 X152.090 Y100.410 E1.69878
G1 X152.090 Y109.590 E0.28783
G1 X97.910 Y109.590 E1.69878
G1 X97.910 Y100.470 E0.28595
G1 X98.309 Y100.432 F10800.000
G1 F8640.000
G1 X101.201 Y100.466 E-0.76000
G1 E-0.04000 F2100.00000
G1 Z0.800 F10800.000
G1 X98.400 Y108.336
G1 Z0.200
G1 E0.80000 F2100.00000
G1 F1200.000
G1 X98.995 Y108.930 E0.02642
G1 X99.529 Y108.930 E0.01680
G1 X98.570 Y107.971 E0.04264
G1 X98.570 Y107.436 E0.01680
G1 X100.064 Y108.930 E0.06640
G1 X100.598 Y108.930 E0.01680
G1 X98.570 Y106.902 E0.09016
G1 X98.570 Y106.367 E0.01680
G1 X101.133 Y108.930 E0.11392
G1 X101.667 Y108.930 E0.01680
G1 X98.570 Y105.833 E0.13768
G1 X98.570 Y105.298 E0.01680
G1 X102.202 Y108.930 E0.16145
G1 X102.737 Y108.930 E0.01680
G1 X98.570 Y104.763 E0.18521
G1 X98.570 Y104.229 E0.01680
G1 X103.271 Y108.930 E0.20897
G1 X103.806 Y108.930 E0.01680
G1 X98.570 Y103.694 E0.23273
G1 X98.570 Y103.160 E0.01680
G1 X104.340 Y108.930 E0.25649
G1 X104.875 Y108.930 E0.01680
G1 X98.570 Y102.625 E0.28025
G1 X98.570 Y102.091 E0.01680
G1 X105.409 Y108.930 E0.30401
G1 X105.944 Y108.930 E0.01680
G1 X98.570 Y101.556 E0.32777
G1 X98.570 Y101.070 E0.01528
G1 X98.618 Y101.070 E0.00152
G1 X106.479 Y108.930 E0.34938
G1 X107.013 Y108.930 E0.01680
G1 X99.153 Y101.070 E0.34938
G1 X99.687 Y101.070 E0.01680
G1 X107.548 Y108.930 E0.34938
G1 X108.082 Y108.930 E0.01680
G1 X100.222 Y101.070 E0.34938
G1 X100.757 Y101.070 E0.01680
G1 X108.617 Y108.930 E0.34938
G1 X109.151 Y108.930 E0.01680
G1 X101.291 Y101.070 E0.34938
G1 X101.826 Y101.070 E0.01680
G1 X109.686 Y108.930 E0.34938
G1 X110.220 Y108.930 E0.01680
G1 X102.360 Y101.070 E0.34938
G1 X102.895 Y101.070 E0.01680
G1 X110.755 Y108.930 E0.34938
G1 X111.290 Y108.930 E0.01680
G1 X103.429 Y101.070 E0.34938
G1 X103.964 Y101.070 E0.01680
G1 X111.824 Y108.930 E0.34938
G1 X112.359 Y108.930 E0.01680
G1 X104.498 Y101.070 E0.34938
G1 X105.033 Y101.070 E0.01680
G1 X112.893 Y108.930 E0.34938
G1 X113.428 Y108.930 E0.01680
G1 X105.568 Y101.070 E0.34938
G1 X106.102 Y101.070 E0.01680
G1 X113.962 Y108.930 E0.34938
G1 X114.497 Y108.930 E0.01680
G1 X106.637 Y101.070 E0.34938
G1 X107.171 Y101.070 E0.01680
G1 X115.031 Y108.930 E0.34938
G1 X115.566 Y108.930 E0.01680
G1 X107.706 Y101.070 E0.34938
G1 X108.240 Y101.070 E0.01680
G1 X116.101 Y108.930 E0.34938
G1 X116.635 Y108.930 E0.01680
G1 X108.775 Y101.070 E0.34938
G1 X109.310 Y101.070 E0.01680
G1 X117.170 Y108.930 E0.34938
G1 X117.704 Y108.930 E0.01680
G1 X109.844 Y101.070 E0.34938
G1 X110.379 Y101.070 E0.01680
G1 X118.239 Y108.930 E0.34938
G1 X118.773 Y108.930 E0.01680
G1 X110.913 Y101.070 E0.34938
G1 X111.448 Y101.070 E0.01680
G1 X119.308 Y108.930 E0.34938
G1 X119.843 Y108.930 E0.01680
G1 X111.982 Y101.070 E0.34938
G1 X112.517 Y101.070 E0.01680
G1 X114.988 Y103.541 E0.10984
G1 X114.929 Y102.947 E0.01876
G1 X113.051 Y101.070 E0.08344
G1 X113.586 Y101.070 E0.01680
G1 X114.987 Y102.470 E0.06225
G1 X114.997 Y102.383 E0.00277
G1 X115.117 Y102.067 E0.01064
G1 X114.121 Y101.070 E0.04430
G1 X114.655 Y101.070 E0.01680
G1 X115.292 Y101.706 E0.02829
G1 X115.505 Y101.385 E0.01212
G1 X115.190 Y101.070 E0.01402
G1 X115.724 Y101.070 E0.01680
G1 X115.889 Y101.235 E0.00734
G1 F8640.000
G1 X115.724 Y101.070 E-0.05390
G1 X115.190 Y101.070 E-0.12343
G1 X115.505 Y101.385 E-0.10302
G1 X115.292 Y101.706 E-0.08903
G1 X114.655 Y101.070 E-0.20785
G1 X114.121 Y101.070 E-0.12343
G1 X114.302 Y101.252 E-0.05934
G1 E-0.04000 F2100.00000
G1 Z0.800 F10800.000
G1 X117.166 Y100.755
G1 Z0.200
G1 E0.80000 F2100.00000
G1 F1200.000
G1 X117.847 Y100.755 E0.01777
G1 F8640.000
G1 X117.166 Y100.755 E-0.15726
G1 E-0.64274 F2100.00000
G1 Z0.800 F10800.000
G1 X116.714 Y105.267
G1 Z0.200
G1 E0.80000 F2100.00000
G1 F1200.000
G1 X120.377 Y108.930 E0.16282
G1 X120.912 Y108.930 E0.01680
G1 X117.540 Y105.559 E0.14985
G1 X117.811 Y105.559 E0.00849
G1 X118.023 Y105.507 E0.00686
G1 X121.446 Y108.930 E0.15217
G1 X121.981 Y108.930 E0.01680
G1 X118.445 Y105.394 E0.15717
G1 X118.795 Y105.210 E0.01244
G1 X122.515 Y108.930 E0.16535
G1 X123.050 Y108.930 E0.01680
G1 X119.111 Y104.991 E0.17507
G1 X119.395 Y104.740 E0.01190
G1 X123.584 Y108.930 E0.18624
G1 X124.119 Y108.930 E0.01680
G1 X119.621 Y104.432 E0.19994
G1 X119.782 Y104.198 E0.00894
G1 X119.821 Y104.097 E0.00339
G1 X124.654 Y108.930 E0.21482
G1 X125.188 Y108.930 E0.01680
G1 X119.968 Y103.710 E0.23205
G1 X120.003 Y103.617 E0.00312
G1 X120.047 Y103.254 E0.01148
G1 X125.723 Y108.930 E0.25229
G1 X126.257 Y108.930 E0.01680
G1 X120.043 Y102.716 E0.27621
G1 X120.003 Y102.383 E0.01054
G1 X119.855 Y101.993 E0.01310
G1 X126.792 Y108.930 E0.30834
G1 X127.326 Y108.930 E0.01680
G1 X119.466 Y101.070 E0.34938
G1 X120.001 Y101.070 E0.01680
G1 X127.861 Y108.930 E0.34938
G1 X128.396 Y108.930 E0.01680
G1 X120.535 Y101.070 E0.34938
G1 X121.070 Y101.070 E0.01680
G1 X128.930 Y108.930 E0.34938
G1 X129.465 Y108.930 E0.01680
G1 X121.604 Y101.070 E0.34938
G1 X122.139 Y101.070 E0.01680
G1 X129.999 Y108.930 E0.34938
G1 X130.534 Y108.930 E0.01680
G1 X122.674 Y101.070 E0.34938
G1 X123.208 Y101.070 E0.01680
G1 X131.068 Y108.930 E0.34938
M73 Q5 S17
G1 X131.603 Y108.930 E0.01680
G1 X123.743 Y101.070 E0.34938
M73 P5 R17
G1 X124.277 Y101.070 E0.01680
G1 X132.137 Y108.930 E0.34938
G1 X132.672 Y108.930 E0.01680
G1 X124.812 Y101.070 E0.34938
G1 X125.346 Y101.070 E0.01680
G1 X133.207 Y108.930 E0.34938
G1 X133.741 Y108.930 E0.01680
G1 X125.881 Y101.070 E0.34938
G1 X126.415 Y101.070 E0.01680
G1 X134.276 Y108.930 E0.34938
G1 X134.810 Y108.930 E0.01680
G1 X126.950 Y101.070 E0.34938
G1 X127.485 Y101.070 E0.01680
G1 X129.992 Y103.578 E0.11147
G1 X129.925 Y102.976 E0.01903
G1 X128.019 Y101.070 E0.08472
G1 X128.554 Y101.070 E0.01680
G1 X129.983 Y102.499 E0.06353
G1 X129.997 Y102.383 E0.00368
G1 X130.108 Y102.090 E0.00985
G1 X129.088 Y101.070 E0.04534
G1 X129.623 Y101.070 E0.01680
G1 X130.274 Y101.721 E0.02893
G1 X130.492 Y101.404 E0.01208
G1 X130.157 Y101.070 E0.01487
G1 X130.692 Y101.070 E0.01680
G1 X130.872 Y101.250 E0.00801
G1 F8640.000
G1 X130.692 Y101.070 E-0.05885
G1 X130.157 Y101.070 E-0.12343
G1 X130.492 Y101.404 E-0.10926
G1 X130.274 Y101.721 E-0.08873
G1 X129.623 Y101.070 E-0.21253
G1 X129.088 Y101.070 E-0.12343
G1 X129.222 Y101.204 E-0.04376
G1 E-0.04000 F2100.00000
G1 Z0.800 F10800.000
G1 X132.153 Y100.755
G1 Z0.200
G1 E0.80000 F2100.00000
G1 F1200.000
G1 X132.847 Y100.755 E0.01810
G1 F8640.000
G1 X132.153 Y100.755 E-0.16014
G1 E-0.63986 F2100.00000
G1 Z0.800 F10800.000
G1 X131.671 Y105.256
G1 Z0.200
G1 E0.80000 F2100.00000
G1 F1200.000
G1 X135.345 Y108.930 E0.16329
G1 X135.879 Y108.930 E0.01680
G1 X132.508 Y105.559 E0.14985
G1 X132.811 Y105.559 E0.00951
G1 X132.997 Y105.513 E0.00603
G1 X136.414 Y108.930 E0.15189
G1 X136.949 Y108.930 E0.01680
G1 X133.424 Y105.405 E0.15668
G1 X133.774 Y105.221 E0.01244
G1 X137.483 Y108.930 E0.16486
G1 X138.018 Y108.930 E0.01680
G1 X134.094 Y105.007 E0.17440
G1 X134.377 Y104.755 E0.01190
G1 X138.552 Y108.930 E0.18556
G1 X139.087 Y108.930 E0.01680
G1 X134.605 Y104.449 E0.19920
G1 X134.812 Y104.121 E0.01218
G1 X139.621 Y108.930 E0.21378
G1 X140.156 Y108.930 E0.01680
G1 X134.959 Y103.733 E0.23101
G1 X135.003 Y103.617 E0.00390
G1 X135.043 Y103.283 E0.01057
G1 X140.690 Y108.930 E0.25101
G1 X141.225 Y108.930 E0.01680
G1 X135.048 Y102.753 E0.27457
G1 X135.003 Y102.383 E0.01171
G1 X134.875 Y102.045 E0.01136
G1 X141.760 Y108.930 E0.30603
G1 X142.294 Y108.930 E0.01680
G1 X134.434 Y101.070 E0.34938
G1 X134.968 Y101.070 E0.01680
G1 X142.829 Y108.930 E0.34938
G1 X143.363 Y108.930 E0.01680
G1 X135.503 Y101.070 E0.34938
G1 X136.038 Y101.070 E0.01680
G1 X143.898 Y108.930 E0.34938
G1 X144.432 Y108.930 E0.01680
G1 X136.572 Y101.070 E0.34938
G1 X137.107 Y101.070 E0.01680
G1 X144.967 Y108.930 E0.34938
G1 X145.501 Y108.930 E0.01680
G1 X137.641 Y101.070 E0.34938
G1 X138.176 Y101.070 E0.01680
G1 X146.036 Y108.930 E0.34938
G1 X146.571 Y108.930 E0.01680
G1 X138.710 Y101.070 E0.34938
G1 X139.245 Y101.070 E0.01680
G1 X147.105 Y108.930 E0.34938
G1 X147.640 Y108.930 E0.01680
G1 X139.780 Y101.070 E0.34938
G1 X140.314 Y101.070 E0.01680
G1 X148.174 Y108.930 E0.34938
G1 X148.709 Y108.930 E0.01680
G1 X140.849 Y101.070 E0.34938
G1 X141.383 Y101.070 E0.01680
G1 X149.243 Y108.930 E0.34938
G1 X149.778 Y108.930 E0.01680
G1 X141.918 Y101.070 E0.34938
G1 X142.452 Y101.070 E0.01680
G1 X150.313 Y108.930 E0.34938
G1 X150.847 Y108.930 E0.01680
G1 X142.987 Y101.070 E0.34938
G1 X143.521 Y101.070 E0.01680
G1 X151.382 Y108.930 E0.34938
G1 X151.430 Y108.930 E0.00152
G1 X151.430 Y108.444 E0.01528
G1 X144.056 Y101.070 E0.32777
G1 X144.591 Y101.070 E0.01680
G1 X151.430 Y107.909 E0.30401
G1 X151.430 Y107.375 E0.01680
G1 X145.125 Y101.070 E0.28025
G1 X145.660 Y101.070 E0.01680
G1 X151.430 Y106.840 E0.25649
G1 X151.430 Y106.306 E0.01680
G1 X146.194 Y101.070 E0.23273
G1 X146.729 Y101.070 E0.01680
G1 X151.430 Y105.771 E0.20897
G1 X151.430 Y105.237 E0.01680
G1 X147.263 Y101.070 E0.18521
G1 X147.798 Y101.070 E0.01680
G1 X151.430 Y104.702 E0.16145
G1 X151.430 Y104.168 E0.01680
G1 X148.332 Y101.070 E0.13769
G1 X148.867 Y101.070 E0.01680
G1 X151.430 Y103.633 E0.11393
G1 X151.430 Y103.098 E0.01680
G1 X149.402 Y101.070 E0.09017
G1 X149.936 Y101.070 E0.01680
G1 X151.430 Y102.564 E0.06640
G1 X151.430 Y102.029 E0.01680
G1 X150.471 Y101.070 E0.04264
G1 X151.005 Y101.070 E0.01680
