; generated by PrusaSlicer 2.2.0+linux-x64 on 2020-10-29 at 13:05:36 UTC

; 

; external perimeters extrusion width = 0.60mm
; perimeters extrusion width = 0.50mm
; infill extrusion width = 0.50mm
; solid infill extrusion width = 0.50mm
; top infill extrusion width = 0.45mm
; first layer extrusion width = 0.42mm

M73 P0 R4
M73 Q0 S4
M201 X1000 Y1000 Z200 E5000 ; sets maximum accelerations, mm/sec^2
M203 X200 Y200 Z12 E120 ; sets maximum feedrates, mm/sec
M204 P1250 R1250 T1250 ; sets acceleration (P, T) and retract acceleration (R), mm/sec^2
M205 X8.00 Y8.00 Z0.40 E4.50 ; sets the jerk limits, mm/sec
M205 S0 T0 ; sets the minimum extruding and travel feed rate, mm/sec
M107
M862.3 P "MK3S" ; printer model check
M862.1 P0.4 ; nozzle diameter check
M115 U3.9.1 ; tell printer latest fw version
G90 ; use absolute coordinates
M83 ; extruder relative mode
M104 S215 ; set extruder temp
M140 S60 ; set bed temp
M190 S60 ; wait for bed temp
M109 S215 ; wait for extruder temp
G28 W ; home all without mesh bed level
G80 ; mesh bed leveling
G1 Y-3.0 F1000.0 ; go outside print area
G92 E0.0
G1 X60.0 E9.0 F1000.0 ; intro line
M73 Q1 S4
M73 P1 R4
G1 X100.0 E12.5 F1000.0 ; intro line
G92 E0.0
M221 S95

; Don't change E values below. Excessive value can damage the printer.

M907 E538 ; set extruder motor current
G21 ; set units to millimeters
G90 ; use absolute coordinates
M83 ; use relative distances for extrusion
M900 K0.05 ; Filament gcode LA 1.5
M900 K30 ; Filament gcode LA 1.0
;BEFORE_LAYER_CHANGE
G92 E0.0
;0.2


G1 E-0.80000 F2100.00000
G1 Z0.600 F10800.000
;AFTER_LAYER_CHANGE
;0.2
G1 X112.753 Y99.908
G1 Z0.200
G1 E0.80000 F2100.00000
M204 S1000
G1 F1200.000
G1 X113.216 Y99.401 E0.02154
G1 X113.791 Y99.025 E0.02154
G1 X114.361 Y98.821 E0.01899
G1 X114.962 Y98.746 E0.01899
G1 X135.004 Y98.746 E0.62839
G1 X135.994 Y98.931 E0.03157
G1 X136.851 Y99.460 E0.03157
G1 X137.460 Y100.262 E0.03157
G1 X137.741 Y101.229 E0.03157
G1 X137.721 Y108.929 E0.24142
G1 X137.539 Y109.566 E0.02078
G1 X137.214 Y110.138 E0.02065
G1 X136.762 Y110.617 E0.02065
G1 X136.209 Y110.975 E0.02065
G1 X135.635 Y111.180 E0.01912
G1 X135.034 Y111.254 E0.01899
G1 X114.852 Y111.250 E0.63276
G1 X114.133 Y111.114 E0.02294
G1 X113.479 Y110.796 E0.02282
G1 X112.931 Y110.318 E0.02282
G1 X112.525 Y109.709 E0.02294
G1 X112.327 Y109.162 E0.01822
G1 X112.247 Y108.583 E0.01835
G1 X112.265 Y101.177 E0.23221
G1 X112.428 Y100.514 E0.02141
G1 X112.724 Y99.961 E0.01966
G1 X113.055 Y100.140 F10800.000
G1 F1200.000
G1 X113.482 Y99.671 E0.01988
G1 X113.992 Y99.347 E0.01894
G1 X114.470 Y99.183 E0.01585
G1 X114.976 Y99.123 E0.01597
G1 X135.004 Y99.123 E0.62796
G1 X135.867 Y99.287 E0.02755
G1 X136.609 Y99.750 E0.02743
G1 X137.133 Y100.451 E0.02743
G1 X137.368 Y101.293 E0.02743
G1 X137.352 Y108.842 E0.23667
G1 X137.198 Y109.406 E0.01835
G1 X136.910 Y109.915 E0.01835
G1 X136.503 Y110.341 E0.01846
G1 X136.008 Y110.653 E0.01835
G1 X135.530 Y110.817 E0.01585
G1 X135.024 Y110.877 E0.01597
G1 X114.882 Y110.874 E0.63154
G1 X114.251 Y110.756 E0.02012
G1 X113.675 Y110.474 E0.02012
G1 X113.195 Y110.047 E0.02012
G1 X112.847 Y109.508 E0.02012
G1 X112.686 Y109.045 E0.01538
G1 X112.624 Y108.562 E0.01526
G1 X112.638 Y101.234 E0.22977
G1 X112.781 Y100.647 E0.01894
G1 X113.027 Y100.192 E0.01620
G1 F8640.000
G1 X113.482 Y99.671 E-0.15988
G1 X113.992 Y99.347 E-0.13946
G1 X114.470 Y99.183 E-0.11675
G1 X114.976 Y99.123 E-0.11763
G1 X115.956 Y99.123 E-0.22627
G1 E-0.04000 F2100.00000
G1 Z0.800 F10800.000
G1 X130.805 Y104.113
G1 Z0.200
G1 E0.80000 F2100.00000
G1 F1200.000
G1 X131.068 Y103.731 E0.01453
G1 X131.413 Y103.426 E0.01446
G1 X131.822 Y103.211 E0.01446
G1 X132.269 Y103.101 E0.01446
G1 X132.731 Y103.101 E0.01446
G1 X133.179 Y103.212 E0.01447
G1 X133.588 Y103.428 E0.01451
G1 X133.930 Y103.743 E0.01459
G1 X134.174 Y104.141 E0.01465
G1 X134.285 Y104.578 E0.01413
G1 X134.313 Y105.000 E0.01325
G1 X134.285 Y105.422 E0.01325
G1 X134.174 Y105.859 E0.01413
G1 X133.930 Y106.257 E0.01465
G1 X133.588 Y106.572 E0.01459
G1 X133.179 Y106.788 E0.01451
G1 X132.731 Y106.899 E0.01447
G1 X132.269 Y106.899 E0.01446
G1 X131.822 Y106.789 E0.01446
G1 X131.413 Y106.574 E0.01446
G1 X131.068 Y106.269 E0.01446
G1 X130.806 Y105.889 E0.01446
G1 X130.643 Y105.458 E0.01446
G1 X130.587 Y105.000 E0.01446
G1 X130.638 Y104.580 E0.01326
G1 X130.785 Y104.169 E0.01369
G1 X130.591 Y103.775 F10800.000
G1 F8640.000
G1 X131.068 Y103.731 E-0.12041
G1 X131.413 Y103.426 E-0.10649
G1 X131.822 Y103.211 E-0.10649
G1 X132.269 Y103.101 E-0.10649
G1 X132.731 Y103.101 E-0.10650
G1 X133.179 Y103.212 E-0.10657
G1 X133.588 Y103.428 E-0.10685
G1 X133.588 Y103.429 E-0.00021
G1 E-0.04000 F2100.00000
G1 Z0.800 F10800.000
G1 X134.217 Y103.494
G1 Z0.200
G1 E0.80000 F2100.00000
G1 F1200.000
G1 X133.807 Y103.118 E0.01744
G1 X133.314 Y102.857 E0.01748
G1 X132.777 Y102.724 E0.01737
G1 X132.224 Y102.724 E0.01734
G1 X131.687 Y102.856 E0.01733
G1 X131.198 Y103.113 E0.01733
G1 X130.784 Y103.480 E0.01733
G1 X130.466 Y103.939 E0.01751
G1 X130.269 Y104.493 E0.01844
G1 X130.207 Y105.000 E0.01601
G1 X130.274 Y105.549 E0.01733
G1 X130.470 Y106.066 E0.01733
G1 X130.784 Y106.520 E0.01733
G1 X131.198 Y106.887 E0.01733
G1 X131.687 Y107.144 E0.01733
G1 X132.224 Y107.276 E0.01733
G1 X132.777 Y107.276 E0.01734
G1 X133.314 Y107.143 E0.01737
G1 X133.807 Y106.882 E0.01748
G1 X134.217 Y106.506 E0.01744
G1 X134.214 Y107.713 E0.03785
G1 X115.786 Y107.713 E0.57781
G1 X115.783 Y106.506 E0.03785
G1 X116.193 Y106.882 E0.01744
G1 X116.686 Y107.143 E0.01749
G1 X117.223 Y107.276 E0.01737
G1 X117.776 Y107.276 E0.01734
G1 X118.313 Y107.144 E0.01733
G1 X118.802 Y106.887 E0.01733
G1 X119.216 Y106.520 E0.01733
G1 X119.530 Y106.066 E0.01733
G1 X119.726 Y105.549 E0.01733
G1 X119.793 Y105.000 E0.01733
G1 X119.726 Y104.451 E0.01733
G1 X119.530 Y103.934 E0.01733
G1 X119.216 Y103.480 E0.01733
G1 X118.802 Y103.113 E0.01733
G1 X118.313 Y102.856 E0.01733
G1 X117.776 Y102.724 E0.01733
G1 X117.223 Y102.724 E0.01734
G1 X116.686 Y102.857 E0.01737
G1 X116.193 Y103.118 E0.01748
G1 X115.783 Y103.494 E0.01744
G1 X115.786 Y102.287 E0.03785
G1 X134.213 Y102.287 E0.57777
G1 X134.217 Y103.434 E0.03597
G1 F8640.000
G1 X133.807 Y103.118 E-0.11949
G1 X133.314 Y102.857 E-0.12876
G1 X132.777 Y102.724 E-0.12789
G1 X132.224 Y102.724 E-0.12767
G1 X131.687 Y102.856 E-0.12763
G1 X131.198 Y103.113 E-0.12763
G1 X131.195 Y103.116 E-0.00093
G1 E-0.04000 F2100.00000
G1 Z0.800 F10800.000
G1 X119.413 Y105.000
G1 Z0.200
G1 E0.80000 F2100.00000
G1 F1200.000
G1 X119.357 Y105.458 E0.01446
G1 X119.194 Y105.889 E0.01446
G1 X118.932 Y106.269 E0.01446
G1 X118.587 Y106.574 E0.01446
G1 X118.178 Y106.789 E0.01446
G1 X117.731 Y106.899 E0.01446
G1 X117.269 Y106.899 E0.01446
G1 X116.821 Y106.788 E0.01447
G1 X116.412 Y106.572 E0.01451
G1 X116.070 Y106.257 E0.01459
G1 X115.826 Y105.859 E0.01465
G1 X115.715 Y105.422 E0.01414
G1 X115.687 Y105.000 E0.01325
G1 X115.715 Y104.578 E0.01325
G1 X115.826 Y104.141 E0.01413
G1 X116.070 Y103.743 E0.01465
G1 X116.412 Y103.428 E0.01459
G1 X116.821 Y103.212 E0.01451
G1 X117.269 Y103.101 E0.01447
G1 X117.731 Y103.101 E0.01446
G1 X118.178 Y103.211 E0.01446
G1 X118.587 Y103.426 E0.01446
G1 X118.932 Y103.731 E0.01446
G1 X119.194 Y104.111 E0.01446
G1 X119.357 Y104.542 E0.01446
G1 X119.406 Y104.940 E0.01258
G1 X119.759 Y105.200 F10800.000
G1 F8640.000
G1 X119.357 Y105.458 E-0.11998
G1 X119.194 Y105.889 E-0.10649
G1 X118.932 Y106.269 E-0.10649
G1 X118.587 Y106.574 E-0.10649
G1 X118.178 Y106.789 E-0.10649
G1 X117.731 Y106.899 E-0.10649
G1 X117.269 Y106.899 E-0.10650
G1 X117.265 Y106.898 E-0.00108
G1 E-0.04000 F2100.00000
G1 Z0.800 F10800.000
G1 X115.410 Y101.910
G1 Z0.200
G1 E0.80000 F2100.00000
G1 F1200.000
G1 X134.590 Y101.910 E0.60139
G1 X134.594 Y103.507 E0.05007
G1 X134.688 Y105.000 E0.04690
G1 X134.594 Y106.493 E0.04691
G1 X134.590 Y108.090 E0.05007
G1 X115.410 Y108.090 E0.60140
G1 X115.406 Y106.493 E0.05007
G1 X115.312 Y105.000 E0.04691
G1 X115.406 Y103.507 E0.04691
G1 X115.409 Y101.970 E0.04819
G1 X115.754 Y102.114 F10800.000
G1 F8640.000
G1 X118.701 Y101.960 E-0.76000
G1 E-0.04000 F2100.00000
G1 Z0.800 F10800.000
G1 X116.427 Y102.619
G1 Z0.200
G1 E0.80000 F2100.00000
G1 F1200.000
G1 X116.593 Y102.579 E0.00225
G1 X116.993 Y102.530 E0.00529
G1 X117.200 Y102.505 E0.00105
G1 X117.806 Y102.506 E0.00305
G1 X118.006 Y102.530 E0.00182
G1 X118.206 Y102.554 E0.00263
G1 X118.405 Y102.579 E0.00344
G1 X118.430 Y102.583 E0.00046
G1 X118.576 Y102.619 E0.00288
G1 F8640.000
G1 X118.430 Y102.583 E-0.03452
G1 E-0.76548 F2100.00000
G1 Z0.800 F10800.000
G1 X115.823 Y103.743
G1 Z0.200
G1 E0.80000 F2100.00000
G1 F1200.000
G1 X115.560 Y104.063 E0.00308
G1 X115.649 Y103.873 F10800.000
G1 F1200.000
G1 X115.568 Y104.297 E0.00344
G1 F8640.000
G1 X115.649 Y103.873 E-0.09966
G1 E-0.70034 F2100.00000
G1 Z0.800 F10800.000
G1 X115.568 Y105.703
G1 Z0.200
G1 E0.80000 F2100.00000
G1 F1200.000
G1 X115.649 Y106.127 E0.00343
G1 X115.560 Y105.937 F10800.000
G1 F1200.000
G1 X115.823 Y106.257 E0.00307
G1 X115.897 Y106.916 F10800.000
G1 F1200.000
G1 X116.321 Y107.339 E0.02253
G1 X116.427 Y107.381 F10800.000
G1 F1200.000
G1 X116.593 Y107.421 E0.00225
G1 X116.993 Y107.470 E0.00529
G1 X117.200 Y107.495 E0.00105
G1 X117.806 Y107.494 E0.00305
G1 X118.006 Y107.470 E0.00182
G1 X118.206 Y107.446 E0.00263
G1 X118.405 Y107.421 E0.00344
G1 X118.430 Y107.417 E0.00046
G1 X118.576 Y107.381 E0.00288
G1 X118.885 Y106.965 F10800.000
G1 F1200.000
G1 X119.351 Y107.430 E0.02084
G1 X119.889 Y107.430 E0.01706
G1 X119.291 Y106.832 E0.02679
G1 X119.429 Y106.709 E0.00586
G1 X119.543 Y106.545 E0.00632
G1 X120.428 Y107.430 E0.03964
G1 X120.967 Y107.430 E0.01706
G1 X119.763 Y106.226 E0.05391
G1 X119.917 Y105.842 E0.01311
G1 X121.505 Y107.430 E0.07111
G1 X122.044 Y107.430 E0.01706
G1 X120.027 Y105.414 E0.09030
G1 X120.078 Y105.000 E0.01320
G1 X120.067 Y104.915 E0.00271
G1 X122.582 Y107.430 E0.11264
G1 X123.121 Y107.430 E0.01706
G1 X119.959 Y104.268 E0.14160
G1 X119.782 Y103.802 E0.01580
G1 X119.429 Y103.291 E0.01968
G1 X118.964 Y102.879 E0.01968
G1 X118.821 Y102.804 E0.00511
G1 X118.863 Y102.634 E0.00554
G1 X123.660 Y107.430 E0.21482
G1 X124.198 Y107.430 E0.01706
G1 X119.338 Y102.570 E0.21768
G1 X119.877 Y102.570 E0.01706
G1 X124.737 Y107.430 E0.21768
G1 X125.276 Y107.430 E0.01706
G1 X120.415 Y102.570 E0.21768
G1 X120.954 Y102.570 E0.01706
G1 X125.814 Y107.430 E0.21768
G1 X126.353 Y107.430 E0.01706
G1 X121.493 Y102.570 E0.21768
G1 X122.031 Y102.570 E0.01706
G1 X126.891 Y107.430 E0.21768
G1 X127.430 Y107.430 E0.01706
G1 X122.570 Y102.570 E0.21768
G1 X123.108 Y102.570 E0.01706
G1 X127.969 Y107.430 E0.21768
G1 X128.507 Y107.430 E0.01706
G1 X123.647 Y102.570 E0.21768
G1 X124.186 Y102.570 E0.01706
G1 X129.046 Y107.430 E0.21768
G1 X129.585 Y107.430 E0.01706
G1 X124.724 Y102.570 E0.21768
G1 X125.263 Y102.570 E0.01706
G1 X130.123 Y107.430 E0.21768
G1 X130.662 Y107.430 E0.01706
G1 X125.802 Y102.570 E0.21768
G1 X126.340 Y102.570 E0.01706
G1 X131.137 Y107.366 E0.21482
G1 X131.179 Y107.196 E0.00554
G1 X131.036 Y107.121 E0.00511
G1 X130.571 Y106.709 E0.01968
G1 X130.218 Y106.198 E0.01968
G1 X130.041 Y105.732 E0.01579
G1 X126.879 Y102.570 E0.14161
G1 X127.417 Y102.570 E0.01706
G1 X129.933 Y105.085 E0.11265
G1 X129.922 Y105.000 E0.00271
G1 X129.973 Y104.586 E0.01320
G1 X127.956 Y102.570 E0.09031
G1 X128.495 Y102.570 E0.01706
G1 X130.087 Y104.162 E0.07130
G1 X130.237 Y103.774 E0.01318
G1 X129.033 Y102.570 E0.05391
G1 X129.572 Y102.570 E0.01706
G1 X130.457 Y103.455 E0.03964
G1 X130.571 Y103.291 E0.00632
G1 X130.709 Y103.168 E0.00585
G1 X130.111 Y102.570 E0.02679
G1 X130.649 Y102.570 E0.01706
G1 X131.115 Y103.035 E0.02085
G1 X131.424 Y102.619 F10800.000
G1 F1200.000
G1 X131.595 Y102.579 E0.00230
G1 X131.994 Y102.530 E0.00526
G1 X132.201 Y102.505 E0.00105
G1 X132.807 Y102.506 E0.00305
G1 X133.007 Y102.530 E0.00183
G1 X133.207 Y102.555 E0.00265
G1 X133.407 Y102.579 E0.00346
G1 X133.433 Y102.584 E0.00047
G1 X133.573 Y102.619 E0.00278
G1 F8640.000
G1 X133.433 Y102.584 E-0.03345
G1 E-0.76655 F2100.00000
G1 Z0.800 F10800.000
G1 X134.177 Y103.743
G1 Z0.200
G1 E0.80000 F2100.00000
G1 F1200.000
G1 X134.308 Y103.903 E0.00154
G1 X134.440 Y104.063 E0.00221
G1 X134.351 Y103.873 F10800.000
G1 F1200.000
G1 X134.432 Y104.297 E0.00327
G1 F8640.000
G1 X134.351 Y103.873 E-0.09966
G1 E-0.70034 F2100.00000
G1 Z0.800 F10800.000
G1 X134.432 Y105.703
G1 Z0.200
G1 E0.80000 F2100.00000
G1 F1200.000
G1 X134.351 Y106.127 E0.00327
G1 X134.440 Y105.937 F10800.000
G1 F1200.000
G1 X134.308 Y106.097 E0.00221
G1 X134.177 Y106.257 E0.00154
G1 F8640.000
G1 X134.308 Y106.097 E-0.04784
G1 E-0.75216 F2100.00000
G1 Z0.800 F10800.000
G1 X133.573 Y107.381
G1 Z0.200
G1 E0.80000 F2100.00000
G1 F1200.000
G1 X133.433 Y107.416 E0.00278
G1 X133.407 Y107.421 E0.00047
G1 X133.207 Y107.445 E0.00346
G1 X133.007 Y107.470 E0.00265
G1 X132.807 Y107.494 E0.00183
G1 X132.201 Y107.495 E0.00305
G1 X131.994 Y107.470 E0.00105
G1 X131.595 Y107.421 E0.00526
G1 X131.424 Y107.381 E0.00230
M106 S255
;BEFORE_LAYER_CHANGE
G92 E0.0
;0.5


G1 F8640.000
G1 X131.595 Y107.421 E-0.04047
G1 X131.994 Y107.470 E-0.09282
G1 E-0.66671 F2100.00000
G1 Z0.800 F10800.000
;AFTER_LAYER_CHANGE
;0.5
G1 X137.460 Y100.262
G1 Z0.500
G1 E0.80000 F2100.00000
G1 F1376
G1 X137.741 Y101.229 E0.04467
G1 X137.721 Y108.929 E0.34152
G1 X137.539 Y109.566 E0.02939
G1 X137.214 Y110.138 E0.02921
G1 X136.762 Y110.617 E0.02921
G1 X136.209 Y110.975 E0.02921
G1 X135.635 Y111.180 E0.02704
G1 X135.034 Y111.254 E0.02686
G1 X114.852 Y111.250 E0.89513
G1 X114.133 Y111.114 E0.03246
G1 X113.479 Y110.796 E0.03228
G1 X112.931 Y110.318 E0.03228
G1 X112.525 Y109.709 E0.03246
G1 X112.327 Y109.162 E0.02578
G1 X112.247 Y108.583 E0.02596
G1 X112.265 Y101.177 E0.32849
G1 X112.428 Y100.514 E0.03029
G1 X112.753 Y99.908 E0.03047
G1 X113.216 Y99.401 E0.03047
G1 X113.791 Y99.025 E0.03047
G1 X114.361 Y98.821 E0.02686
G1 X114.962 Y98.746 E0.02686
G1 X135.004 Y98.746 E0.88895
G1 X135.994 Y98.931 E0.04467
G1 X136.851 Y99.460 E0.04467
G1 X137.424 Y100.214 E0.04200
G1 X137.124 Y100.439 F10800.000
G1 F1376
G1 X137.368 Y101.293 E0.03943
G1 X137.352 Y108.842 E0.33480
G1 X137.198 Y109.406 E0.02595
G1 X136.910 Y109.915 E0.02595
G1 X136.503 Y110.341 E0.02612
G1 X136.008 Y110.653 E0.02595
G1 X135.530 Y110.817 E0.02243
G1 X135.024 Y110.877 E0.02260
G1 X114.882 Y110.874 E0.89339
G1 X114.251 Y110.756 E0.02847
G1 X113.675 Y110.474 E0.02847
G1 X113.195 Y110.047 E0.02847
G1 X112.847 Y109.508 E0.02847
G1 X112.686 Y109.045 E0.02176
G1 X112.624 Y108.562 E0.02159
G1 X112.638 Y101.234 E0.32504
G1 X112.781 Y100.647 E0.02679
G1 X113.070 Y100.112 E0.02696
G1 X113.482 Y99.671 E0.02679
G1 X113.992 Y99.347 E0.02679
G1 X114.470 Y99.183 E0.02243
G1 X114.976 Y99.123 E0.02260
G1 X135.004 Y99.123 E0.88833
G1 X135.867 Y99.287 E0.03897
G1 X136.609 Y99.750 E0.03880
G1 X137.088 Y100.391 E0.03547
G1 F8640.000
G1 X137.368 Y101.293 E-0.21829
G1 X137.363 Y103.640 E-0.54171
G1 E-0.04000 F2100.00000
G1 Z1.100 F10800.000
G1 X133.849 Y103.805
G1 Z0.500
G1 E0.80000 F2100.00000
M204 S800
G1 F1376
G1 X134.096 Y104.162 E0.02902
G1 X134.250 Y104.569 E0.02902
G1 X134.297 Y104.954 E0.02595
G1 X134.251 Y105.428 E0.03177
G1 X134.096 Y105.838 E0.02928
G1 X133.849 Y106.195 E0.02902
G1 X133.524 Y106.483 E0.02902
G1 X133.139 Y106.685 E0.02902
G1 X132.717 Y106.789 E0.02902
G1 X132.283 Y106.789 E0.02902
G1 X131.906 Y106.696 E0.02595
G1 X131.479 Y106.486 E0.03177
G1 X131.151 Y106.195 E0.02928
G1 X130.930 Y105.875 E0.02595
G1 X130.751 Y105.435 E0.03177
G1 X130.698 Y105.000 E0.02928
G1 X130.750 Y104.569 E0.02902
G1 X130.904 Y104.162 E0.02902
G1 X131.151 Y103.805 E0.02902
G1 X131.476 Y103.517 E0.02902
G1 X131.861 Y103.315 E0.02902
G1 X132.283 Y103.211 E0.02902
G1 X132.717 Y103.211 E0.02902
G1 X133.094 Y103.304 E0.02595
G1 X133.521 Y103.514 E0.03177
G1 X133.804 Y103.765 E0.02527
M204 S1000
G1 X134.240 Y103.723 F10800.000
G1 X134.126 Y103.402
M204 S800
G1 F1376
G1 X133.794 Y103.108 E0.02409
G1 X133.262 Y102.845 E0.03225
G1 X132.776 Y102.725 E0.02718
G1 X132.224 Y102.725 E0.03001
G1 X131.687 Y102.858 E0.03001
G1 X131.198 Y103.114 E0.03001
G1 X130.785 Y103.481 E0.03001
