; generated by PrusaSlicer 2.2.0+linux-x64 on 2020-11-04 at 19:37:36 UTC

; 

; external perimeters extrusion width = 0.60mm
; perimeters extrusion width = 0.50mm
; infill extrusion width = 0.50mm
; solid infill extrusion width = 0.50mm
; top infill extrusion width = 0.45mm
; support material extrusion width = 0.38mm
; first layer extrusion width = 0.42mm

M73 P0 R45
M73 Q0 S45
M201 X1000 Y1000 Z200 E5000 ; sets maximum accelerations, mm/sec^2
M203 X200 Y200 Z12 E120 ; sets maximum feedrates, mm/sec
M204 P1250 R1250 T1250 ; sets acceleration (P, T) and retract acceleration (R), mm/sec^2
M205 X8.00 Y8.00 Z0.40 E4.50 ; sets the jerk limits, mm/sec
M205 S0 T0 ; sets the minimum extruding and travel feed rate, mm/sec
M107
M862.3 P "MK3S" ; printer model check
M862.1 P0.4 ; nozzle diameter check
M115 U3.9.1 ; tell printer latest fw version
G90 ; use absolute coordinates
M83 ; extruder relative mode
M104 S215 ; set extruder temp
M140 S60 ; set bed temp
M190 S60 ; wait for bed temp
M109 S215 ; wait for extruder temp
G28 W ; home all without mesh bed level
G80 ; mesh bed leveling
G1 Y-3.0 F1000.0 ; go outside print area
G92 E0.0
G1 X60.0 E9.0 F1000.0 ; intro line
M73 Q0 S45
M73 P0 R45
G1 X100.0 E12.5 F1000.0 ; intro line
G92 E0.0
M221 S95

; Don't change E values below. Excessive value can damage the printer.

M907 E538 ; set extruder motor current
G21 ; set units to millimeters
G90 ; use absolute coordinates
M83 ; use relative distances for extrusion
M900 K0.05 ; Filament gcode LA 1.5
M900 K30 ; Filament gcode LA 1.0
;BEFORE_LAYER_CHANGE
G92 E0.0
;0.2


G1 E-0.80000 F2100.00000
G1 Z0.600 F10800.000
;AFTER_LAYER_CHANGE
;0.2
G1 X84.140 Y72.241
G1 Z0.200
G1 E0.80000 F2100.00000
M204 S1000
G1 F1200.000
G1 X86.804 Y69.138 E0.12823
G1 X90.042 Y65.975 E0.14191
G1 X93.546 Y63.103 E0.14206
G1 X97.372 Y60.489 E0.14528
G1 X101.502 Y58.178 E0.14838
G1 X105.644 Y56.323 E0.14230
G1 X110.116 Y54.775 E0.14838
G1 X114.613 Y53.658 E0.14528
G1 X119.195 Y52.943 E0.14540
G1 X123.872 Y52.635 E0.14695
G1 X128.455 Y52.739 E0.14373
G1 X133.158 Y53.268 E0.14841
G1 X137.594 Y54.166 E0.14191
G1 X141.855 Y55.424 E0.13929
G1 X146.253 Y57.142 E0.14804
G1 X150.490 Y59.258 E0.14850
G1 X154.433 Y61.692 E0.14528
G1 X158.148 Y64.467 E0.14540
G1 X161.601 Y67.557 E0.14528
G1 X164.767 Y70.941 E0.14528
G1 X167.679 Y74.677 E0.14853
G1 X170.192 Y78.570 E0.14528
G1 X172.309 Y82.575 E0.14203
G1 X174.067 Y86.746 E0.14194
G1 X175.517 Y91.255 E0.14850
G1 X176.534 Y95.776 E0.14528
G1 X177.148 Y100.372 E0.14540
G1 X177.353 Y105.001 E0.14528
G1 X177.148 Y109.631 E0.14528
G1 X176.534 Y114.223 E0.14528
G1 X175.517 Y118.744 E0.14528
G1 X174.067 Y123.254 E0.14853
G1 X172.308 Y127.428 E0.14203
G1 X170.192 Y131.430 E0.14194
G1 X167.677 Y135.327 E0.14540
G1 X164.767 Y139.058 E0.14838
G1 X161.601 Y142.442 E0.14528
G1 X158.146 Y145.535 E0.14540
G1 X154.434 Y148.308 E0.14528
G1 X150.491 Y150.742 E0.14528
G1 X146.253 Y152.858 E0.14853
G1 X141.940 Y154.551 E0.14528
G1 X137.595 Y155.834 E0.14203
G1 X133.158 Y156.732 E0.14194
G1 X128.452 Y157.262 E0.14850
G1 X123.869 Y157.365 E0.14373
G1 X119.196 Y157.057 E0.14683
G1 X114.614 Y156.342 E0.14540
G1 X110.117 Y155.225 E0.14528
G1 X105.640 Y153.675 E0.14853
G1 X101.506 Y151.824 E0.14203
G1 X97.551 Y149.621 E0.14194
G1 X93.712 Y147.020 E0.14540
G1 X90.045 Y144.029 E0.14838
G1 X86.732 Y140.789 E0.14528
G1 X83.717 Y137.266 E0.14540
G1 X81.027 Y133.493 E0.14528
G1 X78.680 Y129.497 E0.14528
G1 X76.660 Y125.218 E0.14838
G1 X75.089 Y120.960 E0.14230
G1 X73.854 Y116.390 E0.14841
G1 X73.059 Y111.931 E0.14203
G1 X72.657 Y107.422 E0.14194
G1 X72.647 Y102.788 E0.14528
G1 X73.059 Y98.070 E0.14850
G1 X73.875 Y93.509 E0.14528
G1 X75.091 Y89.034 E0.14540
G1 X76.698 Y84.687 E0.14528
G1 X78.682 Y80.500 E0.14528
G1 X81.028 Y76.505 E0.14528
G1 X83.719 Y72.732 E0.14528
G1 X84.101 Y72.286 E0.01842
G1 F8640.000
G1 X86.245 Y69.789 E-0.76000
G1 E-0.04000 F2100.00000
G1 Z0.800 F10800.000
G1 X132.542 Y122.033
G1 Z0.200
G1 E0.80000 F2100.00000
G1 F1200.000
G1 X132.542 Y113.281 E0.27441
G1 X131.787 Y112.861 E0.02707
G1 X131.787 Y121.863 E0.28226
G1 X131.033 Y121.863 E0.02365
G1 X131.033 Y112.440 E0.29543
G1 X130.279 Y112.020 E0.02707
G1 X130.279 Y121.863 E0.30860
G1 X129.525 Y121.863 E0.02365
G1 X129.525 Y111.600 E0.32178
G1 X128.771 Y111.180 E0.02707
G1 X128.771 Y121.863 E0.33495
G1 X128.017 Y121.863 E0.02365
G1 X128.017 Y110.760 E0.34812
G1 X127.968 Y110.733 E0.00175
G1 X127.262 Y111.050 E0.02425
G1 X127.262 Y121.863 E0.33904
G1 X126.508 Y121.863 E0.02365
G1 X126.508 Y111.274 E0.33202
G1 X125.754 Y111.436 E0.02419
G1 X125.754 Y121.863 E0.32692
G1 X125.000 Y121.863 E0.02365
G1 X125.000 Y111.456 E0.32631
G1 X124.343 Y111.458 E0.02061
G1 X124.246 Y111.443 E0.00307
G1 X124.246 Y121.863 E0.32671
G1 X123.492 Y121.863 E0.02365
G1 X123.492 Y111.285 E0.33166
G1 X123.014 Y111.185 E0.01531
G1 X122.738 Y111.069 E0.00940
G1 X122.738 Y121.863 E0.33844
G1 X121.983 Y121.863 E0.02365
G1 X121.983 Y110.771 E0.34777
G1 X121.229 Y111.197 E0.02716
G1 X121.229 Y121.863 E0.33441
G1 X120.475 Y121.863 E0.02365
G1 X120.475 Y111.624 E0.32104
G1 X119.721 Y112.050 E0.02716
G1 X119.721 Y121.863 E0.30768
G1 X118.967 Y121.863 E0.02365
G1 X118.967 Y112.476 E0.29432
G1 X118.213 Y112.902 E0.02716
G1 X118.213 Y121.863 E0.28095
G1 X117.458 Y121.863 E0.02365
G1 X117.458 Y113.134 E0.27370
G1 F8640.000
G1 X117.458 Y116.425 E-0.76000
G1 E-0.04000 F2100.00000
G1 Z0.800 F10800.000
G1 X123.133 Y107.887
G1 Z0.200
G1 E0.80000 F2100.00000
G1 F1200.000
G1 X122.383 Y107.188 E0.03213
G1 X121.938 Y106.512 E0.02538
G1 X121.667 Y105.750 E0.02538
G1 X121.583 Y104.945 E0.02538
G1 X121.693 Y104.143 E0.02538
G1 X121.989 Y103.389 E0.02538
G1 X122.456 Y102.728 E0.02538
G1 X123.066 Y102.196 E0.02538
G1 X123.784 Y101.823 E0.02538
G1 X124.571 Y101.631 E0.02538
G1 X125.380 Y101.631 E0.02538
G1 X126.167 Y101.823 E0.02538
G1 X126.885 Y102.196 E0.02538
G1 X127.495 Y102.728 E0.02538
G1 X127.962 Y103.389 E0.02538
G1 X128.258 Y104.143 E0.02538
G1 X128.368 Y104.945 E0.02538
G1 X128.284 Y105.750 E0.02538
G1 X128.013 Y106.512 E0.02538
G1 X127.568 Y107.188 E0.02538
G1 X126.818 Y107.887 E0.03213
G1 X123.193 Y107.887 E0.11368
G1 X123.281 Y107.510 F10800.000
G1 F1200.000
G1 X122.673 Y106.943 E0.02605
G1 X122.278 Y106.343 E0.02254
G1 X122.037 Y105.666 E0.02254
G1 X121.963 Y104.951 E0.02254
G1 X122.060 Y104.239 E0.02254
G1 X122.324 Y103.570 E0.02254
G1 X122.738 Y102.982 E0.02254
G1 X123.280 Y102.510 E0.02254
G1 X123.918 Y102.179 E0.02254
G1 X124.616 Y102.009 E0.02254
G1 X125.335 Y102.009 E0.02254
G1 X126.033 Y102.179 E0.02254
G1 X126.671 Y102.510 E0.02254
G1 X127.213 Y102.982 E0.02254
G1 X127.627 Y103.570 E0.02254
G1 X127.891 Y104.239 E0.02254
G1 X127.988 Y104.951 E0.02254
G1 X127.914 Y105.666 E0.02254
G1 X127.673 Y106.343 E0.02254
G1 X127.278 Y106.943 E0.02254
G1 X126.670 Y107.510 E0.02605
G1 X123.341 Y107.510 E0.10437
G1 X122.950 Y107.734 F10800.000
G1 F8640.000
G1 X122.673 Y106.943 E-0.20223
G1 X122.278 Y106.343 E-0.16598
G1 X122.037 Y105.666 E-0.16598
G1 X121.963 Y104.951 E-0.16598
G1 X121.998 Y104.694 E-0.05984
G1 E-0.04000 F2100.00000
G1 Z0.800 F10800.000
G1 X128.030 Y109.307
G1 Z0.200
G1 E0.80000 F2100.00000
G1 F1200.000
G1 X164.733 Y129.753 E1.31733
G1 X161.789 Y133.876 E0.15885
G1 X159.037 Y137.077 E0.13236
G1 X156.007 Y140.016 E0.13236
G1 X152.797 Y142.613 E0.12946
G1 X149.217 Y145.018 E0.13524
G1 X145.510 Y147.041 E0.13238
G1 X141.638 Y148.720 E0.13236
G1 X137.629 Y150.044 E0.13236
G1 X133.518 Y151.002 E0.13236
G1 X133.026 Y151.070 E0.01557
G1 X129.336 Y151.584 E0.11679
G1 X125.120 Y151.788 E0.13236
G1 X120.902 Y151.610 E0.13236
G1 X116.718 Y151.053 E0.13236
G1 X112.600 Y150.122 E0.13236
G1 X108.584 Y148.822 E0.13236
G1 X104.700 Y147.167 E0.13236
G1 X100.982 Y145.167 E0.13236
G1 X97.459 Y142.841 E0.13236
G1 X94.161 Y140.207 E0.13236
G1 X91.113 Y137.286 E0.13236
G1 X88.340 Y134.103 E0.13236
G1 X85.371 Y129.998 E0.15885
G1 X121.948 Y109.326 E1.31733
G1 X123.381 Y109.959 E0.04912
G1 X124.447 Y110.182 E0.03414
G1 X125.536 Y110.178 E0.03414
G1 X126.600 Y109.949 E0.03414
G1 X127.975 Y109.332 E0.04724
G1 X128.011 Y109.729 F10800.000
G1 F1200.000
G1 X164.181 Y129.877 E1.29817
G1 X161.493 Y133.643 E0.14509
G1 X158.762 Y136.818 E0.13129
G1 X155.757 Y139.734 E0.13129
G1 X152.572 Y142.309 E0.12840
G1 X149.021 Y144.696 E0.13417
G1 X145.345 Y146.702 E0.13130
G1 X141.503 Y148.368 E0.13129
G1 X137.527 Y149.681 E0.13129
G1 X133.449 Y150.630 E0.13129
G1 X132.974 Y150.697 E0.01504
G1 X129.301 Y151.208 E0.11625
G1 X125.119 Y151.410 E0.13129
G1 X120.935 Y151.234 E0.13129
G1 X116.784 Y150.682 E0.13129
G1 X112.700 Y149.758 E0.13129
G1 X108.716 Y148.469 E0.13129
G1 X104.864 Y146.826 E0.13129
G1 X101.176 Y144.843 E0.13129
G1 X97.681 Y142.536 E0.13129
G1 X94.409 Y139.923 E0.13129
G1 X91.386 Y137.026 E0.13129
G1 X88.636 Y133.868 E0.13129
G1 X85.924 Y130.119 E0.14509
G1 X121.969 Y109.747 E1.29817
G1 X123.265 Y110.320 E0.04443
G1 X124.409 Y110.559 E0.03663
G1 X125.577 Y110.555 E0.03663
G1 X126.719 Y110.309 E0.03663
G1 X127.957 Y109.753 E0.04255
G1 X128.285 Y109.437 F10800.000
G1 F8640.000
G1 X130.834 Y111.352 E-0.76000
G1 E-0.04000 F2100.00000
G1 Z0.800 F10800.000
G1 X126.533 Y58.192
G1 Z0.200
G1 E0.80000 F2100.00000
G1 F1200.000
G1 X131.576 Y58.680 E0.15885
G1 X135.724 Y59.464 E0.13236
G1 X139.785 Y60.618 E0.13236
G1 X143.725 Y62.133 E0.13236
G1 X147.512 Y63.998 E0.13236
G1 X151.116 Y66.196 E0.13236
G1 X154.508 Y68.710 E0.13236
G1 X157.658 Y71.520 E0.13236
G1 X160.543 Y74.602 E0.13236
G1 X161.415 Y75.721 E0.04449
G1 X163.138 Y77.931 E0.08787
G1 X165.423 Y81.481 E0.13236
G1 X167.378 Y85.223 E0.13236
G1 X167.743 Y86.108 E0.03003
G1 X168.988 Y89.125 E0.10233
G1 X170.240 Y93.157 E0.13236
G1 X171.123 Y97.285 E0.13236
G1 X171.630 Y101.476 E0.13236
G1 X171.758 Y105.695 E0.13236
G1 X171.505 Y109.909 E0.13236
G1 X170.873 Y114.083 E0.13236
G1 X169.868 Y118.183 E0.13236
G1 X168.497 Y122.176 E0.13236
G1 X166.426 Y126.799 E0.15885
G1 X130.235 Y105.459 E1.31733
M73 Q2 S44
M73 P2 R44
G1 X130.067 Y103.901 E0.04912
G1 X129.727 Y102.867 E0.03414
G1 X129.180 Y101.925 E0.03414
G1 X128.449 Y101.119 E0.03414
G1 X127.179 Y100.202 E0.04912
G1 X126.534 Y58.252 E1.31545
G1 X126.917 Y58.608 F10800.000
G1 F1200.000
G1 X131.523 Y59.054 E0.14509
G1 X135.638 Y59.831 E0.13129
G1 X139.665 Y60.976 E0.13129
G1 X143.574 Y62.479 E0.13129
G1 X147.331 Y64.328 E0.13129
G1 X150.905 Y66.509 E0.13129
G1 X154.269 Y69.003 E0.13129
G1 X157.395 Y71.790 E0.13129
G1 X160.256 Y74.847 E0.13129
G1 X161.118 Y75.953 E0.04396
G1 X162.830 Y78.150 E0.08734
G1 X165.096 Y81.671 E0.13129
G1 X167.036 Y85.382 E0.13129
G1 X167.395 Y86.252 E0.02950
G1 X168.633 Y89.253 E0.10179
G1 X169.874 Y93.252 E0.13129
G1 X170.751 Y97.347 E0.13129
G1 X171.254 Y101.504 E0.13129
G1 X171.381 Y105.689 E0.13129
G1 X171.130 Y109.869 E0.13129
G1 X170.503 Y114.010 E0.13129
G1 X169.506 Y118.077 E0.13129
G1 X168.146 Y122.037 E0.13129
G1 X166.255 Y126.260 E0.14509
G1 X130.590 Y105.230 E1.29817
G1 X130.438 Y103.821 E0.04443
G1 X130.073 Y102.712 E0.03663
G1 X129.486 Y101.702 E0.03663
G1 X128.702 Y100.836 E0.03663
G1 X127.553 Y100.007 E0.04443
G1 X126.918 Y58.668 E1.29629
G1 X126.937 Y58.209 F10800.000
G1 F8640.000
G1 X130.198 Y58.943 E-0.76000
G1 E-0.04000 F2100.00000
G1 Z0.800 F10800.000
G1 X123.129 Y58.203
G1 Z0.200
G1 E0.80000 F2100.00000
G1 F1200.000
G1 X122.743 Y100.215 E1.31733
G1 X121.479 Y101.140 E0.04911
G1 X120.750 Y101.955 E0.03427
G1 X120.211 Y102.896 E0.03402
G1 X119.877 Y103.933 E0.03414
G1 X119.718 Y105.491 E0.04912
G1 X83.660 Y127.055 E1.31733
G1 X81.561 Y122.444 E0.15885
G1 X80.165 Y118.460 E0.13236
G1 X79.135 Y114.366 E0.13236
G1 X78.477 Y110.196 E0.13236
G1 X78.198 Y105.984 E0.13236
G1 X78.300 Y101.763 E0.13236
G1 X78.462 Y100.354 E0.04449
G1 X78.781 Y97.570 E0.08787
G1 X79.639 Y93.436 E0.13236
G1 X80.866 Y89.397 E0.13236
G1 X82.452 Y85.485 E0.13236
G1 X84.384 Y81.731 E0.13236
G1 X86.647 Y78.167 E0.13236
G1 X89.221 Y74.822 E0.13236
G1 X92.087 Y71.722 E0.13236
G1 X95.220 Y68.893 E0.13236
G1 X98.596 Y66.358 E0.13236
G1 X102.186 Y64.137 E0.13236
G1 X105.962 Y62.250 E0.13236
G1 X109.893 Y60.710 E0.13236
G1 X113.946 Y59.531 E0.13236
G1 X118.089 Y58.722 E0.13236
G1 X123.069 Y58.209 E0.15697
G1 X122.748 Y58.621 F10800.000
G1 F1200.000
G1 X122.368 Y100.023 E1.29817
G1 X121.224 Y100.859 E0.04443
G1 X120.443 Y101.733 E0.03675
G1 X119.864 Y102.743 E0.03650
G1 X119.506 Y103.855 E0.03663
G1 X119.363 Y105.265 E0.04443
G1 X83.828 Y126.515 E1.29817
G1 X81.911 Y122.303 E0.14509
G1 X80.527 Y118.351 E0.13129
G1 X79.504 Y114.290 E0.13129
G1 X78.852 Y110.154 E0.13129
G1 X78.575 Y105.976 E0.13129
G1 X78.676 Y101.790 E0.13129
G1 X78.836 Y100.397 E0.04396
G1 X79.154 Y97.629 E0.08734
G1 X80.005 Y93.529 E0.13129
G1 X81.222 Y89.523 E0.13129
G1 X82.795 Y85.642 E0.13129
G1 X84.712 Y81.919 E0.13129
G1 X86.956 Y78.384 E0.13129
G1 X89.510 Y75.065 E0.13129
G1 X92.352 Y71.990 E0.13129
G1 X95.460 Y69.184 E0.13129
G1 X98.809 Y66.670 E0.13129
G1 X102.370 Y64.467 E0.13129
G1 X106.115 Y62.595 E0.13129
G1 X110.014 Y61.067 E0.13129
G1 X114.035 Y59.898 E0.13129
G1 X118.145 Y59.095 E0.13129
G1 X122.688 Y58.627 E0.14321
G1 X123.148 Y58.604 F10800.000
G1 F8640.000
G1 X122.663 Y61.919 E-0.76000
G1 E-0.04000 F2100.00000
G1 Z0.800 F10800.000
G1 X122.507 Y55.892
G1 Z0.200
G1 E0.80000 F2100.00000
G1 F1200.000
G1 X123.887 Y55.800 E0.04337
G1 X128.239 Y55.896 E0.13651
G1 X132.566 Y56.377 E0.13651
G1 X136.834 Y57.238 E0.13651
G1 X141.009 Y58.473 E0.13651
G1 X145.058 Y60.072 E0.13651
G1 X148.950 Y62.023 E0.13651
G1 X152.655 Y64.310 E0.13651
G1 X156.143 Y66.915 E0.13651
G1 X159.387 Y69.819 E0.13651
G1 X162.361 Y72.998 E0.13651
G1 X165.043 Y76.427 E0.13651
G1 X167.412 Y80.080 E0.13651
G1 X169.448 Y83.928 E0.13651
G1 X171.106 Y87.868 E0.13402
G1 X172.464 Y92.088 E0.13899
G1 X173.419 Y96.335 E0.13649
G1 X173.995 Y100.651 E0.13651
G1 X174.188 Y105.000 E0.13651
G1 X173.995 Y109.349 E0.13651
G1 X173.419 Y113.665 E0.13651
G1 X172.464 Y117.912 E0.13651
G1 X171.137 Y122.059 E0.13651
G1 X169.448 Y126.072 E0.13651
G1 X167.412 Y129.920 E0.13651
G1 X165.043 Y133.573 E0.13651
G1 X162.361 Y137.002 E0.13651
G1 X159.387 Y140.181 E0.13651
G1 X156.143 Y143.085 E0.13651
G1 X152.655 Y145.690 E0.13651
G1 X148.950 Y147.977 E0.13651
G1 X145.058 Y149.928 E0.13651
G1 X141.009 Y151.527 E0.13651
G1 X136.834 Y152.762 E0.13651
G1 X132.566 Y153.623 E0.13651
G1 X128.239 Y154.104 E0.13651
G1 X123.887 Y154.200 E0.13651
G1 X119.543 Y153.911 E0.13651
G1 X115.241 Y153.240 E0.13651
G1 X111.016 Y152.191 E0.13651
G1 X106.900 Y150.772 E0.13651
G1 X102.925 Y148.996 E0.13651
G1 X99.123 Y146.875 E0.13651
G1 X95.589 Y144.471 E0.13402
G1 X92.154 Y141.668 E0.13899
G1 X89.042 Y138.624 E0.13649
G1 X86.211 Y135.317 E0.13651
G1 X83.683 Y131.772 E0.13651
G1 X81.478 Y128.018 E0.13651
G1 X79.614 Y124.084 E0.13651
G1 X78.105 Y120.000 E0.13651
G1 X76.963 Y115.799 E0.13651
G1 X76.196 Y111.513 E0.13651
G1 X75.812 Y107.177 E0.13651
G1 X75.812 Y102.823 E0.13651
G1 X76.196 Y98.487 E0.13651
G1 X76.963 Y94.201 E0.13651
G1 X78.105 Y90.000 E0.13651
G1 X79.614 Y85.916 E0.13651
G1 X81.478 Y81.982 E0.13651
G1 X83.683 Y78.228 E0.13651
G1 X86.211 Y74.683 E0.13651
G1 X89.042 Y71.376 E0.13651
G1 X92.154 Y68.331 E0.13651
G1 X95.523 Y65.574 E0.13651
G1 X99.123 Y63.125 E0.13651
G1 X102.925 Y61.004 E0.13651
G1 X106.900 Y59.228 E0.13651
G1 X111.016 Y57.809 E0.13651
G1 X115.241 Y56.760 E0.13651
G1 X119.543 Y56.089 E0.13651
G1 X122.447 Y55.896 E0.09125
G1 X122.422 Y55.519 F10800.000
G1 F1200.000
G1 X123.879 Y55.423 E0.04578
G1 X128.264 Y55.520 E0.13755
G1 X132.625 Y56.004 E0.13755
G1 X136.925 Y56.872 E0.13755
G1 X141.132 Y58.116 E0.13755
G1 X145.212 Y59.727 E0.13755
G1 X149.134 Y61.693 E0.13755
G1 X152.867 Y63.998 E0.13755
G1 X156.382 Y66.623 E0.13755
G1 X159.651 Y69.549 E0.13755
G1 X162.648 Y72.752 E0.13755
G1 X165.351 Y76.208 E0.13755
G1 X167.737 Y79.889 E0.13755
G1 X169.789 Y83.767 E0.13755
G1 X171.460 Y87.737 E0.13506
G1 X172.828 Y91.989 E0.14004
G1 X173.790 Y96.269 E0.13755
G1 X174.371 Y100.617 E0.13755
G1 X174.565 Y105.000 E0.13755
G1 X174.371 Y109.383 E0.13755
G1 X173.790 Y113.731 E0.13755
G1 X172.828 Y118.011 E0.13755
