; generated by PrusaSlicer 2.2.0+linux-x64 on 2020-10-28 at 10:24:52 UTC

; 

; external perimeters extrusion width = 0.60mm
; perimeters extrusion width = 0.50mm
; infill extrusion width = 0.50mm
; solid infill extrusion width = 0.50mm
; top infill extrusion width = 0.45mm
; first layer extrusion width = 0.42mm

M73 P0 R19
M73 Q0 S19
M201 X1000 Y1000 Z200 E5000 ; sets maximum accelerations, mm/sec^2
M203 X200 Y200 Z12 E120 ; sets maximum feedrates, mm/sec
M204 P1250 R1250 T1250 ; sets acceleration (P, T) and retract acceleration (R), mm/sec^2
M205 X8.00 Y8.00 Z0.40 E4.50 ; sets the jerk limits, mm/sec
M205 S0 T0 ; sets the minimum extruding and travel feed rate, mm/sec
M107
M862.3 P "MK3S" ; printer model check
M862.1 P0.4 ; nozzle diameter check
M115 U3.9.1 ; tell printer latest fw version
G90 ; use absolute coordinates
M83 ; extruder relative mode
M104 S215 ; set extruder temp
M140 S60 ; set bed temp
M190 S60 ; wait for bed temp
M109 S215 ; wait for extruder temp
G28 W ; home all without mesh bed level
G80 ; mesh bed leveling
G1 Y-3.0 F1000.0 ; go outside print area
G92 E0.0
G1 X60.0 E9.0 F1000.0 ; intro line
M73 Q0 S19
M73 P0 R19
G1 X100.0 E12.5 F1000.0 ; intro line
G92 E0.0
M221 S95

; Don't change E values below. Excessive value can damage the printer.

M907 E538 ; set extruder motor current
G21 ; set units to millimeters
G90 ; use absolute coordinates
M83 ; use relative distances for extrusion
M900 K0.05 ; Filament gcode LA 1.5
M900 K30 ; Filament gcode LA 1.0
;BEFORE_LAYER_CHANGE
G92 E0.0
;0.2


G1 E-0.80000 F2100.00000
G1 Z0.600 F10800.000
;AFTER_LAYER_CHANGE
;0.2
G1 X121.124 Y101.273
G1 Z0.200
G1 E0.80000 F2100.00000
M204 S1000
G1 F940
G1 X121.966 Y100.551 E0.03476
G1 X123.083 Y99.968 E0.03953
G1 X124.317 Y99.658 E0.03987
G1 X125.425 Y99.640 E0.03476
G1 X125.862 Y99.692 E0.01380
G1 X127.077 Y100.037 E0.03960
G1 X128.081 Y100.583 E0.03583
G1 X129.024 Y101.421 E0.03954
G1 X129.754 Y102.470 E0.04007
G1 X130.172 Y103.522 E0.03551
G1 X130.376 Y105.171 E0.05209
G1 X130.224 Y106.309 E0.03600
G1 X129.771 Y107.499 E0.03990
G1 X129.051 Y108.548 E0.03988
G1 X128.223 Y109.305 E0.03519
G1 X126.739 Y110.091 E0.05265
G1 X125.631 Y110.348 E0.03569
G1 X124.399 Y110.351 E0.03861
G1 X122.879 Y109.940 E0.04937
G1 X121.911 Y109.411 E0.03461
G1 X120.954 Y108.554 E0.04028
G1 X120.243 Y107.524 E0.03923
G1 X119.826 Y106.472 E0.03547
G1 X119.623 Y104.818 E0.05225
G1 X119.772 Y103.708 E0.03511
G1 X120.165 Y102.639 E0.03573
G1 X121.090 Y101.322 E0.05045
G1 X121.377 Y101.552 F10800.000
G1 F940
G1 X122.172 Y100.866 E0.03292
G1 X123.224 Y100.317 E0.03720
G1 X124.375 Y100.031 E0.03719
G1 X125.425 Y100.017 E0.03292
G1 X126.915 Y100.378 E0.04806
G1 X127.860 Y100.889 E0.03368
G1 X128.747 Y101.676 E0.03719
G1 X129.425 Y102.654 E0.03729
G1 X129.817 Y103.650 E0.03359
G1 X130.001 Y105.151 E0.04741
G1 X129.859 Y106.215 E0.03364
G1 X129.435 Y107.327 E0.03731
G1 X128.763 Y108.305 E0.03721
G1 X127.975 Y109.021 E0.03340
G1 X126.632 Y109.729 E0.04760
G1 X125.590 Y109.973 E0.03355
G1 X124.427 Y109.975 E0.03646
G1 X123.058 Y109.608 E0.04445
G1 X122.135 Y109.108 E0.03291
G1 X121.239 Y108.308 E0.03767
G1 X120.574 Y107.344 E0.03672
G1 X120.182 Y106.348 E0.03355
G1 X119.999 Y104.849 E0.04734
G1 X120.138 Y103.799 E0.03323
G1 X120.510 Y102.791 E0.03369
G1 X121.343 Y101.601 E0.04553
G1 X121.628 Y101.834 F10800.000
G1 F940
G1 X122.380 Y101.181 E0.03122
G1 X123.358 Y100.670 E0.03460
G1 X124.429 Y100.404 E0.03460
G1 X125.425 Y100.394 E0.03122
G1 X126.750 Y100.717 E0.04279
G1 X127.639 Y101.195 E0.03164
G1 X128.465 Y101.927 E0.03460
G1 X129.095 Y102.836 E0.03468
G1 X129.462 Y103.776 E0.03164
G1 X129.625 Y105.117 E0.04235
G1 X129.494 Y106.119 E0.03171
G1 X129.101 Y107.152 E0.03463
G1 X128.475 Y108.061 E0.03461
G1 X127.730 Y108.734 E0.03147
G1 X126.530 Y109.366 E0.04255
G1 X125.549 Y109.598 E0.03160
G1 X124.460 Y109.600 E0.03413
G1 X123.233 Y109.274 E0.03981
G1 X122.356 Y108.802 E0.03122
G1 X121.525 Y108.061 E0.03492
G1 X120.904 Y107.162 E0.03427
G1 X120.538 Y106.223 E0.03160
G1 X120.375 Y104.882 E0.04233
G1 X120.503 Y103.892 E0.03132
G1 X120.855 Y102.943 E0.03172
G1 X121.594 Y101.883 E0.04051
G1 X121.880 Y102.115 F10800.000
G1 F940
G1 X122.588 Y101.496 E0.02947
G1 X123.493 Y101.022 E0.03202
G1 X124.480 Y100.778 E0.03189
G1 X125.424 Y100.771 E0.02961
G1 X126.584 Y101.056 E0.03745
G1 X127.421 Y101.502 E0.02974
G1 X128.184 Y102.178 E0.03196
G1 X128.764 Y103.018 E0.03202
G1 X129.106 Y103.903 E0.02974
G1 X129.249 Y105.081 E0.03722
G1 X129.129 Y106.022 E0.02973
G1 X128.766 Y106.978 E0.03206
G1 X128.188 Y107.817 E0.03196
G1 X127.483 Y108.449 E0.02967
G1 X126.430 Y109.003 E0.03732
G1 X125.509 Y109.223 E0.02970
G1 X124.495 Y109.224 E0.03178
G1 X123.401 Y108.937 E0.03545
G1 X122.577 Y108.497 E0.02930
G1 X121.811 Y107.815 E0.03216
G1 X121.236 Y106.982 E0.03175
G1 X120.894 Y106.098 E0.02970
G1 X120.750 Y104.918 E0.03728
G1 X120.870 Y103.981 E0.02961
G1 X121.201 Y103.092 E0.02974
G1 X121.846 Y102.164 E0.03543
G1 X122.130 Y102.397 F10800.000
G1 F940
G1 X122.799 Y101.808 E0.02793
G1 X123.625 Y101.375 E0.02926
G1 X124.531 Y101.151 E0.02926
G1 X125.423 Y101.148 E0.02798
G1 X126.414 Y101.392 E0.03197
G1 X127.204 Y101.810 E0.02802
G1 X127.902 Y102.429 E0.02926
G1 X128.432 Y103.197 E0.02926
G1 X128.751 Y104.030 E0.02798
G1 X128.874 Y105.043 E0.03198
G1 X128.764 Y105.928 E0.02797
G1 X128.433 Y106.802 E0.02930
G1 X127.903 Y107.570 E0.02926
G1 X127.237 Y108.164 E0.02798
G1 X126.333 Y108.638 E0.03202
G1 X125.467 Y108.849 E0.02794
G1 X124.534 Y108.849 E0.02924
G1 X123.577 Y108.603 E0.03100
G1 X122.796 Y108.190 E0.02768
G1 X122.097 Y107.570 E0.02931
G1 X121.568 Y106.803 E0.02921
G1 X121.248 Y105.970 E0.02799
G1 X121.125 Y104.956 E0.03201
G1 X121.236 Y104.072 E0.02793
G1 X121.550 Y103.236 E0.02802
G1 X122.096 Y102.446 E0.03009
G1 F8640.000
G1 X122.799 Y101.808 E-0.21913
G1 X123.625 Y101.375 E-0.21547
G1 X124.531 Y101.151 E-0.21546
G1 X125.007 Y101.150 E-0.10994
G1 E-0.04000 F2100.00000
G1 Z0.800 F10800.000
G1 X121.475 Y100.205
G1 Z0.200
G1 E0.80000 F2100.00000
G1 F940
G1 X123.072 Y99.371 E0.05646
G1 X124.361 Y99.084 E0.04142
G1 X125.646 Y99.085 E0.04030
G1 X126.985 Y99.391 E0.04306
G1 X128.227 Y100.001 E0.04339
G1 X129.529 Y101.140 E0.05425
G1 X130.254 Y102.208 E0.04046
G1 X130.734 Y103.406 E0.04045
G1 X130.949 Y105.169 E0.05569
G1 X130.783 Y106.398 E0.03889
G1 X130.354 Y107.595 E0.03989
G1 X129.334 Y109.078 E0.05644
G1 X128.320 Y109.938 E0.04168
G1 X127.131 Y110.556 E0.04202
G1 X125.799 Y110.896 E0.04310
G1 X124.459 Y110.927 E0.04202
G1 X122.707 Y110.490 E0.05662
G1 X121.548 Y109.846 E0.04157
G1 X120.561 Y108.962 E0.04156
G1 X119.793 Y107.880 E0.04160
G1 X119.273 Y106.613 E0.04292
G1 X119.051 Y104.825 E0.05651
G1 X119.242 Y103.500 E0.04197
G1 X119.722 Y102.254 E0.04186
G1 X120.494 Y101.114 E0.04318
G1 X121.431 Y100.245 E0.04006
G1 F8640.000
G1 X123.072 Y99.371 E-0.42914
G1 X124.361 Y99.084 E-0.30500
G1 X124.473 Y99.084 E-0.02586
G1 E-0.04000 F2100.00000
G1 Z0.800 F10800.000
G1 X125.525 Y99.462
G1 Z0.200
G1 E0.80000 F2100.00000
G1 F940
G1 X125.729 Y99.486 E0.00644
G1 X126.267 Y99.611 F10800.000
G1 F940
G1 X126.878 Y99.753 E0.01966
G1 X127.029 Y99.828 E0.00529
G1 X127.670 Y100.145 F10800.000
G1 F940
G1 X128.038 Y100.327 E0.01287
G1 X128.092 Y100.374 E0.00223
G1 F8640.000
G1 X128.038 Y100.327 E-0.01645
G1 X127.670 Y100.145 E-0.09479
G1 E-0.68877 F2100.00000
G1 Z0.800 F10800.000
G1 X129.202 Y101.347
G1 Z0.200
G1 E0.80000 F2100.00000
G1 F940
G1 X129.892 Y102.339 E0.03788
G1 F8640.000
G1 X129.202 Y101.347 E-0.27896
G1 E-0.52104 F2100.00000
G1 Z0.800 F10800.000
G1 X130.352 Y103.466
G1 Z0.200
G1 E0.80000 F2100.00000
G1 F940
G1 X130.374 Y103.523 E0.00193
G1 X130.572 Y105.142 E0.05115
G1 X130.411 Y106.332 E0.03765
G1 X130.296 Y106.650 F10800.000
G1 F940
G1 X130.008 Y107.444 E0.02648
G1 X129.975 Y107.492 E0.00183
G1 F8640.000
G1 X130.008 Y107.444 E-0.01344
G1 X130.296 Y106.650 E-0.19500
G1 E-0.59156 F2100.00000
G1 Z0.800 F10800.000
G1 X129.111 Y108.749
G1 Z0.200
G1 E0.80000 F2100.00000
G1 F940
G1 X129.071 Y108.807 E0.00222
G1 X128.749 Y109.080 E0.01325
G1 X128.245 Y109.507 F10800.000
G1 F940
G1 X128.093 Y109.636 E0.00625
G1 X126.978 Y110.210 E0.03932
G1 X126.862 Y110.239 E0.00375
G1 X126.025 Y110.450 F10800.000
G1 F940
G1 X125.700 Y110.526 E0.01045
G1 X125.043 Y110.538 F10800.000
G1 F940
G1 X124.439 Y110.540 E0.01893
G1 X123.610 Y110.333 F10800.000
G1 F940
G1 X122.868 Y110.148 E0.02396
G1 X122.807 Y110.114 E0.00220
G1 F8640.000
G1 X122.868 Y110.148 E-0.01622
G1 X123.610 Y110.333 E-0.17647
G1 E-0.60731 F2100.00000
G1 Z0.800 F10800.000
G1 X121.771 Y109.539
G1 Z0.200
G1 E0.80000 F2100.00000
G1 F940
G1 X120.827 Y108.694 E0.03973
G1 X120.510 Y108.243 F10800.000
G1 F940
G1 X120.103 Y107.653 E0.02247
G1 F8640.000
G1 X120.510 Y108.243 E-0.16546
G1 E-0.63454 F2100.00000
G1 Z0.800 F10800.000
G1 X119.652 Y106.543
G1 Z0.200
G1 E0.80000 F2100.00000
G1 F940
G1 X119.632 Y106.495 E0.00163
G1 X119.428 Y104.852 E0.05189
G1 X119.438 Y104.781 E0.00225
G1 F8640.000
G1 X119.428 Y104.852 E-0.01657
G1 X119.632 Y106.495 E-0.38215
G1 X119.652 Y106.543 E-0.01202
G1 E-0.38925 F2100.00000
G1 Z0.800 F10800.000
G1 X119.600 Y103.629
G1 Z0.200
G1 E0.80000 F2100.00000
G1 F940
G1 X119.673 Y103.429 E0.00668
G1 X120.030 Y102.502 F10800.000
G1 F940
G1 X120.065 Y102.410 E0.00310
G1 X120.793 Y101.345 E0.04044
G1 X120.935 Y101.215 E0.00604
G1 X121.377 Y100.808 F10800.000
G1 F940
G1 X121.712 Y100.499 E0.01428
G1 X121.774 Y100.467 E0.00220
G1 F8640.000
G1 X121.712 Y100.499 E-0.01617
G1 X121.377 Y100.808 E-0.10518
G1 E-0.67865 F2100.00000
G1 Z0.800 F10800.000
G1 X123.119 Y99.765
G1 Z0.200
G1 E0.80000 F2100.00000
G1 F940
G1 X123.179 Y99.734 E0.00212
G1 X123.827 Y99.587 E0.02082
G1 X124.347 Y99.469 F10800.000
G1 F940
G1 X124.382 Y99.461 E0.00112
G1
G1 X124.809 Y99.462 E0.01339
G1 F8640.000
G1 X124.382 Y99.461 E-0.09861
G1 E-0.70139 F2100.00000
G1 Z0.800 F10800.000
G1 X124.566 Y101.340
G1 Z0.200
G1 E0.80000 F2100.00000
G1 F940
G1 X124.135 Y101.443 E0.01389
G1 X123.716 Y101.547 F10800.000
G1 F940
G1 X122.897 Y101.973 E0.02895
G1 X122.673 Y102.171 F10800.000
G1 F940
G1 X122.260 Y102.540 E0.01737
G1 X121.719 Y103.323 F10800.000
G1 F940
G1 X121.419 Y104.129 E0.02695
G1 F8640.000
G1 X121.719 Y103.323 E-0.19847
G1 E-0.60153 F2100.00000
G1 Z0.800 F10800.000
G1 X121.433 Y105.923
G1 Z0.200
G1 E0.80000 F2100.00000
G1 F940
G1 X121.742 Y106.723 E0.02687
G1 X121.983 Y107.072 F10800.000
G1 F940
G1 X122.248 Y107.452 E0.01450
G1 X122.897 Y108.027 F10800.000
G1 F940
G1 X123.646 Y108.426 E0.02661
G1 X124.216 Y108.572 F10800.000
G1 F940
G1 X124.568 Y108.660 E0.01139
G1 X124.992 Y108.660 F10800.000
G1 F940
G1 X125.456 Y108.657 E0.01453
G1 X125.747 Y108.587 F10800.000
G1 F940
G1 X126.284 Y108.451 E0.01738
G1 X127.114 Y108.015 F10800.000
G1 F940
G1 X127.495 Y107.681 E0.01590
G1 X127.751 Y107.453 F10800.000
G1 F940
G1 X128.273 Y106.691 E0.02895
G1 X128.427 Y106.285 F10800.000
G1 F940
G1 X128.581 Y105.871 E0.01386
G1 F8640.000
G1 X128.427 Y106.285 E-0.10208
G1 E-0.69792 F2100.00000
G1 Z0.800 F10800.000
G1 X128.268 Y103.296
G1 Z0.200
G1 E0.80000 F2100.00000
G1 F940
G1 X128.016 Y102.926 E0.01404
G1 X127.766 Y102.564 F10800.000
G1 F940
G1 X127.085 Y101.960 E0.02856
G1 X126.819 Y101.820 F10800.000
G1 F940
G1 X126.326 Y101.565 E0.01743
G1 X125.402 Y101.337 F10800.000
G1 F940
G1 X125.345 Y101.337 E0.00177
G1 F8640.000
G1 X125.402 Y101.337 E-0.01304
G1 E-0.78696 F2100.00000
G1 Z0.800 F10800.000
G1 X125.276 Y102.724
G1 Z0.200
G1 E0.80000 F2100.00000
G1 F940
G1 X125.813 Y102.856 E0.01733
G1 X126.302 Y103.113 E0.01733
G1 X126.716 Y103.480 E0.01733
G1 X127.030 Y103.934 E0.01733
G1 X127.226 Y104.451 E0.01733
G1 X127.293 Y105.000 E0.01733
G1 X127.226 Y105.549 E0.01733
G1 X127.030 Y106.066 E0.01733
G1 X126.716 Y106.520 E0.01733
G1 X126.302 Y106.887 E0.01733
G1 X125.813 Y107.144 E0.01733
G1 X125.276 Y107.276 E0.01733
G1 X124.724 Y107.276 E0.01733
G1 X124.187 Y107.144 E0.01733
G1 X123.698 Y106.887 E0.01733
G1 X123.284 Y106.520 E0.01733
G1 X122.970 Y106.066 E0.01733
G1 X122.774 Y105.549 E0.01733
G1 X122.707 Y105.000 E0.01733
G1 X122.774 Y104.451 E0.01733
G1 X122.970 Y103.934 E0.01733
G1 X123.284 Y103.480 E0.01733
G1 X123.698 Y103.113 E0.01733
G1 X124.187 Y102.856 E0.01733
G1 X124.724 Y102.724 E0.01733
G1 X125.216 Y102.724 E0.01545
G1 X125.216 Y103.101 F10800.000
G1 F940
G1 X125.678 Y103.211 E0.01489
G1 X126.087 Y103.426 E0.01446
G1 X126.432 Y103.731 E0.01446
G1 X126.694 Y104.111 E0.01446
G1 X126.857 Y104.542 E0.01446
G1 X126.913 Y105.000 E0.01446
G1 X126.857 Y105.458 E0.01446
G1 X126.694 Y105.889 E0.01446
G1 X126.432 Y106.269 E0.01446
G1 X126.087 Y106.574 E0.01446
G1 X125.678 Y106.789 E0.01446
G1 X125.231 Y106.899 E0.01446
G1 X124.769 Y106.899 E0.01446
G1 X124.322 Y106.789 E0.01446
G1 X123.913 Y106.574 E0.01446
G1 X123.568 Y106.269 E0.01446
G1 X123.306 Y105.889 E0.01446
G1 X123.143 Y105.458 E0.01446
G1 X123.087 Y105.000 E0.01446
G1 X123.143 Y104.542 E0.01446
G1 X123.306 Y104.111 E0.01446
G1 X123.568 Y103.731 E0.01446
G1 X123.913 Y103.426 E0.01446
G1 X124.322 Y103.211 E0.01446
G1 X124.769 Y103.101 E0.01446
G1 X125.156 Y103.101 E0.01213
G1 X125.455 Y102.780 F10800.000
G1 X125.326 Y102.313
G1 F940
G1 X125.960 Y102.469 E0.02046
G1 X126.538 Y102.772 E0.02046
G1 X127.026 Y103.205 E0.02046
G1 X127.397 Y103.742 E0.02046
G1 X127.628 Y104.352 E0.02046
G1 X127.707 Y105.000 E0.02046
G1 X127.628 Y105.648 E0.02046
G1 X127.397 Y106.258 E0.02046
G1 X127.026 Y106.795 E0.02046
G1 X126.538 Y107.228 E0.02046
G1 X125.960 Y107.531 E0.02046
G1 X125.326 Y107.687 E0.02046
G1 X124.674 Y107.687 E0.02046
G1 X124.040 Y107.531 E0.02046
G1 X123.462 Y107.228 E0.02046
G1 X122.974 Y106.795 E0.02046
G1 X122.603 Y106.258 E0.02046
G1 X122.372 Y105.648 E0.02046
G1 X122.293 Y105.000 E0.02046
G1 X122.372 Y104.352 E0.02046
G1 X122.603 Y103.742 E0.02046
G1 X122.974 Y103.205 E0.02046
G1 X123.462 Y102.772 E0.02046
G1 X124.040 Y102.469 E0.02046
G1 X124.674 Y102.313 E0.02046
G1 X125.266 Y102.313 E0.01858
G1 X125.372 Y101.936 F10800.000
G1 F940
G1 X126.095 Y102.114 E0.02333
G1 X126.754 Y102.459 E0.02333
G1 X127.311 Y102.953 E0.02333
G1 X127.733 Y103.565 E0.02333
G1 X127.997 Y104.261 E0.02333
G1 X128.087 Y105.000 E0.02333
G1 X127.997 Y105.739 E0.02333
G1 X127.733 Y106.435 E0.02333
G1 X127.311 Y107.047 E0.02333
G1 X126.754 Y107.541 E0.02333
G1 X126.095 Y107.886 E0.02333
G1 X125.372 Y108.064 E0.02333
G1 X124.628 Y108.064 E0.02333
G1 X123.905 Y107.886 E0.02333
G1 X123.246 Y107.541 E0.02333
G1 X122.689 Y107.047 E0.02333
G1 X122.267 Y106.435 E0.02333
G1 X122.003 Y105.739 E0.02333
G1 X121.913 Y105.000 E0.02333
G1 X122.003 Y104.261 E0.02333
G1 X122.267 Y103.565 E0.02333
G1 X122.689 Y102.953 E0.02333
G1 X123.246 Y102.459 E0.02333
G1 X123.905 Y102.114 E0.02333
G1 X124.628 Y101.936 E0.02333
G1 X125.312 Y101.936 E0.02145
G1 X125.529 Y102.304 F10800.000
M106 S255
;BEFORE_LAYER_CHANGE
G92 E0.0
;0.5


G1 F8640.000
G1 X126.095 Y102.114 E-0.18532
G1 X126.754 Y102.459 E-0.17184
G1 X127.311 Y102.953 E-0.17184
G1 X127.733 Y103.565 E-0.17184
G1 X127.824 Y103.805 E-0.05918
G1 E-0.04000 F2100.00000
G1 Z0.800 F10800.000
;AFTER_LAYER_CHANGE
;0.5
G1 X130.172 Y103.522
G1 Z0.500
G1 E0.80000 F2100.00000
G1 F900
G1 X130.376 Y105.171 E0.07369
G1 X130.224 Y106.309 E0.05093
G1 X129.771 Y107.499 E0.05645
G1 X129.051 Y108.548 E0.05642
G1 X128.223 Y109.305 E0.04978
G1 X126.739 Y110.091 E0.07448
G1 X125.631 Y110.348 E0.05048
G1 X124.399 Y110.351 E0.05462
G1 X122.879 Y109.940 E0.06984
G1 X121.911 Y109.411 E0.04896
G1 X120.954 Y108.554 E0.05699
G1 X120.243 Y107.524 E0.05549
G1 X119.826 Y106.472 E0.05018
G1 X119.623 Y104.818 E0.07391
G1 X119.772 Y103.708 E0.04967
G1 X120.165 Y102.639 E0.05054
G1 X121.124 Y101.273 E0.07403
G1 X121.966 Y100.551 E0.04918
G1 X123.083 Y99.968 E0.05592
G1 X124.317 Y99.658 E0.05640
G1 X125.425 Y99.640 E0.04918
G1 X125.862 Y99.692 E0.01952
G1 X127.077 Y100.037 E0.05602
G1 X128.081 Y100.583 E0.05068
G1 X129.024 Y101.421 E0.05594
G1 X129.754 Y102.470 E0.05669
G1 X130.150 Y103.467 E0.04757
G1 X129.799 Y103.605 F10800.000
G1 F900
G1 X130.001 Y105.151 E0.06918
G1 X129.859 Y106.215 E0.04759
G1 X129.435 Y107.327 E0.05278
