; generated by PrusaSlicer 2.2.0+linux-x64 on 2020-10-28 at 09:24:41 UTC

; 

; external perimeters extrusion width = 0.60mm
; perimeters extrusion width = 0.50mm
; infill extrusion width = 0.50mm
; solid infill extrusion width = 0.50mm
; top infill extrusion width = 0.45mm
; first layer extrusion width = 0.42mm

M73 P0 R54
M73 Q0 S55
M201 X1000 Y1000 Z200 E5000 ; sets maximum accelerations, mm/sec^2
M203 X200 Y200 Z12 E120 ; sets maximum feedrates, mm/sec
M204 P1250 R1250 T1250 ; sets acceleration (P, T) and retract acceleration (R), mm/sec^2
M205 X8.00 Y8.00 Z0.40 E4.50 ; sets the jerk limits, mm/sec
M205 S0 T0 ; sets the minimum extruding and travel feed rate, mm/sec
M107
M862.3 P "MK3S" ; printer model check
M862.1 P0.4 ; nozzle diameter check
M115 U3.9.1 ; tell printer latest fw version
G90 ; use absolute coordinates
M83 ; extruder relative mode
M104 S215 ; set extruder temp
M140 S60 ; set bed temp
M190 S60 ; wait for bed temp
M109 S215 ; wait for extruder temp
G28 W ; home all without mesh bed level
G80 ; mesh bed leveling
G1 Y-3.0 F1000.0 ; go outside print area
G92 E0.0
G1 X60.0 E9.0 F1000.0 ; intro line
M73 Q0 S55
M73 P0 R54
G1 X100.0 E12.5 F1000.0 ; intro line
G92 E0.0
M221 S95

; Don't change E values below. Excessive value can damage the printer.

M907 E538 ; set extruder motor current
G21 ; set units to millimeters
G90 ; use absolute coordinates
M83 ; use relative distances for extrusion
M900 K0.05 ; Filament gcode LA 1.5
M900 K30 ; Filament gcode LA 1.0
;BEFORE_LAYER_CHANGE
G92 E0.0
;0.2


G1 E-0.80000 F2100.00000
G1 Z0.600 F10800.000
;AFTER_LAYER_CHANGE
;0.2
G1 X64.160 Y81.276
G1 Z0.200
G1 E0.80000 F2100.00000
M204 S1000
G1 F1200.000
G1 X64.995 Y81.123 E0.02661
G1 X185.004 Y81.123 E3.76279
G1 X185.902 Y81.301 E0.02872
G1 X186.667 Y81.805 E0.02872
G1 X187.184 Y82.562 E0.02872
G1 X187.377 Y83.457 E0.02872
G1 X187.376 Y126.580 E1.35209
G1 X187.251 Y127.263 E0.02178
G1 X186.932 Y127.885 E0.02190
G1 X186.450 Y128.384 E0.02178
G1 X185.840 Y128.724 E0.02190
G1 X185.005 Y128.877 E0.02661
G1 X64.973 Y128.877 E3.76350
G1 X64.273 Y128.763 E0.02225
G1 X63.637 Y128.448 E0.02225
G1 X63.123 Y127.959 E0.02225
G1 X62.776 Y127.340 E0.02225
G1 X62.623 Y126.509 E0.02649
G1 X62.624 Y83.428 E1.35078
G1 X62.748 Y82.740 E0.02190
G1 X63.066 Y82.119 E0.02190
G1 X63.550 Y81.616 E0.02190
G1 X64.108 Y81.305 E0.02001
G1 F8640.000
G1 X64.995 Y81.123 E-0.20912
G1 X67.381 Y81.123 E-0.55088
G1 E-0.04000 F2100.00000
G1 Z0.800 F10800.000
G1 X109.213 Y92.713
G1 Z0.200
G1 E0.80000 F2100.00000
G1 F1200.000
G1 X140.787 Y92.713 E0.98999
G1 X140.787 Y117.287 E0.77051
G1 X109.213 Y117.287 E0.98999
G1 X109.213 Y92.773 E0.76862
G1 X109.590 Y93.090 F10800.000
G1 F1200.000
G1 X140.410 Y93.090 E0.96634
G1 X140.410 Y116.910 E0.74686
G1 X109.590 Y116.910 E0.96634
G1 X109.590 Y93.150 E0.74498
G1 X109.470 Y92.708 F10800.000
G1 F8640.000
G1 X112.881 Y93.144 E-0.76000
G1 E-0.04000 F2100.00000
G1 Z0.800 F10800.000
G1 X105.030 Y90.566
G1 Z0.200
G1 E0.80000 F2100.00000
G1 F1200.000
G1 X104.716 Y91.020 E0.01733
G1 X104.302 Y91.387 E0.01733
G1 X103.813 Y91.644 E0.01733
G1 X103.276 Y91.776 E0.01733
G1 X102.724 Y91.776 E0.01733
G1 X102.187 Y91.644 E0.01733
G1 X101.698 Y91.387 E0.01733
G1 X101.284 Y91.020 E0.01733
G1 X100.966 Y90.561 E0.01751
G1 X100.769 Y90.007 E0.01844
G1 X100.707 Y89.500 E0.01601
G1 X100.774 Y88.951 E0.01733
G1 X100.970 Y88.434 E0.01733
G1 X101.287 Y87.975 E0.01751
G1 X101.735 Y87.593 E0.01844
G1 X102.187 Y87.356 E0.01601
G1 X102.724 Y87.224 E0.01733
G1 X103.276 Y87.224 E0.01733
G1 X103.813 Y87.356 E0.01733
G1 X104.302 Y87.613 E0.01733
G1 X104.716 Y87.980 E0.01733
G1 X105.034 Y88.439 E0.01751
G1 X105.231 Y88.993 E0.01844
G1 X105.293 Y89.500 E0.01601
G1 X105.226 Y90.049 E0.01733
G1 X105.052 Y90.509 E0.01545
G1 X104.699 Y90.376 F10800.000
G1 F1200.000
G1 X104.432 Y90.769 E0.01489
G1 X104.087 Y91.074 E0.01446
G1 X103.678 Y91.289 E0.01446
G1 X103.231 Y91.399 E0.01446
G1 X102.769 Y91.399 E0.01446
G1 X102.322 Y91.289 E0.01446
G1 X101.913 Y91.074 E0.01446
G1 X101.568 Y90.769 E0.01446
G1 X101.305 Y90.387 E0.01453
G1 X101.138 Y89.920 E0.01557
G1 X101.087 Y89.500 E0.01326
G1 X101.143 Y89.042 E0.01446
G1 X101.306 Y88.611 E0.01446
G1 X101.569 Y88.230 E0.01453
G1 X101.947 Y87.908 E0.01557
G1 X102.322 Y87.711 E0.01326
G1 X102.769 Y87.601 E0.01446
G1 X103.231 Y87.601 E0.01446
G1 X103.678 Y87.711 E0.01446
G1 X104.087 Y87.926 E0.01446
G1 X104.432 Y88.231 E0.01446
G1 X104.695 Y88.613 E0.01453
G1 X104.862 Y89.080 E0.01557
G1 X104.913 Y89.500 E0.01326
G1 X104.857 Y89.958 E0.01446
G1 X104.720 Y90.320 E0.01213
G1 X104.915 Y90.713 F10800.000
G1 F8640.000
G1 X104.432 Y90.769 E-0.12319
G1 X104.087 Y91.074 E-0.10649
G1 X103.678 Y91.289 E-0.10649
G1 X103.231 Y91.399 E-0.10649
G1 X102.769 Y91.399 E-0.10649
G1 X102.322 Y91.289 E-0.10649
G1 X101.921 Y91.079 E-0.10437
G1 E-0.04000 F2100.00000
G1 Z0.800 F10800.000
G1 X93.043 Y89.500
G1 Z0.200
G1 E0.80000 F2100.00000
G1 F1200.000
G1 X92.954 Y90.228 E0.02300
G1 X92.694 Y90.914 E0.02300
G1 X92.300 Y91.486 E0.02177
G1 X91.732 Y92.002 E0.02407
G1 X91.079 Y92.345 E0.02313
G1 X90.367 Y92.521 E0.02300
G1 X89.633 Y92.521 E0.02300
G1 X88.921 Y92.345 E0.02300
G1 X88.271 Y92.004 E0.02300
G1 X87.722 Y91.518 E0.02300
G1 X87.306 Y90.914 E0.02300
G1 X87.046 Y90.228 E0.02300
G1 X86.957 Y89.500 E0.02300
G1 X87.046 Y88.772 E0.02300
G1 X87.306 Y88.086 E0.02300
G1 X87.722 Y87.482 E0.02300
G1 X88.271 Y86.996 E0.02300
G1 X88.886 Y86.673 E0.02177
G1 X89.629 Y86.479 E0.02407
G1 X90.367 Y86.479 E0.02313
G1 X91.079 Y86.655 E0.02300
G1 X91.729 Y86.996 E0.02300
G1 X92.278 Y87.482 E0.02300
G1 X92.694 Y88.086 E0.02300
G1 X92.954 Y88.772 E0.02300
G1 X93.036 Y89.440 E0.02112
G1 X92.661 Y89.486 F10800.000
G1 F1200.000
G1 X92.586 Y90.137 E0.02056
G1 X92.358 Y90.738 E0.02013
G1 X92.014 Y91.236 E0.01898
G1 X91.514 Y91.691 E0.02120
G1 X90.944 Y91.990 E0.02017
G1 X90.321 Y92.144 E0.02013
G1 X89.679 Y92.144 E0.02013
G1 X89.056 Y91.990 E0.02013
G1 X88.487 Y91.692 E0.02013
G1 X88.007 Y91.266 E0.02013
G1 X87.642 Y90.738 E0.02013
G1 X87.414 Y90.137 E0.02013
G1 X87.337 Y89.500 E0.02013
G1 X87.414 Y88.863 E0.02013
G1 X87.642 Y88.262 E0.02013
G1 X88.007 Y87.734 E0.02013
G1 X88.487 Y87.308 E0.02013
G1 X89.023 Y87.027 E0.01898
G1 X89.678 Y86.856 E0.02120
G1 X90.321 Y86.856 E0.02017
G1 X90.944 Y87.010 E0.02013
G1 X91.513 Y87.308 E0.02013
G1 X91.993 Y87.734 E0.02013
G1 X92.358 Y88.262 E0.02013
G1 X92.586 Y88.863 E0.02013
G1 X92.654 Y89.426 E0.01780
G1 X93.008 Y89.685 F10800.000
G1 F8640.000
G1 X92.586 Y90.137 E-0.16492
G1 X92.358 Y90.738 E-0.14824
G1 X92.014 Y91.236 E-0.13979
G1 X91.514 Y91.691 E-0.15613
G1 X90.944 Y91.990 E-0.14857
G1 X90.934 Y91.992 E-0.00236
G1 E-0.04000 F2100.00000
G1 Z0.800 F10800.000
G1 X79.293 Y89.500
G1 Z0.200
G1 E0.80000 F2100.00000
G1 F1200.000
G1 X79.226 Y90.049 E0.01733
G1 X79.030 Y90.566 E0.01733
G1 X78.716 Y91.020 E0.01733
G1 X78.302 Y91.387 E0.01733
G1 X77.813 Y91.644 E0.01733
G1 X77.276 Y91.776 E0.01733
G1 X76.724 Y91.776 E0.01733
G1 X76.187 Y91.644 E0.01733
G1 X75.698 Y91.387 E0.01733
G1 X75.284 Y91.020 E0.01733
G1 X74.970 Y90.566 E0.01733
G1 X74.774 Y90.049 E0.01733
G1 X74.707 Y89.500 E0.01733
G1 X74.774 Y88.951 E0.01733
G1 X74.970 Y88.434 E0.01733
G1 X75.287 Y87.975 E0.01751
G1 X75.735 Y87.593 E0.01844
G1 X76.187 Y87.356 E0.01601
G1 X76.724 Y87.224 E0.01733
G1 X77.276 Y87.224 E0.01733
G1 X77.813 Y87.356 E0.01733
G1 X78.302 Y87.613 E0.01733
G1 X78.716 Y87.980 E0.01733
G1 X79.030 Y88.434 E0.01733
G1 X79.226 Y88.951 E0.01733
G1 X79.286 Y89.440 E0.01545
G1 X78.911 Y89.486 F10800.000
G1 F1200.000
G1 X78.857 Y89.958 E0.01489
G1 X78.694 Y90.389 E0.01446
G1 X78.432 Y90.769 E0.01446
G1 X78.087 Y91.074 E0.01446
G1 X77.678 Y91.289 E0.01446
G1 X77.231 Y91.399 E0.01446
G1 X76.769 Y91.399 E0.01446
G1 X76.322 Y91.289 E0.01446
G1 X75.913 Y91.074 E0.01446
G1 X75.568 Y90.769 E0.01446
G1 X75.306 Y90.389 E0.01446
G1 X75.143 Y89.958 E0.01446
G1 X75.087 Y89.500 E0.01446
G1 X75.143 Y89.042 E0.01446
G1 X75.306 Y88.611 E0.01446
G1 X75.569 Y88.230 E0.01453
G1 X75.947 Y87.908 E0.01557
G1 X76.322 Y87.711 E0.01326
G1 X76.769 Y87.601 E0.01446
G1 X77.231 Y87.601 E0.01446
G1 X77.678 Y87.711 E0.01446
G1 X78.087 Y87.926 E0.01446
G1 X78.432 Y88.231 E0.01446
G1 X78.694 Y88.611 E0.01446
G1 X78.857 Y89.042 E0.01446
G1 X78.904 Y89.426 E0.01213
G1 X79.259 Y89.684 F10800.000
G1 F8640.000
G1 X78.857 Y89.958 E-0.12319
G1 X78.694 Y90.389 E-0.10649
G1 X78.432 Y90.769 E-0.10649
G1 X78.087 Y91.074 E-0.10649
G1 X77.678 Y91.289 E-0.10649
G1 X77.231 Y91.399 E-0.10649
G1 X76.779 Y91.399 E-0.10437
G1 E-0.04000 F2100.00000
G1 Z0.800 F10800.000
G1 X77.276 Y119.224
G1 Z0.200
G1 E0.80000 F2100.00000
G1 F1200.000
G1 X77.813 Y119.356 E0.01733
G1 X78.302 Y119.613 E0.01733
G1 X78.716 Y119.980 E0.01733
G1 X79.030 Y120.434 E0.01733
G1 X79.226 Y120.951 E0.01733
G1 X79.293 Y121.500 E0.01733
G1 X79.226 Y122.049 E0.01733
G1 X79.030 Y122.566 E0.01733
G1 X78.713 Y123.025 E0.01751
G1 X78.265 Y123.407 E0.01844
G1 X77.813 Y123.644 E0.01601
G1 X77.276 Y123.776 E0.01733
G1 X76.724 Y123.776 E0.01733
G1 X76.187 Y123.644 E0.01733
G1 X75.698 Y123.387 E0.01733
G1 X75.284 Y123.020 E0.01733
G1 X74.970 Y122.566 E0.01733
G1 X74.774 Y122.049 E0.01733
G1 X74.707 Y121.500 E0.01733
G1 X74.774 Y120.951 E0.01733
G1 X74.970 Y120.434 E0.01733
G1 X75.284 Y119.980 E0.01733
G1 X75.698 Y119.613 E0.01733
G1 X76.187 Y119.356 E0.01733
G1 X76.724 Y119.224 E0.01733
G1 X77.216 Y119.224 E0.01545
G1 X77.216 Y119.601 F10800.000
G1 F1200.000
G1 X77.678 Y119.711 E0.01489
G1 X78.087 Y119.926 E0.01446
G1 X78.432 Y120.231 E0.01446
G1 X78.694 Y120.611 E0.01446
G1 X78.857 Y121.042 E0.01446
G1 X78.913 Y121.500 E0.01446
G1 X78.857 Y121.958 E0.01446
G1 X78.694 Y122.389 E0.01446
G1 X78.431 Y122.770 E0.01453
G1 X78.053 Y123.092 E0.01557
G1 X77.678 Y123.289 E0.01326
G1 X77.231 Y123.399 E0.01446
G1 X76.769 Y123.399 E0.01446
G1 X76.322 Y123.289 E0.01446
G1 X75.913 Y123.074 E0.01446
G1 X75.568 Y122.769 E0.01446
G1 X75.306 Y122.389 E0.01446
G1 X75.143 Y121.958 E0.01446
G1 X75.087 Y121.500 E0.01446
G1 X75.143 Y121.042 E0.01446
G1 X75.306 Y120.611 E0.01446
G1 X75.568 Y120.231 E0.01446
G1 X75.913 Y119.926 E0.01446
G1 X76.322 Y119.711 E0.01446
G1 X76.769 Y119.601 E0.01446
G1 X77.156 Y119.601 E0.01213
G1 X77.455 Y119.280 F10800.000
G1 F8640.000
G1 X77.678 Y119.711 E-0.12319
G1 X78.087 Y119.926 E-0.10649
G1 X78.432 Y120.231 E-0.10649
G1 X78.694 Y120.611 E-0.10649
G1 X78.857 Y121.042 E-0.10649
G1 X78.913 Y121.500 E-0.10649
G1 X78.859 Y121.949 E-0.10437
G1 E-0.04000 F2100.00000
G1 Z0.800 F10800.000
G1 X87.042 Y120.801
G1 Z0.200
G1 E0.80000 F2100.00000
G1 F1200.000
G1 X87.306 Y120.086 E0.02390
G1 X87.722 Y119.482 E0.02300
G1 X88.271 Y118.996 E0.02300
G1 X88.886 Y118.673 E0.02177
G1 X89.629 Y118.479 E0.02407
G1 X90.367 Y118.479 E0.02313
G1 X91.079 Y118.655 E0.02300
G1 X91.729 Y118.996 E0.02300
G1 X92.278 Y119.482 E0.02300
G1 X92.694 Y120.086 E0.02300
G1 X92.954 Y120.772 E0.02300
G1 X93.043 Y121.500 E0.02300
G1 X92.954 Y122.228 E0.02300
G1 X92.694 Y122.914 E0.02300
G1 X92.300 Y123.486 E0.02177
G1 X91.732 Y124.002 E0.02407
G1 X91.079 Y124.345 E0.02313
G1 X90.367 Y124.521 E0.02300
G1 X89.633 Y124.521 E0.02300
G1 X88.921 Y124.345 E0.02300
G1 X88.271 Y124.004 E0.02300
G1 X87.722 Y123.518 E0.02300
G1 X87.306 Y122.914 E0.02300
G1 X87.046 Y122.228 E0.02300
G1 X86.957 Y121.500 E0.02300
G1 X87.035 Y120.861 E0.02019
G1 X87.414 Y120.863 F10800.000
G1 F1200.000
G1 X87.642 Y120.262 E0.02013
G1 X88.007 Y119.734 E0.02013
G1 X88.487 Y119.308 E0.02013
G1 X89.023 Y119.027 E0.01898
G1 X89.678 Y118.856 E0.02120
G1 X90.321 Y118.856 E0.02017
G1 X90.944 Y119.010 E0.02013
G1 X91.513 Y119.308 E0.02013
G1 X91.993 Y119.734 E0.02013
G1 X92.358 Y120.262 E0.02013
G1 X92.586 Y120.863 E0.02013
G1 X92.663 Y121.500 E0.02013
G1 X92.586 Y122.137 E0.02013
G1 X92.358 Y122.738 E0.02013
G1 X92.014 Y123.236 E0.01898
G1 X91.514 Y123.691 E0.02120
G1 X90.944 Y123.990 E0.02017
G1 X90.321 Y124.144 E0.02013
G1 X89.679 Y124.144 E0.02013
G1 X89.056 Y123.990 E0.02013
G1 X88.487 Y123.692 E0.02013
G1 X88.007 Y123.266 E0.02013
G1 X87.642 Y122.738 E0.02013
G1 X87.414 Y122.137 E0.02013
G1 X87.337 Y121.500 E0.02013
G1 X87.407 Y120.922 E0.01825
G1 X87.126 Y120.586 F10800.000
G1 F8640.000
G1 X87.642 Y120.262 E-0.16172
G1 X88.007 Y119.734 E-0.14823
G1 X88.487 Y119.308 E-0.14824
G1 X89.023 Y119.027 E-0.13979
G1 X89.678 Y118.856 E-0.15612
G1 X89.703 Y118.856 E-0.00589
G1 E-0.04000 F2100.00000
G1 Z0.800 F10800.000
G1 X100.707 Y121.500
G1 Z0.200
G1 E0.80000 F2100.00000
G1 F1200.000
G1 X100.774 Y120.951 E0.01733
G1 X100.970 Y120.434 E0.01733
G1 X101.284 Y119.980 E0.01733
G1 X101.698 Y119.613 E0.01733
G1 X102.187 Y119.356 E0.01733
G1 X102.724 Y119.224 E0.01733
G1 X103.276 Y119.224 E0.01733
G1 X103.813 Y119.356 E0.01733
G1 X104.302 Y119.613 E0.01733
G1 X104.716 Y119.980 E0.01733
G1 X105.034 Y120.439 E0.01751
G1 X105.231 Y120.993 E0.01844
G1 X105.293 Y121.500 E0.01601
G1 X105.226 Y122.049 E0.01733
G1 X105.030 Y122.566 E0.01733
G1 X104.713 Y123.025 E0.01751
G1 X104.265 Y123.407 E0.01844
G1 X103.813 Y123.644 E0.01601
G1 X103.276 Y123.776 E0.01733
G1 X102.724 Y123.776 E0.01733
G1 X102.187 Y123.644 E0.01733
G1 X101.698 Y123.387 E0.01733
G1 X101.284 Y123.020 E0.01733
G1 X100.966 Y122.561 E0.01751
G1 X100.769 Y122.007 E0.01844
G1 X100.714 Y121.560 E0.01413
G1 X101.089 Y121.514 F10800.000
G1 F1200.000
G1 X101.143 Y121.042 E0.01489
G1 X101.306 Y120.611 E0.01446
G1 X101.568 Y120.231 E0.01446
G1 X101.913 Y119.926 E0.01446
G1 X102.322 Y119.711 E0.01446
G1 X102.769 Y119.601 E0.01446
G1 X103.231 Y119.601 E0.01446
G1 X103.678 Y119.711 E0.01446
G1 X104.087 Y119.926 E0.01446
G1 X104.432 Y120.231 E0.01446
G1 X104.695 Y120.613 E0.01453
G1 X104.862 Y121.080 E0.01557
G1 X104.913 Y121.500 E0.01326
G1 X104.857 Y121.958 E0.01446
G1 X104.694 Y122.389 E0.01446
G1 X104.431 Y122.770 E0.01453
G1 X104.053 Y123.092 E0.01557
G1 X103.678 Y123.289 E0.01326
G1 X103.231 Y123.399 E0.01446
G1 X102.769 Y123.399 E0.01446
G1 X102.322 Y123.289 E0.01446
G1 X101.913 Y123.074 E0.01446
G1 X101.568 Y122.769 E0.01446
G1 X101.305 Y122.387 E0.01453
G1 X101.138 Y121.920 E0.01557
G1 X101.096 Y121.574 E0.01093
G1 X100.741 Y121.316 F10800.000
G1 F8640.000
G1 X101.143 Y121.042 E-0.12319
G1 X101.306 Y120.611 E-0.10649
G1 X101.568 Y120.231 E-0.10649
G1 X101.913 Y119.926 E-0.10649
G1 X102.322 Y119.711 E-0.10649
G1 X102.769 Y119.601 E-0.10649
G1 X103.221 Y119.601 E-0.10437
G1 E-0.04000 F2100.00000
G1 Z0.800 F10800.000
G1 X170.707 Y121.500
G1 Z0.200
G1 E0.80000 F2100.00000
G1 F1200.000
G1 X170.774 Y120.951 E0.01733
G1 X170.970 Y120.434 E0.01733
G1 X171.284 Y119.980 E0.01733
G1 X171.698 Y119.613 E0.01733
G1 X172.187 Y119.356 E0.01733
G1 X172.724 Y119.224 E0.01733
G1 X173.276 Y119.224 E0.01733
G1 X173.813 Y119.356 E0.01733
G1 X174.302 Y119.613 E0.01733
G1 X174.716 Y119.980 E0.01733
G1 X175.030 Y120.434 E0.01733
G1 X175.226 Y120.951 E0.01733
G1 X175.293 Y121.500 E0.01733
G1 X175.226 Y122.049 E0.01733
G1 X175.030 Y122.566 E0.01733
G1 X174.713 Y123.025 E0.01751
G1 X174.265 Y123.407 E0.01844
G1 X173.813 Y123.644 E0.01601
G1 X173.276 Y123.776 E0.01733
G1 X172.724 Y123.776 E0.01733
G1 X172.187 Y123.644 E0.01733
G1 X171.698 Y123.387 E0.01733
G1 X171.284 Y123.020 E0.01733
G1 X170.970 Y122.566 E0.01733
G1 X170.774 Y122.049 E0.01733
G1 X170.714 Y121.560 E0.01545
G1 X171.089 Y121.514 F10800.000
G1 F1200.000
G1 X171.143 Y121.042 E0.01489
G1 X171.306 Y120.611 E0.01446
G1 X171.568 Y120.231 E0.01446
G1 X171.913 Y119.926 E0.01446
G1 X172.322 Y119.711 E0.01446
G1 X172.769 Y119.601 E0.01446
G1 X173.231 Y119.601 E0.01446
G1 X173.678 Y119.711 E0.01446
G1 X174.087 Y119.926 E0.01446
G1 X174.432 Y120.231 E0.01446
G1 X174.694 Y120.611 E0.01446
G1 X174.857 Y121.042 E0.01446
G1 X174.913 Y121.500 E0.01446
G1 X174.857 Y121.958 E0.01446
G1 X174.694 Y122.389 E0.01446
G1 X174.431 Y122.770 E0.01453
G1 X174.053 Y123.092 E0.01557
G1 X173.678 Y123.289 E0.01326
G1 X173.231 Y123.399 E0.01446
G1 X172.769 Y123.399 E0.01446
G1 X172.322 Y123.289 E0.01446
G1 X171.913 Y123.074 E0.01446
G1 X171.568 Y122.769 E0.01446
G1 X171.306 Y122.389 E0.01446
G1 X171.143 Y121.958 E0.01446
G1 X171.096 Y121.574 E0.01213
