; generated by PrusaSlicer 2.2.0+linux-x64 on 2020-11-02 at 16:34:37 UTC

; 

; external perimeters extrusion width = 0.60mm
; perimeters extrusion width = 0.50mm
; infill extrusion width = 0.50mm
; solid infill extrusion width = 0.50mm
; top infill extrusion width = 0.45mm
; first layer extrusion width = 0.42mm

M73 P0 R43
M73 Q0 S44
M201 X1000 Y1000 Z200 E5000 ; sets maximum accelerations, mm/sec^2
M203 X200 Y200 Z12 E120 ; sets maximum feedrates, mm/sec
M204 P1250 R1250 T1250 ; sets acceleration (P, T) and retract acceleration (R), mm/sec^2
M205 X8.00 Y8.00 Z0.40 E4.50 ; sets the jerk limits, mm/sec
M205 S0 T0 ; sets the minimum extruding and travel feed rate, mm/sec
M107
M862.3 P "MK3S" ; printer model check
M862.1 P0.4 ; nozzle diameter check
M115 U3.9.1 ; tell printer latest fw version
G90 ; use absolute coordinates
M83 ; extruder relative mode
M104 S215 ; set extruder temp
M140 S60 ; set bed temp
M190 S60 ; wait for bed temp
M109 S215 ; wait for extruder temp
G28 W ; home all without mesh bed level
G80 ; mesh bed leveling
G1 Y-3.0 F1000.0 ; go outside print area
G92 E0.0
G1 X60.0 E9.0 F1000.0 ; intro line
M73 Q0 S43
M73 P0 R43
G1 X100.0 E12.5 F1000.0 ; intro line
G92 E0.0
M221 S95

; Don't change E values below. Excessive value can damage the printer.

M907 E538 ; set extruder motor current
G21 ; set units to millimeters
G90 ; use absolute coordinates
M83 ; use relative distances for extrusion
M900 K0.05 ; Filament gcode LA 1.5
M900 K30 ; Filament gcode LA 1.0
;BEFORE_LAYER_CHANGE
G92 E0.0
;0.2


G1 E-0.80000 F2100.00000
G1 Z0.600 F10800.000
;AFTER_LAYER_CHANGE
;0.2
G1 X64.160 Y81.276
G1 Z0.200
G1 E0.80000 F2100.00000
M204 S1000
G1 F1200.000
G1 X64.995 Y81.123 E0.02661
G1 X185.004 Y81.123 E3.76279
G1 X185.902 Y81.301 E0.02872
G1 X186.667 Y81.805 E0.02872
G1 X187.184 Y82.562 E0.02872
G1 X187.377 Y83.457 E0.02872
G1 X187.376 Y126.580 E1.35209
G1 X187.251 Y127.263 E0.02178
G1 X186.932 Y127.885 E0.02190
G1 X186.450 Y128.384 E0.02178
G1 X185.840 Y128.724 E0.02190
G1 X185.005 Y128.877 E0.02661
G1 X64.973 Y128.877 E3.76350
G1 X64.273 Y128.763 E0.02225
G1 X63.637 Y128.448 E0.02225
G1 X63.123 Y127.959 E0.02225
G1 X62.776 Y127.340 E0.02225
G1 X62.623 Y126.509 E0.02649
G1 X62.624 Y83.428 E1.35078
G1 X62.748 Y82.740 E0.02190
G1 X63.066 Y82.119 E0.02190
G1 X63.550 Y81.616 E0.02190
G1 X64.108 Y81.305 E0.02001
G1 F8640.000
G1 X64.995 Y81.123 E-0.20912
G1 X67.381 Y81.123 E-0.55088
G1 E-0.04000 F2100.00000
G1 Z0.800 F10800.000
G1 X94.213 Y87.713
G1 Z0.200
G1 E0.80000 F2100.00000
G1 F1200.000
G1 X155.787 Y87.713 E1.93061
G1 X155.787 Y118.287 E0.95863
G1 X148.331 Y118.287 E0.23378
G1 X148.729 Y118.496 E0.01408
G1 X149.278 Y118.982 E0.02300
G1 X149.694 Y119.586 E0.02300
G1 X149.954 Y120.272 E0.02300
G1 X150.043 Y121.000 E0.02300
G1 X149.959 Y121.689 E0.02177
G1 X149.697 Y122.411 E0.02407
G1 X149.278 Y123.018 E0.02313
G1 X148.729 Y123.504 E0.02300
G1 X148.079 Y123.845 E0.02300
G1 X147.367 Y124.021 E0.02300
G1 X146.633 Y124.021 E0.02300
G1 X145.921 Y123.845 E0.02300
G1 X145.271 Y123.504 E0.02300
G1 X144.722 Y123.018 E0.02300
G1 X144.306 Y122.414 E0.02300
G1 X144.046 Y121.728 E0.02300
G1 X143.957 Y121.000 E0.02300
G1 X144.041 Y120.311 E0.02177
G1 X144.303 Y119.589 E0.02407
G1 X144.722 Y118.982 E0.02313
G1 X145.271 Y118.496 E0.02300
G1 X145.669 Y118.287 E0.01408
G1 X140.331 Y118.287 E0.16738
G1 X140.729 Y118.496 E0.01408
G1 X141.278 Y118.982 E0.02300
G1 X141.694 Y119.586 E0.02300
G1 X141.954 Y120.272 E0.02300
G1 X142.043 Y121.000 E0.02300
G1 X141.959 Y121.689 E0.02177
G1 X141.697 Y122.411 E0.02407
G1 X141.278 Y123.018 E0.02313
G1 X140.729 Y123.504 E0.02300
G1 X140.079 Y123.845 E0.02300
G1 X139.367 Y124.021 E0.02300
G1 X138.633 Y124.021 E0.02300
G1 X137.921 Y123.845 E0.02300
G1 X137.271 Y123.504 E0.02300
G1 X136.722 Y123.018 E0.02300
G1 X136.306 Y122.414 E0.02300
G1 X136.046 Y121.728 E0.02300
G1 X135.957 Y121.000 E0.02300
G1 X136.046 Y120.272 E0.02300
G1 X136.306 Y119.586 E0.02300
G1 X136.722 Y118.982 E0.02300
G1 X137.271 Y118.496 E0.02300
G1 X137.669 Y118.287 E0.01408
G1 X112.331 Y118.287 E0.79446
G1 X112.729 Y118.496 E0.01408
G1 X113.278 Y118.982 E0.02300
G1 X113.694 Y119.586 E0.02300
G1 X113.954 Y120.272 E0.02300
G1 X114.043 Y121.000 E0.02300
G1 X113.954 Y121.728 E0.02300
G1 X113.694 Y122.414 E0.02300
G1 X113.278 Y123.018 E0.02300
G1 X112.729 Y123.504 E0.02300
G1 X112.079 Y123.845 E0.02300
G1 X111.367 Y124.021 E0.02300
G1 X110.633 Y124.021 E0.02300
G1 X109.921 Y123.845 E0.02300
G1 X109.271 Y123.504 E0.02300
G1 X108.722 Y123.018 E0.02300
G1 X108.306 Y122.414 E0.02300
G1 X108.046 Y121.728 E0.02300
G1 X107.957 Y121.000 E0.02300
G1 X108.041 Y120.311 E0.02177
G1 X108.303 Y119.589 E0.02407
G1 X108.722 Y118.982 E0.02313
G1 X109.271 Y118.496 E0.02300
G1 X109.669 Y118.287 E0.01408
G1 X104.331 Y118.287 E0.16738
G1 X104.729 Y118.496 E0.01408
G1 X105.278 Y118.982 E0.02300
G1 X105.694 Y119.586 E0.02300
G1 X105.954 Y120.272 E0.02300
G1 X106.043 Y121.000 E0.02300
G1 X105.959 Y121.689 E0.02177
G1 X105.697 Y122.411 E0.02407
G1 X105.278 Y123.018 E0.02313
G1 X104.729 Y123.504 E0.02300
G1 X104.079 Y123.845 E0.02300
G1 X103.367 Y124.021 E0.02300
G1 X102.633 Y124.021 E0.02300
G1 X101.921 Y123.845 E0.02300
G1 X101.271 Y123.504 E0.02300
G1 X100.722 Y123.018 E0.02300
G1 X100.306 Y122.414 E0.02300
G1 X100.046 Y121.728 E0.02300
G1 X99.957 Y121.000 E0.02300
G1 X100.041 Y120.311 E0.02177
G1 X100.303 Y119.589 E0.02407
G1 X100.722 Y118.982 E0.02313
G1 X101.271 Y118.496 E0.02300
G1 X101.669 Y118.287 E0.01408
G1 X94.213 Y118.287 E0.23378
G1 X94.213 Y87.773 E0.95675
G1 F8640.000
G1 X97.504 Y87.770 E-0.76000
G1 E-0.04000 F2100.00000
G1 Z0.800 F10800.000
G1 X137.007 Y119.234
G1 Z0.200
G1 E0.80000 F2100.00000
G1 F1200.000
G1 X137.487 Y118.808 E0.02013
G1 X138.056 Y118.510 E0.02013
G1 X138.679 Y118.356 E0.02013
G1 X139.321 Y118.356 E0.02013
G1 X139.944 Y118.510 E0.02013
G1 X140.513 Y118.808 E0.02013
G1 X140.993 Y119.234 E0.02013
G1 X141.358 Y119.762 E0.02013
G1 X141.586 Y120.363 E0.02013
G1 X141.663 Y121.000 E0.02013
G1 X141.590 Y121.601 E0.01898
G1 X141.359 Y122.236 E0.02120
G1 X140.993 Y122.766 E0.02017
G1 X140.513 Y123.192 E0.02013
G1 X139.944 Y123.490 E0.02013
G1 X139.321 Y123.644 E0.02013
G1 X138.679 Y123.644 E0.02013
G1 X138.056 Y123.490 E0.02013
G1 X137.487 Y123.192 E0.02013
G1 X137.007 Y122.766 E0.02013
G1 X136.642 Y122.238 E0.02013
G1 X136.414 Y121.637 E0.02013
G1 X136.337 Y121.000 E0.02013
G1 X136.414 Y120.363 E0.02013
G1 X136.642 Y119.762 E0.02013
G1 X136.973 Y119.283 E0.01825
G1 X136.880 Y118.855 F10800.000
G1 F8640.000
G1 X137.487 Y118.808 E-0.16172
G1 X138.056 Y118.510 E-0.14823
G1 X138.679 Y118.356 E-0.14824
G1 X139.321 Y118.356 E-0.14824
G1 X139.944 Y118.510 E-0.14824
G1 X139.965 Y118.521 E-0.00534
G1 E-0.04000 F2100.00000
G1 Z0.800 F10800.000
G1 X144.410 Y120.399
G1 Z0.200
G1 E0.80000 F2100.00000
G1 F1200.000
G1 X144.641 Y119.764 E0.02120
G1 X145.007 Y119.234 E0.02017
G1 X145.487 Y118.808 E0.02013
G1 X146.056 Y118.510 E0.02013
G1 X146.679 Y118.356 E0.02013
G1 X147.321 Y118.356 E0.02013
G1 X147.944 Y118.510 E0.02013
G1 X148.513 Y118.808 E0.02013
G1 X148.993 Y119.234 E0.02013
G1 X149.358 Y119.762 E0.02013
G1 X149.586 Y120.363 E0.02013
G1 X149.663 Y121.000 E0.02013
G1 X149.590 Y121.601 E0.01898
G1 X149.359 Y122.236 E0.02120
G1 X148.993 Y122.766 E0.02017
G1 X148.513 Y123.192 E0.02013
G1 X147.944 Y123.490 E0.02013
G1 X147.321 Y123.644 E0.02013
G1 X146.679 Y123.644 E0.02013
G1 X146.056 Y123.490 E0.02013
G1 X145.487 Y123.192 E0.02013
G1 X145.007 Y122.766 E0.02013
G1 X144.642 Y122.238 E0.02013
G1 X144.414 Y121.637 E0.02013
G1 X144.337 Y121.000 E0.02013
G1 X144.403 Y120.459 E0.01710
G1 X144.119 Y120.125 F10800.000
G1 F8640.000
G1 X144.641 Y119.764 E-0.16965
G1 X145.007 Y119.234 E-0.14857
G1 X145.487 Y118.808 E-0.14824
G1 X146.056 Y118.510 E-0.14823
G1 X146.667 Y118.359 E-0.14532
G1 E-0.04000 F2100.00000
G1 Z0.800 F10800.000
G1 X113.663 Y121.000
G1 Z0.200
G1 E0.80000 F2100.00000
G1 F1200.000
G1 X113.586 Y121.637 E0.02013
G1 X113.358 Y122.238 E0.02013
G1 X112.993 Y122.766 E0.02013
G1 X112.513 Y123.192 E0.02013
G1 X111.944 Y123.490 E0.02013
G1 X111.321 Y123.644 E0.02013
G1 X110.679 Y123.644 E0.02013
G1 X110.056 Y123.490 E0.02013
G1 X109.487 Y123.192 E0.02013
G1 X109.007 Y122.766 E0.02013
G1 X108.642 Y122.238 E0.02013
G1 X108.414 Y121.637 E0.02013
G1 X108.337 Y121.000 E0.02013
G1 X108.410 Y120.399 E0.01898
G1 X108.641 Y119.764 E0.02120
G1 X109.007 Y119.234 E0.02017
G1 X109.487 Y118.808 E0.02013
G1 X110.056 Y118.510 E0.02013
G1 X110.679 Y118.356 E0.02013
G1 X111.321 Y118.356 E0.02013
G1 X111.944 Y118.510 E0.02013
G1 X112.513 Y118.808 E0.02013
G1 X112.993 Y119.234 E0.02013
G1 X113.358 Y119.762 E0.02013
G1 X113.586 Y120.363 E0.02013
G1 X113.656 Y120.940 E0.01825
G1 X114.009 Y121.200 F10800.000
G1 F8640.000
G1 X113.586 Y121.637 E-0.16172
G1 X113.358 Y122.238 E-0.14823
G1 X112.993 Y122.766 E-0.14824
G1 X112.513 Y123.192 E-0.14824
G1 X111.944 Y123.490 E-0.14823
G1 X111.922 Y123.495 E-0.00534
G1 E-0.04000 F2100.00000
G1 Z0.800 F10800.000
G1 X105.663 Y121.000
G1 Z0.200
G1 E0.80000 F2100.00000
G1 F1200.000
G1 X105.590 Y121.601 E0.01898
G1 X105.359 Y122.236 E0.02120
G1 X104.993 Y122.766 E0.02017
G1 X104.513 Y123.192 E0.02013
G1 X103.944 Y123.490 E0.02013
G1 X103.321 Y123.644 E0.02013
G1 X102.679 Y123.644 E0.02013
G1 X102.056 Y123.490 E0.02013
G1 X101.487 Y123.192 E0.02013
G1 X101.007 Y122.766 E0.02013
G1 X100.642 Y122.238 E0.02013
G1 X100.414 Y121.637 E0.02013
G1 X100.337 Y121.000 E0.02013
G1 X100.410 Y120.399 E0.01898
G1 X100.641 Y119.764 E0.02120
G1 X101.007 Y119.234 E0.02017
G1 X101.487 Y118.808 E0.02013
G1 X102.056 Y118.510 E0.02013
G1 X102.679 Y118.356 E0.02013
G1 X103.321 Y118.356 E0.02013
G1 X103.944 Y118.510 E0.02013
G1 X104.513 Y118.808 E0.02013
G1 X104.993 Y119.234 E0.02013
G1 X105.358 Y119.762 E0.02013
G1 X105.586 Y120.363 E0.02013
G1 X105.656 Y120.940 E0.01825
G1 X106.009 Y121.200 F10800.000
G1 F8640.000
G1 X105.590 Y121.601 E-0.15328
G1 X105.359 Y122.236 E-0.15613
G1 X104.993 Y122.766 E-0.14857
G1 X104.513 Y123.192 E-0.14824
G1 X103.944 Y123.490 E-0.14823
G1 X103.921 Y123.496 E-0.00556
G1 E-0.04000 F2100.00000
G1 Z0.800 F10800.000
G1 X94.590 Y88.090
G1 Z0.200
G1 E0.80000 F2100.00000
G1 F1200.000
G1 X155.410 Y88.090 E1.90697
G1 X155.410 Y117.910 E0.93499
G1 X94.590 Y117.910 E1.90697
G1 X94.590 Y88.150 E0.93310
G1 X94.445 Y87.717 F10800.000
G1 F8640.000
G1 X97.881 Y88.147 E-0.76000
G1 E-0.04000 F2100.00000
G1 Z0.800 F10800.000
G1 X92.954 Y88.272
G1 Z0.200
G1 E0.80000 F2100.00000
G1 F1200.000
G1 X93.043 Y89.000 E0.02300
G1 X92.954 Y89.728 E0.02300
G1 X92.694 Y90.414 E0.02300
G1 X92.300 Y90.986 E0.02177
G1 X91.732 Y91.502 E0.02407
G1 X91.079 Y91.845 E0.02313
G1 X90.367 Y92.021 E0.02300
G1 X89.633 Y92.021 E0.02300
G1 X88.921 Y91.845 E0.02300
G1 X88.271 Y91.504 E0.02300
G1 X87.722 Y91.018 E0.02300
G1 X87.306 Y90.414 E0.02300
G1 X87.046 Y89.728 E0.02300
G1 X86.957 Y89.000 E0.02300
G1 X87.046 Y88.272 E0.02300
G1 X87.306 Y87.586 E0.02300
G1 X87.722 Y86.982 E0.02300
G1 X88.271 Y86.496 E0.02300
G1 X88.886 Y86.173 E0.02177
G1 X89.629 Y85.979 E0.02407
G1 X90.367 Y85.979 E0.02313
G1 X91.079 Y86.155 E0.02300
G1 X91.729 Y86.496 E0.02300
G1 X92.278 Y86.982 E0.02300
G1 X92.694 Y87.586 E0.02300
G1 X92.933 Y88.216 E0.02112
G1 X92.581 Y88.349 F10800.000
G1 F1200.000
G1 X92.663 Y89.000 E0.02056
G1 X92.586 Y89.637 E0.02013
G1 X92.358 Y90.238 E0.02013
G1 X92.014 Y90.736 E0.01898
G1 X91.514 Y91.191 E0.02120
G1 X90.944 Y91.490 E0.02017
G1 X90.321 Y91.644 E0.02013
G1 X89.679 Y91.644 E0.02013
G1 X89.056 Y91.490 E0.02013
G1 X88.487 Y91.192 E0.02013
G1 X88.007 Y90.766 E0.02013
G1 X87.642 Y90.238 E0.02013
G1 X87.414 Y89.637 E0.02013
G1 X87.337 Y89.000 E0.02013
G1 X87.414 Y88.363 E0.02013
G1 X87.642 Y87.762 E0.02013
G1 X88.007 Y87.234 E0.02013
G1 X88.487 Y86.808 E0.02013
G1 X89.023 Y86.527 E0.01898
G1 X89.678 Y86.356 E0.02120
G1 X90.321 Y86.356 E0.02017
G1 X90.944 Y86.510 E0.02013
G1 X91.513 Y86.808 E0.02013
G1 X91.993 Y87.234 E0.02013
G1 X92.358 Y87.762 E0.02013
G1 X92.559 Y88.293 E0.01780
G1 X92.965 Y88.459 F10800.000
G1 F8640.000
G1 X92.663 Y89.000 E-0.16492
G1 X92.586 Y89.637 E-0.14824
G1 X92.358 Y90.238 E-0.14824
G1 X92.014 Y90.736 E-0.13979
G1 X91.514 Y91.191 E-0.15613
G1 X91.504 Y91.196 E-0.00269
G1 E-0.04000 F2100.00000
G1 Z0.800 F10800.000
G1 X82.043 Y89.000
G1 Z0.200
G1 E0.80000 F2100.00000
G1 F1200.000
G1 X81.954 Y89.728 E0.02300
G1 X81.694 Y90.414 E0.02300
G1 X81.278 Y91.018 E0.02300
G1 X80.729 Y91.504 E0.02300
G1 X80.114 Y91.827 E0.02177
G1 X79.371 Y92.021 E0.02407
G1 X78.633 Y92.021 E0.02313
G1 X77.921 Y91.845 E0.02300
G1 X77.271 Y91.504 E0.02300
G1 X76.722 Y91.018 E0.02300
G1 X76.306 Y90.414 E0.02300
G1 X76.046 Y89.728 E0.02300
G1 X75.957 Y89.000 E0.02300
G1 X76.046 Y88.272 E0.02300
G1 X76.306 Y87.586 E0.02300
G1 X76.722 Y86.982 E0.02300
G1 X77.271 Y86.496 E0.02300
G1 X77.886 Y86.173 E0.02177
G1 X78.629 Y85.979 E0.02407
G1 X79.367 Y85.979 E0.02313
G1 X80.079 Y86.155 E0.02300
G1 X80.729 Y86.496 E0.02300
G1 X81.278 Y86.982 E0.02300
G1 X81.694 Y87.586 E0.02300
G1 X81.954 Y88.272 E0.02300
G1 X82.036 Y88.940 E0.02112
G1 X81.661 Y88.986 F10800.000
G1 F1200.000
G1 X81.586 Y89.637 E0.02056
G1 X81.358 Y90.238 E0.02013
G1 X80.993 Y90.766 E0.02013
G1 X80.513 Y91.192 E0.02013
G1 X79.977 Y91.473 E0.01898
G1 X79.322 Y91.644 E0.02120
G1 X78.679 Y91.644 E0.02017
G1 X78.056 Y91.490 E0.02013
G1 X77.487 Y91.192 E0.02013
G1 X77.007 Y90.766 E0.02013
G1 X76.642 Y90.238 E0.02013
G1 X76.414 Y89.637 E0.02013
G1 X76.337 Y89.000 E0.02013
G1 X76.414 Y88.363 E0.02013
G1 X76.642 Y87.762 E0.02013
G1 X77.007 Y87.234 E0.02013
G1 X77.487 Y86.808 E0.02013
G1 X78.023 Y86.527 E0.01898
G1 X78.678 Y86.356 E0.02120
G1 X79.321 Y86.356 E0.02017
G1 X79.944 Y86.510 E0.02013
G1 X80.513 Y86.808 E0.02013
G1 X80.993 Y87.234 E0.02013
G1 X81.358 Y87.762 E0.02013
G1 X81.586 Y88.363 E0.02013
G1 X81.654 Y88.926 E0.01780
G1 X82.008 Y89.185 F10800.000
G1 F8640.000
G1 X81.586 Y89.637 E-0.16492
G1 X81.358 Y90.238 E-0.14824
G1 X80.993 Y90.766 E-0.14823
G1 X80.513 Y91.192 E-0.14824
G1 X79.977 Y91.473 E-0.13979
G1 X79.932 Y91.485 E-0.01058
G1 E-0.04000 F2100.00000
G1 Z0.800 F10800.000
G1 X79.367 Y117.979
G1 Z0.200
G1 E0.80000 F2100.00000
G1 F1200.000
G1 X80.079 Y118.155 E0.02300
G1 X80.729 Y118.496 E0.02300
G1 X81.278 Y118.982 E0.02300
G1 X81.694 Y119.586 E0.02300
G1 X81.954 Y120.272 E0.02300
G1 X82.043 Y121.000 E0.02300
G1 X81.954 Y121.728 E0.02300
G1 X81.694 Y122.414 E0.02300
G1 X81.278 Y123.018 E0.02300
G1 X80.729 Y123.504 E0.02300
G1 X80.114 Y123.827 E0.02177
G1 X79.371 Y124.021 E0.02407
G1 X78.633 Y124.021 E0.02313
G1 X77.921 Y123.845 E0.02300
G1 X77.271 Y123.504 E0.02300
G1 X76.722 Y123.018 E0.02300
G1 X76.306 Y122.414 E0.02300
G1 X76.046 Y121.728 E0.02300
G1 X75.957 Y121.000 E0.02300
G1 X76.046 Y120.272 E0.02300
G1 X76.306 Y119.586 E0.02300
G1 X76.722 Y118.982 E0.02300
G1 X77.271 Y118.496 E0.02300
G1 X77.886 Y118.173 E0.02177
G1 X78.629 Y117.979 E0.02407
G1 X79.307 Y117.979 E0.02124
G1 X79.307 Y118.356 F10800.000
G1 F1200.000
G1 X79.944 Y118.510 E0.02056
G1 X80.513 Y118.808 E0.02013
G1 X80.993 Y119.234 E0.02013
G1 X81.358 Y119.762 E0.02013
G1 X81.586 Y120.363 E0.02013
G1 X81.663 Y121.000 E0.02013
G1 X81.586 Y121.637 E0.02013
G1 X81.358 Y122.238 E0.02013
G1 X80.993 Y122.766 E0.02013
G1 X80.513 Y123.192 E0.02013
G1 X79.977 Y123.473 E0.01898
G1 X79.322 Y123.644 E0.02120
G1 X78.679 Y123.644 E0.02017
G1 X78.056 Y123.490 E0.02013
G1 X77.487 Y123.192 E0.02013
G1 X77.007 Y122.766 E0.02013
G1 X76.642 Y122.238 E0.02013
G1 X76.414 Y121.637 E0.02013
G1 X76.337 Y121.000 E0.02013
G1 X76.414 Y120.363 E0.02013
G1 X76.642 Y119.762 E0.02013
G1 X77.007 Y119.234 E0.02013
G1 X77.487 Y118.808 E0.02013
G1 X78.023 Y118.527 E0.01898
G1 X78.678 Y118.356 E0.02120
G1 X79.247 Y118.356 E0.01785
G1 X79.545 Y118.035 F10800.000
G1 F8640.000
G1 X79.944 Y118.510 E-0.16493
G1 X80.513 Y118.808 E-0.14823
G1 X80.993 Y119.234 E-0.14824
G1 X81.358 Y119.762 E-0.14823
G1 X81.586 Y120.363 E-0.14824
G1 X81.587 Y120.372 E-0.00213
G1 E-0.04000 F2100.00000
G1 Z0.800 F10800.000
G1 X157.046 Y89.728
G1 Z0.200
G1 E0.80000 F2100.00000
G1 F1200.000
