; generated by PrusaSlicer 2.2.0+linux-x64 on 2020-11-02 at 17:36:16 UTC

; 

; external perimeters extrusion width = 0.60mm
; perimeters extrusion width = 0.50mm
; infill extrusion width = 0.50mm
; solid infill extrusion width = 0.50mm
; top infill extrusion width = 0.45mm
; first layer extrusion width = 0.42mm

M73 P0 R26
M73 Q0 S26
M201 X1000 Y1000 Z200 E5000 ; sets maximum accelerations, mm/sec^2
M203 X200 Y200 Z12 E120 ; sets maximum feedrates, mm/sec
M204 P1250 R1250 T1250 ; sets acceleration (P, T) and retract acceleration (R), mm/sec^2
M205 X8.00 Y8.00 Z0.40 E4.50 ; sets the jerk limits, mm/sec
M205 S0 T0 ; sets the minimum extruding and travel feed rate, mm/sec
M107
M862.3 P "MK3S" ; printer model check
M862.1 P0.4 ; nozzle diameter check
M115 U3.9.1 ; tell printer latest fw version
G90 ; use absolute coordinates
M83 ; extruder relative mode
M104 S215 ; set extruder temp
M140 S60 ; set bed temp
M190 S60 ; wait for bed temp
M109 S215 ; wait for extruder temp
G28 W ; home all without mesh bed level
G80 ; mesh bed leveling
G1 Y-3.0 F1000.0 ; go outside print area
G92 E0.0
G1 X60.0 E9.0 F1000.0 ; intro line
M73 Q0 S26
M73 P0 R26
G1 X100.0 E12.5 F1000.0 ; intro line
G92 E0.0
M221 S95

; Don't change E values below. Excessive value can damage the printer.

M907 E538 ; set extruder motor current
G21 ; set units to millimeters
G90 ; use absolute coordinates
M83 ; use relative distances for extrusion
M900 K0.05 ; Filament gcode LA 1.5
M900 K30 ; Filament gcode LA 1.0
;BEFORE_LAYER_CHANGE
G92 E0.0
;0.2


G1 E-0.80000 F2100.00000
G1 Z0.600 F10800.000
;AFTER_LAYER_CHANGE
;0.2
G1 X118.685 Y101.970
G1 Z0.200
G1 E0.80000 F2100.00000
M204 S1000
G1 F1200.000
G1 X119.517 Y100.651 E0.04889
G1 X120.030 Y100.075 E0.02418
G1 X121.086 Y99.187 E0.04327
G1 X122.506 Y98.450 E0.05016
G1 X124.061 Y98.056 E0.05031
G1 X125.428 Y98.017 E0.04287
G1 X126.226 Y98.111 E0.02519
G1 X127.760 Y98.566 E0.05017
G1 X129.027 Y99.265 E0.04536
G1 X130.219 Y100.324 E0.05000
G1 X131.159 Y101.658 E0.05116
G1 X131.699 Y102.973 E0.04458
G1 X131.876 Y103.709 E0.02375
G1 X131.997 Y105.282 E0.04946
G1 X131.791 Y106.729 E0.04583
G1 X131.217 Y108.234 E0.05052
G1 X130.306 Y109.578 E0.05091
G1 X129.290 Y110.528 E0.04359
G1 X128.648 Y110.971 E0.02447
G1 X127.217 Y111.642 E0.04957
G1 X125.819 Y111.960 E0.04493
G1 X124.295 Y111.971 E0.04781
G1 X122.846 Y111.660 E0.04645
G1 X122.157 Y111.393 E0.02317
G1 X120.944 Y110.715 E0.04356
G1 X119.736 Y109.625 E0.05101
G1 X118.830 Y108.322 E0.04976
G1 X118.295 Y107.010 E0.04444
G1 X118.124 Y106.286 E0.02332
G1 X118.003 Y104.717 E0.04934
G1 X118.197 Y103.320 E0.04424
G1 X118.665 Y102.027 E0.04312
G1 X119.018 Y102.155 F10800.000
G1 F1200.000
G1 X119.824 Y100.871 E0.04751
G1 X120.285 Y100.353 E0.02175
G1 X121.290 Y99.505 E0.04124
G1 X122.645 Y98.801 E0.04787
G1 X124.121 Y98.428 E0.04774
G1 X125.428 Y98.394 E0.04099
G1 X126.143 Y98.478 E0.02257
G1 X127.603 Y98.909 E0.04774
G1 X128.807 Y99.571 E0.04307
G1 X129.941 Y100.579 E0.04759
G1 X130.832 Y101.845 E0.04855
G1 X131.343 Y103.099 E0.04246
G1 X131.502 Y103.761 E0.02134
G1 X131.620 Y105.262 E0.04722
G1 X131.426 Y106.636 E0.04349
G1 X130.880 Y108.065 E0.04795
G1 X130.014 Y109.339 E0.04830
G1 X129.038 Y110.247 E0.04181
G1 X128.463 Y110.643 E0.02189
G1 X127.101 Y111.283 E0.04718
G1 X125.775 Y111.585 E0.04265
G1 X124.315 Y111.595 E0.04580
G1 X122.941 Y111.295 E0.04409
G1 X122.323 Y111.054 E0.02080
G1 X121.169 Y110.412 E0.04138
G1 X120.016 Y109.373 E0.04866
G1 X119.160 Y108.139 E0.04710
G1 X118.651 Y106.884 E0.04247
G1 X118.497 Y106.235 E0.02093
G1 X118.380 Y104.737 E0.04711
G1 X118.563 Y103.410 E0.04199
G1 X118.998 Y102.211 E0.03998
G1 X119.351 Y102.340 F10800.000
G1 F1200.000
G1 X119.372 Y102.282 E0.00193
G1 X120.130 Y101.091 E0.04427
G1 X120.538 Y100.632 E0.01924
G1 X121.495 Y99.821 E0.03933
G1 X122.780 Y99.153 E0.04541
G1 X124.181 Y98.800 E0.04529
G1 X125.428 Y98.771 E0.03911
G1 X126.057 Y98.846 E0.01988
G1 X127.444 Y99.250 E0.04528
G1 X128.584 Y99.876 E0.04079
G1 X129.664 Y100.834 E0.04527
G1 X130.505 Y102.034 E0.04593
G1 X130.988 Y103.226 E0.04034
G1 X131.129 Y103.811 E0.01886
G1 X131.244 Y105.240 E0.04494
G1 X131.062 Y106.536 E0.04104
G1 X130.543 Y107.896 E0.04563
G1 X129.720 Y109.103 E0.04582
G1 X128.790 Y109.964 E0.03973
G1 X128.284 Y110.311 E0.01924
G1 X126.990 Y110.923 E0.04489
G1 X125.730 Y111.211 E0.04052
G1 X124.339 Y111.218 E0.04361
G1 X123.043 Y110.932 E0.04160
G1 X122.494 Y110.718 E0.01848
G1 X121.393 Y110.109 E0.03947
G1 X120.302 Y109.127 E0.04602
G1 X119.487 Y107.952 E0.04483
G1 X119.008 Y106.762 E0.04022
G1 X118.871 Y106.185 E0.01860
G1 X118.756 Y104.759 E0.04484
G1 X118.929 Y103.499 E0.03989
G1 X119.331 Y102.396 E0.03679
G1 X119.684 Y102.525 F10800.000
G1 F1200.000
G1 X119.716 Y102.438 E0.00292
G1 X120.437 Y101.310 E0.04198
G1 X120.794 Y100.910 E0.01680
G1 X121.699 Y100.138 E0.03729
G1 X122.913 Y99.506 E0.04293
G1 X124.241 Y99.173 E0.04293
G1 X125.427 Y99.148 E0.03720
G1 X125.975 Y99.214 E0.01728
G1 X127.286 Y99.593 E0.04279
G1 X128.364 Y100.182 E0.03852
G1 X129.385 Y101.088 E0.04279
G1 X130.178 Y102.222 E0.04341
G1 X130.633 Y103.353 E0.03822
G1 X130.755 Y103.860 E0.01633
G1 X130.867 Y105.214 E0.04262
G1 X130.698 Y106.438 E0.03874
G1 X130.208 Y107.724 E0.04314
G1 X129.430 Y108.861 E0.04319
G1 X128.544 Y109.677 E0.03777
G1 X128.102 Y109.980 E0.01680
G1 X126.880 Y110.562 E0.04244
G1 X125.687 Y110.836 E0.03838
G1 X124.363 Y110.842 E0.04150
G1 X123.141 Y110.568 E0.03927
G1 X122.667 Y110.383 E0.01597
G1 X121.618 Y109.806 E0.03754
G1 X120.586 Y108.879 E0.04348
G1 X119.818 Y107.771 E0.04228
G1 X119.364 Y106.640 E0.03823
G1 X119.245 Y106.136 E0.01621
G1 X119.133 Y104.785 E0.04253
G1 X119.295 Y103.591 E0.03778
G1 X119.663 Y102.582 E0.03368
G1 F8640.000
G1 X119.716 Y102.438 E-0.03535
G1 X120.437 Y101.310 E-0.30917
G1 X120.794 Y100.910 E-0.12375
G1 X121.699 Y100.138 E-0.27464
G1 X121.764 Y100.104 E-0.01708
G1 E-0.04000 F2100.00000
G1 Z0.800 F10800.000
G1 X118.593 Y99.859
G1 Z0.200
G1 E0.80000 F2100.00000
G1 F1200.000
G1 X120.455 Y98.158 E0.07911
G1 X121.990 Y97.359 E0.05424
G1 X123.652 Y96.895 E0.05411
G1 X126.285 Y96.886 E0.08256
G1 X128.048 Y97.374 E0.05736
G1 X129.636 Y98.221 E0.05644
G1 X131.004 Y99.397 E0.05656
G1 X132.098 Y100.862 E0.05733
G1 X133.052 Y103.364 E0.08397
G1 X133.213 Y105.016 E0.05203
G1 X133.053 Y106.631 E0.05090
G1 X132.101 Y109.133 E0.08391
G1 X131.011 Y110.596 E0.05724
G1 X129.646 Y111.772 E0.05648
G1 X128.062 Y112.620 E0.05633
G1 X126.349 Y113.105 E0.05582
G1 X123.649 Y113.104 E0.08467
G1 X121.896 Y112.604 E0.05715
G1 X120.318 Y111.747 E0.05630
G1 X118.962 Y110.566 E0.05639
G1 X117.900 Y109.135 E0.05586
G1 X116.948 Y106.637 E0.08382
G1 X116.787 Y105.024 E0.05083
G1 X116.944 Y103.397 E0.05123
G1 X117.544 Y101.557 E0.06069
G1 X118.561 Y99.911 E0.06068
G1 X118.881 Y100.109 F10800.000
G1 F1200.000
G1 X120.652 Y98.480 E0.07544
G1 X122.110 Y97.717 E0.05162
G1 X123.729 Y97.265 E0.05268
G1 X126.210 Y97.256 E0.07781
G1 X127.890 Y97.717 E0.05462
G1 X129.407 Y98.521 E0.05381
G1 X130.742 Y99.669 E0.05523
G1 X131.780 Y101.066 E0.05455
G1 X132.680 Y103.427 E0.07921
G1 X132.836 Y104.998 E0.04950
G1 X132.680 Y106.570 E0.04953
G1 X131.783 Y108.929 E0.07915
G1 X130.748 Y110.325 E0.05449
G1 X129.449 Y111.450 E0.05389
G1 X127.940 Y112.263 E0.05374
G1 X126.272 Y112.735 E0.05435
G1 X123.726 Y112.735 E0.07981
G1 X122.057 Y112.262 E0.05441
G1 X120.549 Y111.449 E0.05371
G1 X119.252 Y110.325 E0.05380
G1 X118.219 Y108.931 E0.05440
G1 X117.321 Y106.575 E0.07907
G1 X117.164 Y105.005 E0.04946
G1 X117.317 Y103.455 E0.04883
G1 X117.895 Y101.697 E0.05805
G1 X118.849 Y100.160 E0.05671
G1 X119.169 Y100.360 F10800.000
G1 F1200.000
G1 X119.205 Y100.303 E0.00213
G1 X120.848 Y98.803 E0.06975
G1 X122.267 Y98.060 E0.05023
G1 X123.805 Y97.635 E0.05002
G1 X126.136 Y97.627 E0.07310
G1 X127.732 Y98.060 E0.05186
G1 X129.211 Y98.844 E0.05247
G1 X130.480 Y99.940 E0.05257
G1 X131.461 Y101.269 E0.05179
G1 X132.307 Y103.490 E0.07451
G1 X132.458 Y104.980 E0.04696
G1 X132.308 Y106.508 E0.04814
G1 X131.464 Y108.726 E0.07442
G1 X130.485 Y110.054 E0.05173
G1 X129.218 Y111.151 E0.05256
G1 X127.780 Y111.921 E0.05112
G1 X126.195 Y112.365 E0.05161
G1 X123.803 Y112.365 E0.07500
G1 X122.216 Y111.919 E0.05168
G1 X120.780 Y111.150 E0.05110
G1 X119.515 Y110.054 E0.05247
G1 X118.537 Y108.728 E0.05164
G1 X117.693 Y106.512 E0.07437
G1 X117.542 Y105.023 E0.04692
G1 X117.690 Y103.513 E0.04757
G1 X118.245 Y101.837 E0.05537
G1 X119.137 Y100.411 E0.05273
G1 F8640.000
G1 X119.205 Y100.303 E-0.02950
G1 X120.848 Y98.803 E-0.51368
G1 X121.680 Y98.368 E-0.21682
G1 E-0.04000 F2100.00000
G1 Z0.800 F10800.000
G1 X120.718 Y101.436
G1 Z0.200
G1 E0.80000 F2100.00000
G1 F1200.000
G1 X121.870 Y100.389 E0.04880
G1 X122.976 Y99.808 E0.03917
G1 X124.179 Y99.487 E0.03903
G1 X125.775 Y99.481 E0.05006
G1 X126.990 Y99.795 E0.03933
G1 X128.131 Y100.390 E0.04035
G1 X129.106 Y101.233 E0.04041
G1 X129.864 Y102.278 E0.04047
G1 X130.445 Y103.808 E0.05133
G1 X130.573 Y105.000 E0.03759
G1 X130.445 Y106.191 E0.03754
G1 X129.865 Y107.720 E0.05128
G1 X129.136 Y108.735 E0.03918
G1 X128.166 Y109.586 E0.04048
G1 X127.027 Y110.191 E0.04041
G1 X125.822 Y110.513 E0.03913
G1 X124.178 Y110.513 E0.05155
G1 X122.971 Y110.190 E0.03915
G1 X121.834 Y109.586 E0.04038
G1 X120.865 Y108.736 E0.04042
G1 X120.136 Y107.722 E0.03914
G1 X119.555 Y106.193 E0.05131
G1 X119.427 Y105.002 E0.03755
G1 X119.554 Y103.815 E0.03743
G1 X119.992 Y102.555 E0.04183
G1 X120.685 Y101.486 E0.03993
G1 X121.000 Y101.692 F10800.000
G1 F1200.000
G1 X122.104 Y100.686 E0.04681
G1 X123.130 Y100.152 E0.03629
G1 X124.250 Y99.858 E0.03630
G1 X125.750 Y99.858 E0.04703
G1 X126.873 Y100.153 E0.03639
G1 X127.935 Y100.713 E0.03766
G1 X128.842 Y101.502 E0.03768
G1 X129.543 Y102.478 E0.03767
G1 X130.072 Y103.873 E0.04678
G1 X130.196 Y105.020 E0.03617
G1 X130.073 Y106.125 E0.03487
G1 X129.544 Y107.520 E0.04677
G1 X128.843 Y108.497 E0.03771
G1 X127.935 Y109.287 E0.03774
G1 X126.872 Y109.847 E0.03768
G1 X125.750 Y110.142 E0.03637
G1 X124.250 Y110.142 E0.04703
G1 X123.127 Y109.847 E0.03639
G1 X122.065 Y109.287 E0.03766
G1 X121.158 Y108.498 E0.03768
G1 X120.457 Y107.522 E0.03767
G1 X119.927 Y106.127 E0.04679
G1 X119.804 Y105.021 E0.03488
G1 X119.927 Y103.877 E0.03608
G1 X120.340 Y102.702 E0.03906
G1 X120.968 Y101.742 E0.03595
G1 X121.282 Y101.950 F10800.000
G1 F1200.000
G1 X121.328 Y101.880 E0.00261
G1 X122.300 Y101.009 E0.04092
G1 X123.247 Y100.511 E0.03356
G1 X124.323 Y100.229 E0.03486
G1 X125.678 Y100.229 E0.04249
G1 X126.755 Y100.512 E0.03493
G1 X127.739 Y101.035 E0.03492
G1 X128.576 Y101.771 E0.03495
G1 X129.222 Y102.677 E0.03488
G1 X129.700 Y103.938 E0.04232
G1 X129.819 Y104.999 E0.03347
G1 X129.701 Y106.060 E0.03346
G1 X129.223 Y107.321 E0.04230
G1 X128.577 Y108.229 E0.03491
G1 X127.738 Y108.965 E0.03500
G1 X126.754 Y109.488 E0.03494
G1 X125.677 Y109.771 E0.03491
G1 X124.322 Y109.771 E0.04249
G1 X123.245 Y109.488 E0.03493
G1 X122.261 Y108.965 E0.03492
G1 X121.424 Y108.229 E0.03495
G1 X120.778 Y107.323 E0.03488
G1 X120.300 Y106.062 E0.04232
G1 X120.181 Y105.001 E0.03347
G1 X120.299 Y103.941 E0.03342
G1 X120.687 Y102.851 E0.03630
G1 X121.249 Y102.000 E0.03196
G1 X121.628 Y102.109 F10800.000
G1 F1200.000
G1 X122.496 Y101.332 E0.03653
G1 X123.403 Y100.856 E0.03213
G1 X124.393 Y100.600 E0.03207
G1 X125.607 Y100.600 E0.03805
G1 X126.600 Y100.857 E0.03215
G1 X127.507 Y101.334 E0.03213
G1 X128.310 Y102.039 E0.03352
G1 X128.900 Y102.874 E0.03205
G1 X129.329 Y104.005 E0.03793
G1 X129.441 Y104.979 E0.03074
G1 X129.329 Y105.995 E0.03203
G1 X128.901 Y107.124 E0.03786
G1 X128.311 Y107.960 E0.03208
G1 X127.507 Y108.667 E0.03357
G1 X126.599 Y109.144 E0.03215
G1 X125.607 Y109.400 E0.03213
G1 X124.393 Y109.400 E0.03805
G1 X123.400 Y109.143 E0.03215
G1 X122.493 Y108.666 E0.03213
G1 X121.690 Y107.961 E0.03352
G1 X121.100 Y107.126 E0.03205
G1 X120.671 Y105.995 E0.03793
G1 X120.559 Y105.021 E0.03074
G1 X120.671 Y104.005 E0.03203
G1 X121.034 Y103.001 E0.03349
G1 X121.595 Y102.159 E0.03171
G1 X121.907 Y102.370 F10800.000
G1 F1200.000
G1 X122.728 Y101.630 E0.03463
G1 X123.556 Y101.201 E0.02927
G1 X124.463 Y100.971 E0.02932
G1 X125.536 Y100.971 E0.03364
G1 X126.483 Y101.216 E0.03069
G1 X127.309 Y101.655 E0.02933
G1 X128.043 Y102.306 E0.03074
G1 X128.577 Y103.070 E0.02925
G1 X128.957 Y104.072 E0.03358
G1 X129.064 Y105.001 E0.02932
G1 X128.957 Y105.928 E0.02927
G1 X128.578 Y106.928 E0.03353
G1 X128.044 Y107.694 E0.02928
G1 X127.311 Y108.344 E0.03072
G1 X126.444 Y108.799 E0.03071
G1 X125.537 Y109.029 E0.02931
G1 X124.464 Y109.029 E0.03364
G1 X123.517 Y108.784 E0.03069
G1 X122.691 Y108.345 E0.02933
G1 X121.957 Y107.694 E0.03074
G1 X121.423 Y106.930 E0.02925
G1 X121.043 Y105.928 E0.03358
G1 X120.936 Y104.999 E0.02932
G1 X121.043 Y104.072 E0.02928
G1 X121.380 Y103.153 E0.03069
G1 X121.874 Y102.419 E0.02772
G1 X122.185 Y102.631 F10800.000
G1 F1200.000
G1 X122.225 Y102.572 E0.00224
G1 X122.924 Y101.953 E0.02927
G1 X123.671 Y101.561 E0.02647
G1 X124.533 Y101.343 E0.02787
G1 X125.467 Y101.342 E0.02928
G1 X126.327 Y101.560 E0.02782
G1 X127.112 Y101.977 E0.02787
G1 X127.774 Y102.571 E0.02789
G1 X128.254 Y103.266 E0.02647
G1 X128.585 Y104.138 E0.02927
G1 X128.687 Y105.021 E0.02787
G1 X128.586 Y105.859 E0.02647
G1 X128.255 Y106.733 E0.02929
G1 X127.775 Y107.428 E0.02649
G1 X127.112 Y108.022 E0.02789
G1 X126.329 Y108.439 E0.02784
G1 X125.467 Y108.657 E0.02785
G1 X124.533 Y108.658 E0.02928
G1 X123.673 Y108.440 E0.02782
G1 X122.888 Y108.023 E0.02787
G1 X122.226 Y107.429 E0.02789
G1 X121.746 Y106.734 E0.02647
G1 X121.415 Y105.862 E0.02927
G1 X121.313 Y104.979 E0.02787
G1 X121.414 Y104.140 E0.02648
G1 X121.725 Y103.307 E0.02789
G1 X122.151 Y102.681 E0.02373
G1 X122.689 Y102.953 F10800.000
G1 F1200.000
G1 X123.246 Y102.459 E0.02333
G1 X123.905 Y102.114 E0.02333
G1 X124.628 Y101.936 E0.02333
G1 X125.372 Y101.936 E0.02333
G1 X126.094 Y102.113 E0.02331
G1 X126.754 Y102.459 E0.02336
G1 X127.311 Y102.953 E0.02333
G1 X127.733 Y103.565 E0.02333
G1 X127.997 Y104.261 E0.02333
G1 X128.087 Y104.999 E0.02331
G1 X127.997 Y105.739 E0.02336
G1 X127.733 Y106.435 E0.02333
G1 X127.311 Y107.047 E0.02333
G1 X126.754 Y107.541 E0.02333
G1 X126.095 Y107.886 E0.02333
G1 X125.372 Y108.064 E0.02333
G1 X124.628 Y108.064 E0.02333
G1 X123.905 Y107.886 E0.02333
G1 X123.246 Y107.541 E0.02333
G1 X122.689 Y107.047 E0.02333
G1 X122.267 Y106.435 E0.02333
G1 X122.003 Y105.739 E0.02333
G1 X121.913 Y105.001 E0.02331
G1 X122.003 Y104.261 E0.02336
G1 X122.267 Y103.565 E0.02333
G1 X122.655 Y103.002 E0.02145
G1 X123.081 Y103.033 F10800.000
G1 X122.966 Y103.217
G1 F1200.000
G1 X123.462 Y102.772 E0.02090
G1 X124.040 Y102.469 E0.02046
G1 X124.674 Y102.313 E0.02046
G1 X125.326 Y102.313 E0.02046
G1 X125.959 Y102.469 E0.02044
G1 X126.538 Y102.772 E0.02049
G1 X127.026 Y103.205 E0.02046
G1 X127.397 Y103.742 E0.02046
G1 X127.628 Y104.352 E0.02046
G1 X127.707 Y104.999 E0.02044
G1 X127.628 Y105.648 E0.02049
G1 X127.397 Y106.258 E0.02046
G1 X127.026 Y106.795 E0.02046
G1 X126.538 Y107.228 E0.02046
G1 X125.960 Y107.531 E0.02046
G1 X125.326 Y107.687 E0.02046
G1 X124.674 Y107.687 E0.02046
G1 X124.040 Y107.531 E0.02046
G1 X123.462 Y107.228 E0.02046
G1 X122.974 Y106.795 E0.02046
G1 X122.603 Y106.258 E0.02046
G1 X122.372 Y105.648 E0.02046
G1 X122.293 Y105.001 E0.02044
G1 X122.372 Y104.352 E0.02049
G1 X122.603 Y103.742 E0.02046
G1 X122.932 Y103.266 E0.01814
G1 X123.568 Y103.731 F10800.000
G1 F1200.000
G1 X123.913 Y103.426 E0.01446
G1 X124.322 Y103.211 E0.01446
G1 X124.769 Y103.101 E0.01446
G1 X125.231 Y103.101 E0.01446
G1 X125.678 Y103.211 E0.01446
G1 X126.087 Y103.426 E0.01446
G1 X126.432 Y103.731 E0.01446
G1 X126.694 Y104.111 E0.01446
G1 X126.857 Y104.542 E0.01446
G1 X126.913 Y105.000 E0.01446
G1 X126.857 Y105.458 E0.01446
G1 X126.694 Y105.889 E0.01446
G1 X126.432 Y106.269 E0.01446
G1 X126.087 Y106.574 E0.01446
G1 X125.678 Y106.789 E0.01446
G1 X125.231 Y106.899 E0.01446
G1 X124.769 Y106.899 E0.01446
G1 X124.322 Y106.789 E0.01446
G1 X123.913 Y106.574 E0.01446
G1 X123.568 Y106.269 E0.01446
G1 X123.306 Y105.889 E0.01446
G1 X123.143 Y105.458 E0.01446
G1 X123.087 Y105.000 E0.01446
