; generated by PrusaSlicer 2.2.0+linux-x64 on 2020-11-02 at 18:55:06 UTC

; 

; external perimeters extrusion width = 0.60mm
; perimeters extrusion width = 0.50mm
; infill extrusion width = 0.50mm
; solid infill extrusion width = 0.50mm
; top infill extrusion width = 0.45mm
; first layer extrusion width = 0.42mm

M73 P0 R80
M73 Q0 S80
M201 X1000 Y1000 Z200 E5000 ; sets maximum accelerations, mm/sec^2
M203 X200 Y200 Z12 E120 ; sets maximum feedrates, mm/sec
M204 P1250 R1250 T1250 ; sets acceleration (P, T) and retract acceleration (R), mm/sec^2
M205 X8.00 Y8.00 Z0.40 E4.50 ; sets the jerk limits, mm/sec
M205 S0 T0 ; sets the minimum extruding and travel feed rate, mm/sec
M107
M862.3 P "MK3S" ; printer model check
M862.1 P0.4 ; nozzle diameter check
M115 U3.9.1 ; tell printer latest fw version
G90 ; use absolute coordinates
M83 ; extruder relative mode
M104 S215 ; set extruder temp
M140 S60 ; set bed temp
M190 S60 ; wait for bed temp
M109 S215 ; wait for extruder temp
G28 W ; home all without mesh bed level
G80 ; mesh bed leveling
G1 Y-3.0 F1000.0 ; go outside print area
G92 E0.0
G1 X60.0 E9.0 F1000.0 ; intro line
M73 Q0 S80
M73 P0 R80
G1 X100.0 E12.5 F1000.0 ; intro line
G92 E0.0
M221 S95

; Don't change E values below. Excessive value can damage the printer.

M907 E538 ; set extruder motor current
G21 ; set units to millimeters
G90 ; use absolute coordinates
M83 ; use relative distances for extrusion
M900 K0.05 ; Filament gcode LA 1.5
M900 K30 ; Filament gcode LA 1.0
;BEFORE_LAYER_CHANGE
G92 E0.0
;0.2


G1 E-0.80000 F2100.00000
G1 Z0.600 F10800.000
;AFTER_LAYER_CHANGE
;0.2
G1 X105.357 Y100.811
G1 Z0.200
G1 E0.80000 F2100.00000
M204 S1000
G1 F1200.000
G1 X106.458 Y99.846 E0.04588
G1 X107.742 Y99.168 E0.04554
G1 X109.011 Y98.830 E0.04118
G1 X109.569 Y98.772 E0.01758
G1 X140.426 Y98.771 E0.96750
G1 X141.056 Y98.845 E0.01988
G1 X142.429 Y99.243 E0.04483
G1 X143.568 Y99.864 E0.04066
G1 X144.608 Y100.774 E0.04335
G1 X145.390 Y101.845 E0.04156
G1 X145.652 Y102.345 E0.01771
G1 X146.076 Y103.521 E0.03919
G1 X146.251 Y104.875 E0.04282
G1 X146.126 Y106.215 E0.04218
G1 X145.989 Y106.771 E0.01796
G1 X145.520 Y107.939 E0.03947
G1 X144.733 Y109.087 E0.04365
G1 X143.777 Y109.974 E0.04088
G1 X143.327 Y110.287 E0.01720
G1 X142.215 Y110.849 E0.03905
G1 X140.989 Y111.170 E0.03975
G1 X140.431 Y111.228 E0.01758
G1 X109.227 Y111.206 E0.97840
G1 X108.027 Y110.928 E0.03860
G1 X107.534 Y110.739 E0.01656
G1 X106.453 Y110.151 E0.03858
G1 X105.540 Y109.370 E0.03768
G1 X105.174 Y108.967 E0.01707
G1 X104.491 Y107.959 E0.03816
G1 X103.908 Y106.407 E0.05198
G1 X103.746 Y105.030 E0.04349
G1 X103.880 Y103.744 E0.04053
G1 X104.330 Y102.385 E0.04491
G1 X104.616 Y101.837 E0.01937
G1 X105.322 Y100.859 E0.03781
G1 X105.626 Y101.078 F10800.000
G1 F1200.000
G1 X106.673 Y100.155 E0.04378
G1 X107.888 Y99.516 E0.04305
G1 X109.113 Y99.194 E0.03971
G1 X140.426 Y99.148 E0.98177
G1 X140.969 Y99.212 E0.01716
G1 X142.272 Y99.586 E0.04250
G1 X143.352 Y100.173 E0.03852
G1 X144.341 Y101.040 E0.04125
G1 X145.076 Y102.053 E0.03924
G1 X145.305 Y102.491 E0.01550
G1 X145.709 Y103.609 E0.03727
G1 X145.875 Y104.906 E0.04101
G1 X145.753 Y106.162 E0.03956
G1 X145.632 Y106.649 E0.01574
G1 X145.190 Y107.757 E0.03742
G1 X144.435 Y108.855 E0.04177
G1 X143.133 Y109.964 E0.05364
G1 X142.076 Y110.498 E0.03713
G1 X140.887 Y110.806 E0.03851
G1 X109.289 Y110.834 E0.99071
G1 X107.701 Y110.400 E0.05164
G1 X106.664 Y109.839 E0.03695
G1 X105.791 Y109.089 E0.03609
G1 X104.818 Y107.771 E0.05136
G1 X104.272 Y106.306 E0.04903
G1 X104.123 Y105.017 E0.04068
G1 X104.253 Y103.800 E0.03838
G1 X104.684 Y102.516 E0.04248
G1 X104.935 Y102.038 E0.01692
G1 X105.591 Y101.127 E0.03520
G1 F8640.000
G1 X106.673 Y100.155 E-0.33590
G1 X107.888 Y99.516 E-0.31700
G1 X108.337 Y99.398 E-0.10710
G1 E-0.04000 F2100.00000
G1 Z0.800 F10800.000
G1 X115.056 Y98.583
G1 Z0.200
G1 E0.80000 F2100.00000
G1 F1200.000
G1 X114.637 Y98.221 E0.01736
G1 X113.048 Y97.374 E0.05644
G1 X111.235 Y96.879 E0.05894
G1 X108.652 Y96.895 E0.08098
G1 X106.990 Y97.359 E0.05412
G1 X105.455 Y98.158 E0.05424
G1 X103.594 Y99.858 E0.07905
G1 X102.583 Y101.472 E0.05971
G1 X101.971 Y103.271 E0.05959
G1 X101.787 Y105.023 E0.05521
G1 X101.970 Y106.732 E0.05390
G1 X102.826 Y108.999 E0.07596
G1 X103.990 Y110.596 E0.06197
G1 X105.387 Y111.795 E0.05772
G1 X106.935 Y112.619 E0.05500
G1 X108.650 Y113.105 E0.05587
G1 X111.298 Y113.112 E0.08304
G1 X113.101 Y112.605 E0.05872
G1 X114.681 Y111.748 E0.05635
G1 X115.084 Y111.399 E0.01673
G1 F8640.000
G1 X114.681 Y111.748 E-0.12323
G1 X113.101 Y112.605 E-0.41496
G1 X112.176 Y112.865 E-0.22181
G1 E-0.04000 F2100.00000
G1 Z0.800 F10800.000
G1 X115.961 Y110.639
G1 Z0.200
G1 E0.80000 F2100.00000
G1 F1200.000
G1 X116.011 Y110.596 E0.00208
G1 X117.102 Y109.132 E0.05724
G1 X117.500 Y108.138 E0.03356
G1 X117.900 Y109.134 E0.03364
G1 X118.933 Y110.535 E0.05458
G1 X119.048 Y110.637 E0.00482
G1 F8640.000
G1 X118.933 Y110.535 E-0.03551
G1 X117.900 Y109.134 E-0.40193
G1 X117.500 Y108.138 E-0.24775
G1 X117.379 Y108.439 E-0.07481
G1 E-0.04000 F2100.00000
G1 Z0.800 F10800.000
G1 X119.918 Y111.402
G1 Z0.200
G1 E0.80000 F2100.00000
G1 F1200.000
G1 X120.281 Y111.722 E0.01518
G1 X121.895 Y112.603 E0.05765
G1 X123.649 Y113.105 E0.05720
G1 X126.298 Y113.112 E0.08306
G1 X128.061 Y112.621 E0.05738
G1 X129.645 Y111.773 E0.05633
G1 X130.065 Y111.409 E0.01742
G1 F8640.000
G1 X129.645 Y111.773 E-0.12826
G1 X128.061 Y112.621 E-0.41483
G1 X127.156 Y112.873 E-0.21691
G1 E-0.04000 F2100.00000
G1 Z0.800 F10800.000
G1 X130.969 Y110.626
G1 Z0.200
G1 E0.80000 F2100.00000
G1 F1200.000
G1 X131.040 Y110.565 E0.00292
G1 X132.128 Y109.085 E0.05759
G1 X132.502 Y108.145 E0.03173
G1 X132.900 Y109.134 E0.03344
G1 X134.021 Y110.623 E0.05843
G1 F8640.000
G1 X132.900 Y109.134 E-0.43030
G1 X132.502 Y108.145 E-0.24623
G1 X132.368 Y108.481 E-0.08347
G1 E-0.04000 F2100.00000
G1 Z0.800 F10800.000
G1 X134.931 Y111.413
G1 Z0.200
G1 E0.80000 F2100.00000
G1 F1200.000
G1 X135.316 Y111.746 E0.01598
G1 X136.895 Y112.603 E0.05632
G1 X138.700 Y113.112 E0.05879
G1 X141.349 Y113.105 E0.08304
G1 X143.061 Y112.621 E0.05580
G1 X144.611 Y111.797 E0.05503
G1 X146.098 Y110.501 E0.06183
G1 X147.175 Y108.997 E0.05801
G1 X148.019 Y106.777 E0.07446
G1 X148.212 Y104.939 E0.05796
G1 X148.018 Y103.219 E0.05425
G1 X147.172 Y100.998 E0.07453
G1 X146.062 Y99.460 E0.05946
G1 X144.565 Y98.173 E0.06192
G1 X143.008 Y97.358 E0.05509
G1 X141.284 Y96.886 E0.05604
G1 X138.701 Y96.888 E0.08100
G1 X136.951 Y97.374 E0.05695
G1 X135.374 Y98.214 E0.05601
G1 X134.973 Y98.583 E0.01709
G1 F8640.000
G1 X135.374 Y98.214 E-0.12585
G1 X136.951 Y97.374 E-0.41247
G1 X137.876 Y97.118 E-0.22167
G1 E-0.04000 F2100.00000
G1 Z0.800 F10800.000
G1 X134.141 Y99.346
G1 Z0.200
G1 E0.80000 F2100.00000
G1 F1200.000
G1 X133.625 Y99.821 E0.02199
G1 X132.441 Y101.698 E0.06960
G1 X132.124 Y100.909 E0.02667
G1 X131.003 Y99.396 E0.05904
G1 X130.950 Y99.351 E0.00218
G1 F8640.000
G1 X131.003 Y99.396 E-0.01606
G1 X132.124 Y100.909 E-0.43477
G1 X132.441 Y101.698 E-0.19640
G1 X132.701 Y101.285 E-0.11278
G1 E-0.04000 F2100.00000
G1 Z0.800 F10800.000
G1 X130.052 Y98.583
G1 Z0.200
G1 E0.80000 F2100.00000
G1 F1200.000
G1 X129.600 Y98.196 E0.01867
G1 X128.008 Y97.358 E0.05639
G1 X126.235 Y96.879 E0.05759
G1 X123.651 Y96.895 E0.08101
G1 X121.912 Y97.390 E0.05668
G1 X120.335 Y98.242 E0.05622
G1 X119.965 Y98.583 E0.01576
G1 F8640.000
G1 X120.335 Y98.242 E-0.11609
G1 X121.912 Y97.390 E-0.41401
G1 X122.870 Y97.118 E-0.22990
G1 E-0.04000 F2100.00000
G1 Z0.800 F10800.000
G1 X119.115 Y99.368
G1 Z0.200
G1 E0.80000 F2100.00000
G1 F1200.000
G1 X118.624 Y99.821 E0.02092
G1 X117.438 Y101.704 E0.06979
G1 X117.099 Y100.863 E0.02842
G1 X116.033 Y99.428 E0.05605
G1 X115.969 Y99.373 E0.00264
G1 X115.394 Y99.374 F10800.000
G1 F1200.000
G1 X115.770 Y99.699 E0.01562
G1 X116.780 Y101.066 E0.05327
G1 X117.491 Y102.893 E0.06148
G1 X117.913 Y101.657 E0.04096
G1 X118.899 Y100.081 E0.05828
G1 X119.672 Y99.367 E0.03297
G1 F8640.000
G1 X118.899 Y100.081 E-0.24283
G1 X117.913 Y101.657 E-0.42918
G1 X117.790 Y102.017 E-0.08799
G1 E-0.04000 F2100.00000
G1 Z0.800 F10800.000
G1 X120.521 Y98.583
G1 Z0.200
G1 E0.80000 F2100.00000
G1 F1200.000
G1 X120.573 Y98.536 E0.00219
G1 X122.072 Y97.732 E0.05333
G1 X123.728 Y97.265 E0.05396
G1 X126.211 Y97.256 E0.07783
G1 X127.852 Y97.702 E0.05332
G1 X129.371 Y98.497 E0.05376
G1 X129.472 Y98.583 E0.00416
G1 F8640.000
G1 X129.371 Y98.497 E-0.03067
G1 X127.852 Y97.702 E-0.39592
G1 X126.458 Y97.323 E-0.33341
G1 E-0.04000 F2100.00000
G1 Z0.800 F10800.000
G1 X130.371 Y99.352
G1 Z0.200
G1 E0.80000 F2100.00000
G1 F1200.000
G1 X130.742 Y99.669 E0.01529
G1 X131.805 Y101.111 E0.05619
G1 X132.492 Y102.891 E0.05981
G1 X132.913 Y101.657 E0.04089
G1 X133.899 Y100.081 E0.05827
G1 X134.700 Y99.345 E0.03410
G1 F8640.000
G1 X133.899 Y100.081 E-0.25113
G1 X132.913 Y101.657 E-0.42913
G1 X132.802 Y101.984 E-0.07974
G1 E-0.04000 F2100.00000
G1 Z0.800 F10800.000
G1 X135.530 Y98.583
G1 Z0.200
G1 E0.80000 F2100.00000
G1 F1200.000
G1 X135.611 Y98.509 E0.00344
G1 X137.109 Y97.717 E0.05312
G1 X138.728 Y97.265 E0.05271
G1 X141.211 Y97.256 E0.07784
G1 X142.852 Y97.702 E0.05332
G1 X144.371 Y98.497 E0.05376
G1 X145.771 Y99.700 E0.05787
G1 X146.829 Y101.156 E0.05643
G1 X147.657 Y103.331 E0.07297
G1 X147.835 Y104.960 E0.05138
G1 X147.658 Y106.666 E0.05380
G1 X146.831 Y108.840 E0.07290
G1 X145.805 Y110.263 E0.05502
G1 X144.414 Y111.474 E0.05781
G1 X142.902 Y112.278 E0.05371
G1 X141.272 Y112.735 E0.05308
G1 X138.726 Y112.735 E0.07982
G1 X137.056 Y112.261 E0.05443
G1 X135.508 Y111.413 E0.05536
G1 F8640.000
G1 X137.056 Y112.261 E-0.40771
G1 X138.524 Y112.677 E-0.35229
G1 E-0.04000 F2100.00000
G1 Z0.800 F10800.000
G1 X134.596 Y110.623
G1 Z0.200
G1 E0.80000 F2100.00000
G1 F1200.000
G1 X134.252 Y110.324 E0.01428
G1 X133.218 Y108.931 E0.05439
G1 X132.500 Y107.086 E0.06208
G1 X131.808 Y108.884 E0.06040
G1 X130.776 Y110.294 E0.05478
G1 X130.393 Y110.626 E0.01592
G1 F8640.000
G1 X130.776 Y110.294 E-0.11724
G1 X131.808 Y108.884 E-0.40345
G1 X132.180 Y107.916 E-0.23932
G1 E-0.04000 F2100.00000
G1 Z0.800 F10800.000
G1 X129.490 Y111.409
G1 Z0.200
G1 E0.80000 F2100.00000
G1 F1200.000
G1 X129.414 Y111.474 E0.00311
G1 X127.902 Y112.278 E0.05371
G1 X126.272 Y112.735 E0.05308
G1 X123.726 Y112.735 E0.07982
G1 X122.056 Y112.261 E0.05443
G1 X120.489 Y111.403 E0.05604
G1 F8640.000
G1 X122.056 Y112.261 E-0.41269
G1 X123.504 Y112.671 E-0.34731
G1 E-0.04000 F2100.00000
G1 Z0.800 F10800.000
G1 X119.614 Y110.636
G1 Z0.200
G1 E0.80000 F2100.00000
G1 F1200.000
G1 X119.224 Y110.295 E0.01625
G1 X118.218 Y108.931 E0.05312
G1 X117.500 Y107.084 E0.06215
G1 X116.783 Y108.929 E0.06205
G1 X115.748 Y110.325 E0.05448
G1 X115.384 Y110.640 E0.01510
G1 F8640.000
G1 X115.748 Y110.325 E-0.11119
G1 X116.783 Y108.929 E-0.40123
G1 X117.171 Y107.929 E-0.24758
G1 E-0.04000 F2100.00000
G1 Z0.800 F10800.000
G1 X114.509 Y111.398
G1 Z0.200
G1 E0.80000 F2100.00000
G1 F1200.000
G1 X114.450 Y111.449 E0.00245
G1 X112.940 Y112.263 E0.05376
G1 X111.272 Y112.735 E0.05437
G1 X108.726 Y112.735 E0.07982
G1 X107.094 Y112.277 E0.05314
G1 X105.583 Y111.472 E0.05369
G1 X104.252 Y110.325 E0.05508
G1 X103.170 Y108.842 E0.05758
G1 X102.332 Y106.622 E0.07438
G1 X102.164 Y105.004 E0.05101
G1 X102.335 Y103.373 E0.05141
G1 X102.933 Y101.615 E0.05822
G1 X103.899 Y100.080 E0.05685
G1 X105.652 Y98.480 E0.07441
G1 X107.110 Y97.717 E0.05162
G1 X108.729 Y97.265 E0.05268
G1 X111.210 Y97.256 E0.07781
G1 X112.890 Y97.717 E0.05462
G1 X114.406 Y98.521 E0.05380
G1 X114.479 Y98.583 E0.00301
G1 X113.720 Y98.583 F10800.000
G1 F1200.000
G1 X112.732 Y98.060 E0.03503
G1 X111.136 Y97.627 E0.05186
G1 X108.805 Y97.635 E0.07310
G1 X107.267 Y98.060 E0.05002
G1 X105.848 Y98.803 E0.05023
G1 X104.205 Y100.303 E0.06976
G1 X103.264 Y101.797 E0.05535
G1 X102.699 Y103.473 E0.05548
G1 X102.542 Y104.986 E0.04768
G1 X102.693 Y106.512 E0.04810
G1 X103.513 Y108.684 E0.07279
G1 X104.515 Y110.054 E0.05321
G1 X105.780 Y111.150 E0.05246
G1 X107.216 Y111.919 E0.05110
G1 X108.803 Y112.365 E0.05168
G1 X111.195 Y112.365 E0.07500
G1 X112.780 Y111.921 E0.05161
G1 X113.751 Y111.398 E0.03457
G1 F8640.000
G1 X112.780 Y111.921 E-0.25460
G1 X111.195 Y112.365 E-0.38004
G1 X110.652 Y112.365 E-0.12536
G1 E-0.04000 F2100.00000
G1 Z0.800 F10800.000
G1 X114.812 Y110.640
G1 Z0.200
G1 E0.80000 F2100.00000
G1 F1200.000
G1 X115.485 Y110.054 E0.02799
G1 X116.464 Y108.726 E0.05174
G1 X117.298 Y106.551 E0.07305
G1 X117.339 Y106.288 E0.00833
G1 X117.662 Y106.288 E0.01014
G1 X117.703 Y106.555 E0.00847
G1 X118.537 Y108.728 E0.07298
G1 X119.515 Y110.054 E0.05165
G1 X120.183 Y110.636 E0.02776
G1 F8640.000
G1 X119.515 Y110.054 E-0.20442
G1 X118.537 Y108.728 E-0.38040
G1 X118.265 Y108.020 E-0.17518
G1 E-0.04000 F2100.00000
G1 Z0.800 F10800.000
G1 X121.259 Y111.403
G1 Z0.200
G1 E0.80000 F2100.00000
G1 F1200.000
G1 X122.217 Y111.919 E0.03411
G1 X123.803 Y112.365 E0.05167
G1 X126.195 Y112.365 E0.07500
G1 X127.780 Y111.921 E0.05161
G1 X128.738 Y111.408 E0.03405
G1 F8640.000
G1 X127.780 Y111.921 E-0.25077
G1 X126.195 Y112.365 E-0.38010
G1 X125.636 Y112.365 E-0.12913
G1 E-0.04000 F2100.00000
G1 Z0.800 F10800.000
G1 X129.823 Y110.627
G1 Z0.200
G1 E0.80000 F2100.00000
G1 F1200.000
G1 X130.485 Y110.054 E0.02743
G1 X131.488 Y108.682 E0.05331
G1 X132.298 Y106.551 E0.07148
G1 X132.339 Y106.288 E0.00834
G1 X132.662 Y106.288 E0.01014
G1 X132.703 Y106.555 E0.00847
G1 X133.537 Y108.728 E0.07298
G1 X134.515 Y110.054 E0.05165
G1 X135.167 Y110.622 E0.02712
G1 F8640.000
G1 X134.515 Y110.054 E-0.19969
G1 X133.537 Y108.728 E-0.38040
G1 X133.258 Y108.001 E-0.17991
G1 E-0.04000 F2100.00000
G1 Z0.800 F10800.000
G1 X136.279 Y111.414
G1 Z0.200
G1 E0.80000 F2100.00000
G1 F1200.000
G1 X137.217 Y111.919 E0.03342
G1 X138.803 Y112.365 E0.05167
G1 X141.195 Y112.365 E0.07500
G1 X142.780 Y111.921 E0.05161
G1 X144.218 Y111.152 E0.05111
G1 X145.513 Y110.024 E0.05384
G1 X146.488 Y108.682 E0.05201
G1 X147.296 Y106.555 E0.07133
G1 X147.458 Y104.980 E0.04967
G1 X147.296 Y103.442 E0.04849
G1 X146.486 Y101.314 E0.07139
G1 X145.479 Y99.940 E0.05338
G1 X144.176 Y98.820 E0.05387
G1 X142.733 Y98.060 E0.05115
G1 X141.136 Y97.627 E0.05187
G1 X138.805 Y97.635 E0.07309
G1 X137.230 Y98.075 E0.05126
G1 X136.275 Y98.583 E0.03393
G1 F8640.000
G1 X137.230 Y98.075 E-0.24987
G1 X138.805 Y97.635 E-0.37752
G1 X139.379 Y97.633 E-0.13261
G1 E-0.04000 F2100.00000
G1 Z0.800 F10800.000
G1 X135.249 Y99.345
G1 Z0.200
G1 E0.80000 F2100.00000
G1 F1200.000
G1 X134.205 Y100.302 E0.04443
G1 X133.245 Y101.837 E0.05675
G1 X132.697 Y103.477 E0.05423
G1 X132.662 Y103.710 E0.00738
G1 X132.338 Y103.710 E0.01014
G1 X132.297 Y103.446 E0.00838
G1 X131.486 Y101.314 E0.07153
G1 X130.451 Y99.910 E0.05469
G1 X129.799 Y99.353 E0.02688
G1 F8640.000
G1 X130.451 Y99.910 E-0.19797
G1 X131.486 Y101.314 E-0.40279
G1 X131.731 Y101.958 E-0.15924
G1 E-0.04000 F2100.00000
G1 Z0.800 F10800.000
G1 X128.726 Y98.583
G1 Z0.200
G1 E0.80000 F2100.00000
G1 F1200.000
G1 X127.733 Y98.060 E0.03519
G1 X126.136 Y97.627 E0.05187
G1 X123.805 Y97.635 E0.07309
G1 X122.230 Y98.075 E0.05126
G1 X121.274 Y98.583 E0.03395
G1 F8640.000
G1 X122.230 Y98.075 E-0.25005
G1 X123.805 Y97.635 E-0.37752
G1 X124.379 Y97.633 E-0.13243
G1 E-0.04000 F2100.00000
G1 Z0.800 F10800.000
G1 X120.225 Y99.367
G1 Z0.200
G1 E0.80000 F2100.00000
G1 F1200.000
G1 X119.205 Y100.302 E0.04340
G1 X118.245 Y101.837 E0.05675
G1 X117.697 Y103.477 E0.05423
G1 X117.662 Y103.710 E0.00738
G1 X117.338 Y103.710 E0.01014
G1 X117.297 Y103.446 E0.00837
G1 X116.461 Y101.269 E0.07312
G1 X115.480 Y99.940 E0.05180
G1 X114.825 Y99.375 E0.02713
G1 X114.251 Y99.375 F10800.000
G1 F1200.000
G1 X115.189 Y100.182 E0.03878
G1 X116.142 Y101.472 E0.05031
G1 X116.934 Y103.552 E0.06978
G1 X117.081 Y104.998 E0.04558
G1 X116.935 Y106.445 E0.04558
G1 X116.145 Y108.524 E0.06974
G1 X115.221 Y109.784 E0.04898
G1 X114.237 Y110.641 E0.04092
G1 F8640.000
G1 X115.221 Y109.784 E-0.30136
G1 X116.145 Y108.524 E-0.36070
G1 X116.295 Y108.127 E-0.09794
G1 E-0.04000 F2100.00000
G1 Z0.800 F10800.000
G1 X112.959 Y111.397
G1 Z0.200
G1 E0.80000 F2100.00000
G1 F1200.000
