; generated by PrusaSlicer 2.2.0+linux-x64 on 2020-10-28 at 08:21:23 UTC

; 

; external perimeters extrusion width = 0.60mm
; perimeters extrusion width = 0.50mm
; infill extrusion width = 0.50mm
; solid infill extrusion width = 0.50mm
; top infill extrusion width = 0.45mm
; first layer extrusion width = 0.42mm

M73 P0 R6
M73 Q0 S6
M201 X1000 Y1000 Z200 E5000 ; sets maximum accelerations, mm/sec^2
M203 X200 Y200 Z12 E120 ; sets maximum feedrates, mm/sec
M204 P1250 R1250 T1250 ; sets acceleration (P, T) and retract acceleration (R), mm/sec^2
M205 X8.00 Y8.00 Z0.40 E4.50 ; sets the jerk limits, mm/sec
M205 S0 T0 ; sets the minimum extruding and travel feed rate, mm/sec
M107
M862.3 P "MK3S" ; printer model check
M862.1 P0.4 ; nozzle diameter check
M115 U3.9.1 ; tell printer latest fw version
G90 ; use absolute coordinates
M83 ; extruder relative mode
M104 S215 ; set extruder temp
M140 S60 ; set bed temp
M190 S60 ; wait for bed temp
M109 S215 ; wait for extruder temp
G28 W ; home all without mesh bed level
G80 ; mesh bed leveling
G1 Y-3.0 F1000.0 ; go outside print area
G92 E0.0
G1 X60.0 E9.0 F1000.0 ; intro line
M73 Q1 S6
M73 P1 R6
G1 X100.0 E12.5 F1000.0 ; intro line
G92 E0.0
M221 S95

; Don't change E values below. Excessive value can damage the printer.

M907 E538 ; set extruder motor current
G21 ; set units to millimeters
G90 ; use absolute coordinates
M83 ; use relative distances for extrusion
M900 K0.05 ; Filament gcode LA 1.5
M900 K30 ; Filament gcode LA 1.0
;BEFORE_LAYER_CHANGE
G92 E0.0
;0.2


G1 E-0.80000 F2100.00000
G1 Z0.600 F10800.000
;AFTER_LAYER_CHANGE
;0.2
G1 X112.227 Y99.445
G1 Z0.200
G1 E0.80000 F2100.00000
M204 S1000
G1 F1200.000
G1 X112.679 Y98.934 E0.02141
G1 X113.244 Y98.549 E0.02141
G1 X113.838 Y98.327 E0.01988
G1 X114.462 Y98.246 E0.01975
G1 X135.504 Y98.246 E0.65975
G1 X136.494 Y98.431 E0.03157
G1 X137.354 Y98.963 E0.03170
G1 X137.964 Y99.769 E0.03170
G1 X138.242 Y100.741 E0.03170
G1 X138.228 Y109.380 E0.27086
G1 X138.060 Y110.017 E0.02065
G1 X137.745 Y110.595 E0.02065
G1 X137.302 Y111.083 E0.02065
G1 X136.756 Y111.451 E0.02065
G1 X136.162 Y111.673 E0.01988
G1 X135.538 Y111.754 E0.01975
G1 X114.365 Y111.751 E0.66386
G1 X113.657 Y111.622 E0.02256
G1 X113.007 Y111.314 E0.02256
G1 X112.458 Y110.848 E0.02256
G1 X112.049 Y110.256 E0.02256
G1 X111.833 Y109.686 E0.01912
G1 X111.747 Y109.083 E0.01912
G1 X111.760 Y100.722 E0.26215
G1 X111.914 Y100.052 E0.02154
G1 X112.199 Y99.498 E0.01953
G1 X112.533 Y99.671 F10800.000
G1 F1200.000
G1 X112.944 Y99.203 E0.01954
G1 X113.447 Y98.869 E0.01894
G1 X113.948 Y98.688 E0.01668
G1 X114.472 Y98.623 E0.01657
G1 X135.504 Y98.623 E0.65943
G1 X136.367 Y98.787 E0.02755
G1 X137.109 Y99.250 E0.02743
G1 X137.635 Y99.954 E0.02755
G1 X137.869 Y100.801 E0.02755
G1 X137.858 Y109.300 E0.26648
G1 X137.713 Y109.867 E0.01835
G1 X137.437 Y110.378 E0.01823
G1 X137.041 Y110.810 E0.01835
G1 X136.553 Y111.131 E0.01835
G1 X136.052 Y111.312 E0.01668
G1 X135.524 Y111.377 E0.01668
G1 X114.393 Y111.375 E0.66253
G1 X113.769 Y111.262 E0.01989
G1 X113.200 Y110.990 E0.01977
G1 X112.723 Y110.579 E0.01977
G1 X112.369 Y110.053 E0.01989
G1 X112.192 Y109.571 E0.01609
G1 X112.124 Y109.062 E0.01609
G1 X112.134 Y100.772 E0.25993
G1 X112.268 Y100.183 E0.01894
G1 X112.505 Y99.724 E0.01619
G1 F8640.000
G1 X112.944 Y99.203 E-0.15740
G1 X113.447 Y98.869 E-0.13946
G1 X113.948 Y98.688 E-0.12287
G1 X114.472 Y98.623 E-0.12200
G1 X115.418 Y98.623 E-0.21827
G1 E-0.04000 F2100.00000
G1 Z0.800 F10800.000
G1 X123.470 Y103.934
G1 Z0.200
G1 E0.80000 F2100.00000
G1 F1200.000
G1 X123.784 Y103.480 E0.01733
G1 X124.198 Y103.113 E0.01733
G1 X124.687 Y102.856 E0.01733
G1 X125.224 Y102.724 E0.01733
G1 X125.776 Y102.724 E0.01733
G1 X126.313 Y102.856 E0.01733
G1 X126.802 Y103.113 E0.01733
G1 X127.216 Y103.480 E0.01733
G1 X127.530 Y103.934 E0.01733
G1 X127.726 Y104.451 E0.01733
G1 X127.793 Y105.000 E0.01733
G1 X127.726 Y105.549 E0.01733
G1 X127.530 Y106.066 E0.01733
G1 X127.216 Y106.520 E0.01733
G1 X126.802 Y106.887 E0.01733
G1 X126.313 Y107.144 E0.01733
G1 X125.776 Y107.276 E0.01733
G1 X125.224 Y107.276 E0.01733
G1 X124.687 Y107.144 E0.01733
G1 X124.198 Y106.887 E0.01733
G1 X123.784 Y106.520 E0.01733
G1 X123.470 Y106.066 E0.01733
G1 X123.274 Y105.549 E0.01733
G1 X123.207 Y105.000 E0.01733
G1 X123.274 Y104.451 E0.01733
G1 X123.448 Y103.991 E0.01545
G1 X123.801 Y104.124 F10800.000
G1 F1200.000
G1 X124.068 Y103.731 E0.01489
G1 X124.413 Y103.426 E0.01446
G1 X124.822 Y103.211 E0.01446
G1 X125.269 Y103.101 E0.01446
G1 X125.731 Y103.101 E0.01446
G1 X126.178 Y103.211 E0.01446
G1 X126.587 Y103.426 E0.01446
G1 X126.932 Y103.731 E0.01446
G1 X127.194 Y104.111 E0.01446
G1 X127.357 Y104.542 E0.01446
G1 X127.413 Y105.000 E0.01446
G1 X127.357 Y105.458 E0.01446
G1 X127.194 Y105.889 E0.01446
G1 X126.932 Y106.269 E0.01446
G1 X126.587 Y106.574 E0.01446
G1 X126.178 Y106.789 E0.01446
G1 X125.731 Y106.899 E0.01446
G1 X125.269 Y106.899 E0.01446
G1 X124.822 Y106.789 E0.01446
G1 X124.413 Y106.574 E0.01446
G1 X124.068 Y106.269 E0.01446
G1 X123.806 Y105.889 E0.01446
G1 X123.643 Y105.458 E0.01446
G1 X123.587 Y105.000 E0.01446
G1 X123.643 Y104.542 E0.01446
G1 X123.780 Y104.180 E0.01213
G1 X123.585 Y103.787 F10800.000
G1 F8640.000
G1 X124.068 Y103.731 E-0.12319
G1 X124.413 Y103.426 E-0.10649
G1 X124.822 Y103.211 E-0.10649
G1 X125.269 Y103.101 E-0.10649
G1 X125.731 Y103.101 E-0.10649
G1 X126.178 Y103.211 E-0.10649
G1 X126.579 Y103.421 E-0.10437
G1 E-0.04000 F2100.00000
G1 Z0.800 F10800.000
G1 X120.726 Y104.451
G1 Z0.200
G1 E0.80000 F2100.00000
G1 F1200.000
G1 X120.793 Y105.000 E0.01733
G1 X120.726 Y105.549 E0.01733
G1 X120.530 Y106.066 E0.01733
G1 X120.216 Y106.520 E0.01733
G1 X119.802 Y106.887 E0.01733
G1 X119.313 Y107.144 E0.01733
G1 X118.776 Y107.276 E0.01733
G1 X118.224 Y107.276 E0.01733
G1 X117.687 Y107.144 E0.01733
G1 X117.198 Y106.887 E0.01733
G1 X116.784 Y106.520 E0.01733
G1 X116.470 Y106.066 E0.01733
G1 X116.274 Y105.549 E0.01733
G1 X116.207 Y105.000 E0.01733
G1 X116.274 Y104.451 E0.01733
G1 X116.470 Y103.934 E0.01733
G1 X116.784 Y103.480 E0.01733
G1 X117.198 Y103.113 E0.01733
G1 X117.687 Y102.856 E0.01733
G1 X118.224 Y102.724 E0.01733
G1 X118.776 Y102.724 E0.01733
G1 X119.313 Y102.856 E0.01733
G1 X119.802 Y103.113 E0.01733
G1 X120.216 Y103.480 E0.01733
G1 X120.530 Y103.934 E0.01733
G1 X120.705 Y104.395 E0.01545
G1 X120.352 Y104.529 F10800.000
G1 F1200.000
G1 X120.413 Y105.000 E0.01489
G1 X120.357 Y105.458 E0.01446
G1 X120.194 Y105.889 E0.01446
G1 X119.932 Y106.269 E0.01446
G1 X119.587 Y106.574 E0.01446
G1 X119.178 Y106.789 E0.01446
G1 X118.731 Y106.899 E0.01446
G1 X118.269 Y106.899 E0.01446
G1 X117.822 Y106.789 E0.01446
G1 X117.413 Y106.574 E0.01446
G1 X117.068 Y106.269 E0.01446
G1 X116.806 Y105.889 E0.01446
G1 X116.643 Y105.458 E0.01446
G1 X116.587 Y105.000 E0.01446
G1 X116.643 Y104.542 E0.01446
G1 X116.806 Y104.111 E0.01446
G1 X117.068 Y103.731 E0.01446
G1 X117.413 Y103.426 E0.01446
G1 X117.822 Y103.211 E0.01446
G1 X118.269 Y103.101 E0.01446
G1 X118.731 Y103.101 E0.01446
G1 X119.178 Y103.211 E0.01446
G1 X119.587 Y103.426 E0.01446
G1 X119.932 Y103.731 E0.01446
G1 X120.194 Y104.111 E0.01446
G1 X120.331 Y104.473 E0.01213
G1 X120.737 Y104.638 F10800.000
G1 F8640.000
G1 X120.413 Y105.000 E-0.12319
G1 X120.357 Y105.458 E-0.10649
G1 X120.194 Y105.889 E-0.10649
G1 X119.932 Y106.269 E-0.10649
G1 X119.587 Y106.574 E-0.10649
G1 X119.178 Y106.789 E-0.10649
G1 X118.739 Y106.897 E-0.10437
G1 E-0.04000 F2100.00000
G1 Z0.800 F10800.000
G1 X130.369 Y104.480
G1 Z0.200
G1 E0.80000 F2100.00000
G1 F1200.000
G1 X130.558 Y103.981 E0.01675
G1 X130.859 Y103.546 E0.01658
G1 X131.254 Y103.195 E0.01658
G1 X131.688 Y102.967 E0.01537
G1 X132.230 Y102.823 E0.01757
G1 X132.764 Y102.823 E0.01675
G1 X133.278 Y102.950 E0.01658
G1 X133.746 Y103.195 E0.01658
G1 X134.141 Y103.546 E0.01658
G1 X134.442 Y103.981 E0.01658
G1 X134.629 Y104.475 E0.01658
G1 X134.693 Y105.000 E0.01658
G1 X134.629 Y105.525 E0.01658
G1 X134.442 Y106.019 E0.01658
G1 X134.141 Y106.454 E0.01658
G1 X133.746 Y106.805 E0.01658
G1 X133.278 Y107.050 E0.01658
G1 X132.764 Y107.177 E0.01658
G1 X132.236 Y107.177 E0.01658
G1 X131.722 Y107.050 E0.01658
G1 X131.254 Y106.805 E0.01658
G1 X130.859 Y106.454 E0.01658
G1 X130.558 Y106.019 E0.01658
G1 X130.371 Y105.525 E0.01658
G1 X130.312 Y105.038 E0.01537
G1 X130.363 Y104.540 E0.01569
G1 X130.738 Y104.579 F10800.000
G1 F1200.000
G1 X130.895 Y104.157 E0.01409
G1 X131.143 Y103.798 E0.01370
G1 X131.470 Y103.508 E0.01370
G1 X131.826 Y103.321 E0.01262
G1 X132.279 Y103.200 E0.01470
G1 X132.719 Y103.200 E0.01377
G1 X133.143 Y103.305 E0.01370
G1 X133.530 Y103.508 E0.01370
G1 X133.857 Y103.798 E0.01370
G1 X134.105 Y104.157 E0.01370
G1 X134.260 Y104.566 E0.01370
G1 X134.313 Y105.000 E0.01370
G1 X134.260 Y105.434 E0.01370
G1 X134.105 Y105.843 E0.01370
G1 X133.857 Y106.202 E0.01370
G1 X133.530 Y106.492 E0.01370
G1 X133.143 Y106.695 E0.01370
G1 X132.719 Y106.800 E0.01370
G1 X132.281 Y106.800 E0.01370
G1 X131.857 Y106.695 E0.01370
G1 X131.470 Y106.492 E0.01370
G1 X131.143 Y106.202 E0.01370
G1 X130.895 Y105.843 E0.01370
G1 X130.740 Y105.434 E0.01370
G1 X130.691 Y105.034 E0.01262
G1 X130.732 Y104.638 E0.01249
G1 X130.448 Y104.303 F10800.000
G1 F8640.000
G1 X130.895 Y104.157 E-0.11722
G1 X131.143 Y103.798 E-0.10092
G1 X131.470 Y103.508 E-0.10092
G1 X131.826 Y103.321 E-0.09291
G1 X132.279 Y103.200 E-0.10827
G1 X132.719 Y103.200 E-0.10138
G1 X133.143 Y103.305 E-0.10092
G1 X133.287 Y103.380 E-0.03746
G1 E-0.04000 F2100.00000
G1 Z0.800 F10800.000
G1 X134.713 Y101.787
G1 Z0.200
G1 E0.80000 F2100.00000
G1 F1200.000
G1 X134.713 Y108.213 E0.20148
G1 X115.287 Y108.213 E0.60908
G1 X115.287 Y101.787 E0.20148
G1 X134.653 Y101.787 E0.60720
G1 X135.090 Y101.410 F10800.000
G1 F1200.000
G1 X135.090 Y108.590 E0.22512
G1 X114.910 Y108.590 E0.63273
G1 X114.910 Y101.410 E0.22512
G1 X135.030 Y101.410 E0.63085
G1 X134.931 Y101.777 F10800.000
G1 F8640.000
G1 X135.058 Y104.701 E-0.76000
G1 E-0.04000 F2100.00000
G1 Z0.800 F10800.000
G1 X134.600 Y102.676
G1 Z0.200
G1 E0.80000 F2100.00000
G1 F1200.000
G1 X133.994 Y102.070 E0.02730
G1 X133.452 Y102.070 E0.01727
G1 X134.430 Y103.048 E0.04408
G1 X134.430 Y103.158 E0.00351
G1 X134.280 Y103.291 E0.00639
G1 X133.908 Y102.961 E0.01586
G1 X133.683 Y102.843 E0.00806
G1 X132.910 Y102.070 E0.03486
G1 X132.368 Y102.070 E0.01727
G1 X132.852 Y102.553 E0.02179
G1 X132.297 Y102.540 E0.01769
G1 X131.826 Y102.070 E0.02120
G1 X131.284 Y102.070 E0.01727
G1 X131.847 Y102.633 E0.02536
G1 X131.585 Y102.702 E0.00863
G1 X131.447 Y102.775 E0.00497
G1 X130.742 Y102.070 E0.03177
G1 X130.200 Y102.070 E0.01727
G1 X131.092 Y102.962 E0.04019
G1 X130.804 Y103.216 E0.01224
G1 X129.658 Y102.070 E0.05166
G1 X129.116 Y102.070 E0.01727
G1 X130.546 Y103.500 E0.06447
G1 X130.325 Y103.821 E0.01242
G1 X128.574 Y102.070 E0.07892
G1 X128.032 Y102.070 E0.01727
G1 X130.170 Y104.208 E0.09635
G1 X130.091 Y104.415 E0.00706
G1 X130.067 Y104.647 E0.00745
G1 X127.490 Y102.070 E0.11617
G1 X126.948 Y102.070 E0.01727
G1 X130.042 Y105.164 E0.13945
G1 X130.094 Y105.593 E0.01377
G1 X130.195 Y105.859 E0.00907
G1 X126.406 Y102.070 E0.17078
G1 X125.864 Y102.070 E0.01727
G1 X126.374 Y102.580 E0.02298
G1 X125.811 Y102.441 E0.01849
G1 X125.693 Y102.441 E0.00375
G1 X125.322 Y102.070 E0.01673
G1 X124.780 Y102.070 E0.01727
G1 X125.159 Y102.449 E0.01707
G1 X124.724 Y102.556 E0.01427
G1 X124.238 Y102.070 E0.02190
G1 X123.696 Y102.070 E0.01727
G1 X124.343 Y102.717 E0.02917
G1 X123.997 Y102.913 E0.01268
G1 X123.154 Y102.070 E0.03800
G1 X122.612 Y102.070 E0.01727
G1 X123.709 Y103.168 E0.04947
G1 X123.571 Y103.291 E0.00592
G1 X123.456 Y103.456 E0.00641
G1 X122.070 Y102.070 E0.06248
G1 X121.528 Y102.070 E0.01727
G1 X123.235 Y103.777 E0.07693
G1 X123.080 Y104.164 E0.01329
G1 X120.986 Y102.070 E0.09439
G1 X120.444 Y102.070 E0.01727
G1 X122.971 Y104.597 E0.11391
G1 X122.922 Y105.000 E0.01293
G1 X122.935 Y105.103 E0.00330
G1 X119.902 Y102.070 E0.13669
G1 X119.360 Y102.070 E0.01727
G1 X123.052 Y105.763 E0.16642
G1 X123.218 Y106.198 E0.01484
G1 X123.571 Y106.709 E0.01980
G1 X124.036 Y107.121 E0.01980
G1 X124.586 Y107.410 E0.01980
G1 X124.737 Y107.448 E0.00497
G1 X125.220 Y107.930 E0.02175
G1 X125.762 Y107.930 E0.01727
G1 X125.391 Y107.559 E0.01673
G1 X125.811 Y107.559 E0.01338
G1 X125.909 Y107.535 E0.00322
G1 X126.304 Y107.930 E0.01782
G1 X126.846 Y107.930 E0.01727
G1 X126.344 Y107.428 E0.02265
G1 X126.414 Y107.410 E0.00232
G1 X126.712 Y107.254 E0.01072
G1 X127.388 Y107.930 E0.03047
G1 X127.930 Y107.930 E0.01727
G1 X127.048 Y107.048 E0.03977
G1 X127.335 Y106.793 E0.01224
G1 X128.472 Y107.930 E0.05125
G1 X129.014 Y107.930 E0.01727
G1 X127.578 Y106.494 E0.06472
G1 X127.794 Y106.168 E0.01246
G1 X129.556 Y107.930 E0.07942
G1 X130.098 Y107.930 E0.01727
G1 X127.943 Y105.775 E0.09713
G1 X128.003 Y105.617 E0.00539
G1 X128.038 Y105.328 E0.00928
G1 X130.640 Y107.930 E0.11728
G1 X131.182 Y107.930 E0.01727
G1 X128.054 Y104.802 E0.14100
G1 X128.003 Y104.383 E0.01344
G1 X127.896 Y104.102 E0.00957
G1 X131.724 Y107.930 E0.17251
G1 X132.266 Y107.930 E0.01727
G1 X131.663 Y107.327 E0.02718
G1 X132.201 Y107.460 E0.01767
G1 X132.338 Y107.460 E0.00435
G1 X132.808 Y107.930 E0.02120
G1 X133.350 Y107.930 E0.01727
G1 X132.864 Y107.444 E0.02193
G1 X133.299 Y107.336 E0.01427
G1 X133.892 Y107.930 E0.02676
G1 X134.430 Y107.930 E0.01714
G1 X133.669 Y107.165 E0.03441
G1 X133.908 Y107.039 E0.00860
G1 X134.002 Y106.956 E0.00401
G1 X134.600 Y107.554 E0.02695
G1 F8640.000
G1 X134.002 Y106.956 E-0.19529
G1 X133.908 Y107.039 E-0.02907
G1 X133.669 Y107.165 E-0.06230
G1 X134.430 Y107.930 E-0.24934
G1 X133.892 Y107.930 E-0.12420
G1 X133.587 Y107.624 E-0.09980
G1 E-0.04000 F2100.00000
G1 Z0.800 F10800.000
G1 X134.405 Y106.442
G1 Z0.200
G1 E0.80000 F2100.00000
G1 F1200.000
G1 X134.487 Y106.350 E0.00076
G1 X134.507 Y106.288 E0.00040
G1 F8640.000
G1 X134.487 Y106.350 E-0.01501
G1 X134.405 Y106.442 E-0.02850
G1 E-0.75649 F2100.00000
G1 Z0.800 F10800.000
G1 X134.507 Y103.712
G1 Z0.200
G1 E0.80000 F2100.00000
G1 F1200.000
G1 X134.487 Y103.650 E0.00040
G1 X134.405 Y103.558 E0.00076
G1 F8640.000
G1 X134.487 Y103.650 E-0.02850
G1 X134.507 Y103.712 E-0.01501
G1 E-0.75649 F2100.00000
G1 Z0.800 F10800.000
G1 X124.848 Y108.100
G1 Z0.200
G1 E0.80000 F2100.00000
G1 F1200.000
G1 X120.925 Y104.177 E0.17681
G1 X121.003 Y104.383 E0.00704
G1 X121.060 Y104.854 E0.01512
G1 X124.136 Y107.930 E0.13863
G1 X123.594 Y107.930 E0.01727
G1 X121.033 Y105.369 E0.11542
G1 X121.003 Y105.617 E0.00796
G1 X120.930 Y105.808 E0.00653
G1 X123.052 Y107.930 E0.09562
G1 X122.510 Y107.930 E0.01727
G1 X120.781 Y106.201 E0.07794
G1 X120.559 Y106.521 E0.01242
G1 X121.968 Y107.930 E0.06349
G1 X121.426 Y107.930 E0.01727
G1 X120.311 Y106.815 E0.05027
G1 X120.023 Y107.069 E0.01224
G1 X120.884 Y107.930 E0.03879
G1 X120.342 Y107.930 E0.01727
G1 X119.682 Y107.270 E0.02976
G1 X119.414 Y107.410 E0.00963
G1 X119.306 Y107.437 E0.00353
G1 X119.800 Y107.930 E0.02224
G1 X119.258 Y107.930 E0.01727
G1 X118.872 Y107.544 E0.01741
G1 X118.811 Y107.559 E0.00200
G1 X118.345 Y107.559 E0.01485
G1 X118.716 Y107.930 E0.01673
G1 X118.174 Y107.930 E0.01727
G1 X117.676 Y107.432 E0.02243
G1 X117.586 Y107.410 E0.00296
G1 X117.036 Y107.121 E0.01980
G1 X116.571 Y106.709 E0.01980
G1 X116.218 Y106.198 E0.01980
G1 X116.081 Y105.837 E0.01231
G1 X115.570 Y105.326 E0.02302
G1 X115.570 Y105.868 E0.01727
G1 X117.632 Y107.930 E0.09293
G1 X117.090 Y107.930 E0.01727
G1 X115.570 Y106.410 E0.06850
G1 X115.570 Y106.952 E0.01727
G1 X116.548 Y107.930 E0.04407
G1 X116.006 Y107.930 E0.01727
G1 X115.400 Y107.325 E0.02729
G1 F8640.000
G1 X116.006 Y107.930 E-0.19775
G1 X116.548 Y107.930 E-0.12515
G1 X115.570 Y106.952 E-0.31934
G1 X115.570 Y106.442 E-0.11776
G1 E-0.04000 F2100.00000
G1 Z0.800 F10800.000
G1 X116.136 Y105.350
G1 Z0.200
G1 E0.80000 F2100.00000
G1 F1200.000
G1 X115.570 Y104.784 E0.02550
G1 X115.570 Y104.242 E0.01727
G1 X115.966 Y104.638 E0.01786
G1 X115.997 Y104.383 E0.00820
G1 X116.067 Y104.198 E0.00632
G1 X115.570 Y103.700 E0.02243
G1 X115.570 Y103.158 E0.01727
G1 X116.217 Y103.805 E0.02914
G1 X116.437 Y103.484 E0.01242
G1 X115.570 Y102.616 E0.03910
