; generated by PrusaSlicer 2.2.0+linux-x64 on 2020-11-04 at 19:05:42 UTC

; 

; external perimeters extrusion width = 0.45mm
; perimeters extrusion width = 0.45mm
; infill extrusion width = 0.45mm
; solid infill extrusion width = 0.45mm
; top infill extrusion width = 0.40mm
; first layer extrusion width = 0.42mm

M73 P0 R7
M73 Q0 S7
M201 X1000 Y1000 Z200 E5000 ; sets maximum accelerations, mm/sec^2
M203 X200 Y200 Z12 E120 ; sets maximum feedrates, mm/sec
M204 P1250 R1250 T1250 ; sets acceleration (P, T) and retract acceleration (R), mm/sec^2
M205 X8.00 Y8.00 Z0.40 E4.50 ; sets the jerk limits, mm/sec
M205 S0 T0 ; sets the minimum extruding and travel feed rate, mm/sec
M107
M862.3 P "MK3S" ; printer model check
M862.1 P0.4 ; nozzle diameter check
M115 U3.9.1 ; tell printer latest fw version
G90 ; use absolute coordinates
M83 ; extruder relative mode
M104 S215 ; set extruder temp
M140 S60 ; set bed temp
M190 S60 ; wait for bed temp
M109 S215 ; wait for extruder temp
G28 W ; home all without mesh bed level
G80 ; mesh bed leveling
G1 Y-3.0 F1000.0 ; go outside print area
G92 E0.0
G1 X60.0 E9.0 F1000.0 ; intro line
M73 Q0 S7
M73 P0 R7
G1 X100.0 E12.5 F1000.0 ; intro line
G92 E0.0
M221 S95

; Don't change E values below. Excessive value can damage the printer.
M907 E430 ; set extruder motor current
G21 ; set units to millimeters
G90 ; use absolute coordinates
M83 ; use relative distances for extrusion
M900 K0.05 ; Filament gcode LA 1.5
M900 K30 ; Filament gcode LA 1.0
;BEFORE_LAYER_CHANGE
G92 E0.0
;0.2


G1 E-0.80000 F2100.00000
G1 Z0.600 F10800.000
;AFTER_LAYER_CHANGE
;0.2
G1 X118.917 Y100.599
G1 Z0.200
G1 E0.80000 F2100.00000
M204 S1000
G1 F900
G1 X119.944 Y99.449 E0.04835
G1 X121.220 Y98.513 E0.04963
G1 X122.588 Y97.891 E0.04712
G1 X124.117 Y97.545 E0.04914
G1 X125.423 Y97.514 E0.04096
G1 X126.966 Y97.764 E0.04901
G1 X127.660 Y97.989 E0.02288
G1 X128.895 Y98.583 E0.04298
G1 X130.266 Y99.660 E0.05465
G1 X131.130 Y100.667 E0.04161
G1 X131.912 Y102.071 E0.05039
G1 X132.363 Y103.532 E0.04795
G1 X132.498 Y105.250 E0.05402
G1 X132.330 Y106.626 E0.04345
G1 X131.833 Y108.111 E0.04911
G1 X131.062 Y109.430 E0.04792
G1 X130.001 Y110.600 E0.04950
G1 X128.752 Y111.504 E0.04835
G1 X127.341 Y112.133 E0.04842
G1 X125.814 Y112.464 E0.04900
G1 X124.323 Y112.477 E0.04676
G1 X122.730 Y112.157 E0.05095
G1 X121.344 Y111.557 E0.04733
G1 X120.053 Y110.647 E0.04952
G1 X119.176 Y109.721 E0.04000
G1 X118.729 Y109.112 E0.02369
G1 X118.017 Y107.737 E0.04854
G1 X117.629 Y106.423 E0.04297
G1 X117.501 Y104.742 E0.05287
G1 X117.668 Y103.382 E0.04296
G1 X118.158 Y101.910 E0.04864
G1 X118.887 Y100.651 E0.04561
G1 X119.212 Y100.839 F10800.000
G1 F900
G1 X120.202 Y99.724 E0.04676
G1 X121.412 Y98.837 E0.04704
G1 X122.720 Y98.244 E0.04501
G1 X124.176 Y97.917 E0.04682
G1 X125.422 Y97.891 E0.03908
G1 X126.867 Y98.129 E0.04589
G1 X127.506 Y98.333 E0.02104
G1 X128.682 Y98.895 E0.04085
G1 X129.989 Y99.916 E0.05202
G1 X130.813 Y100.871 E0.03954
G1 X131.560 Y102.207 E0.04801
G1 X131.991 Y103.594 E0.04554
G1 X132.122 Y105.229 E0.05141
G1 X131.963 Y106.537 E0.04132
G1 X131.493 Y107.948 E0.04664
G1 X130.759 Y109.206 E0.04565
G1 X129.749 Y110.320 E0.04715
G1 X128.562 Y111.178 E0.04593
G1 X127.223 Y111.775 E0.04598
G1 X125.772 Y112.089 E0.04655
G1 X124.346 Y112.100 E0.04470
G1 X122.834 Y111.794 E0.04838
G1 X121.518 Y111.223 E0.04497
G1 X120.294 Y110.356 E0.04704
G1 X119.460 Y109.474 E0.03807
G1 X119.059 Y108.930 E0.02118
G1 X118.377 Y107.622 E0.04625
G1 X118.003 Y106.370 E0.04096
G1 X117.878 Y104.764 E0.05051
G1 X118.035 Y103.471 E0.04086
G1 X118.500 Y102.068 E0.04633
G1 X119.181 Y100.891 E0.04264
G1 X119.506 Y101.079 F10800.000
G1 F900
G1 X120.469 Y99.992 E0.04554
G1 X121.610 Y99.158 E0.04430
G1 X122.851 Y98.598 E0.04269
G1 X124.232 Y98.290 E0.04436
G1 X125.422 Y98.268 E0.03734
G1 X126.965 Y98.540 E0.04913
G1 X128.097 Y99.009 E0.03841
G1 X128.604 Y99.298 E0.01830
G1 X129.713 Y100.173 E0.04428
G1 X130.499 Y101.081 E0.03765
G1 X131.208 Y102.342 E0.04536
G1 X131.620 Y103.663 E0.04339
G1 X131.745 Y105.209 E0.04863
G1 X131.596 Y106.450 E0.03921
G1 X131.152 Y107.787 E0.04416
G1 X130.455 Y108.982 E0.04338
G1 X129.499 Y110.037 E0.04466
G1 X128.375 Y110.851 E0.04350
G1 X127.103 Y111.418 E0.04367
G1 X125.724 Y111.715 E0.04423
G1 X124.365 Y111.724 E0.04261
G1 X122.948 Y111.434 E0.04533
G1 X121.689 Y110.886 E0.04308
G1 X120.533 Y110.065 E0.04443
G1 X119.741 Y109.222 E0.03627
G1 X119.384 Y108.738 E0.01886
G1 X118.733 Y107.499 E0.04387
G1 X118.375 Y106.311 E0.03891
G1 X118.254 Y104.785 E0.04799
G1 X118.402 Y103.557 E0.03878
G1 X118.843 Y102.225 E0.04400
G1 X119.476 Y101.131 E0.03963
G1 X119.801 Y101.319 F10800.000
G1 F900
G1 X119.835 Y101.261 E0.00211
G1 X120.725 Y100.268 E0.04179
G1 X121.803 Y99.482 E0.04183
G1 X122.982 Y98.952 E0.04055
G1 X124.287 Y98.663 E0.04189
G1 X125.422 Y98.645 E0.03560
G1 X126.875 Y98.907 E0.04630
G1 X127.948 Y99.356 E0.03646
G1 X128.386 Y99.606 E0.01581
G1 X129.436 Y100.429 E0.04183
G1 X130.185 Y101.289 E0.03575
G1 X130.856 Y102.478 E0.04283
G1 X131.248 Y103.725 E0.04097
G1 X131.369 Y105.186 E0.04595
G1 X131.230 Y106.361 E0.03712
G1 X130.811 Y107.627 E0.04181
G1 X130.153 Y108.757 E0.04097
G1 X129.248 Y109.756 E0.04228
G1 X128.186 Y110.524 E0.04109
G1 X126.982 Y111.061 E0.04134
G1 X125.679 Y111.341 E0.04178
G1 X124.388 Y111.347 E0.04049
G1 X123.056 Y111.073 E0.04265
G1 X121.866 Y110.553 E0.04071
G1 X120.773 Y109.774 E0.04207
G1 X120.023 Y108.972 E0.03446
G1 X119.710 Y108.548 E0.01650
G1 X119.091 Y107.379 E0.04149
G1 X118.747 Y106.250 E0.03700
G1 X118.631 Y104.805 E0.04543
G1 X118.769 Y103.643 E0.03672
G1 X119.184 Y102.384 E0.04154
G1 X119.771 Y101.371 E0.03671
G1 F8640.000
G1 X119.835 Y101.261 E-0.02943
G1 X120.725 Y100.268 E-0.30779
G1 X121.803 Y99.482 E-0.30803
G1 X122.256 Y99.278 E-0.11476
G1 E-0.04000 F2100.00000
G1 Z0.800 F10800.000
G1 X122.962 Y103.951
G1 Z0.200
G1 E0.80000 F2100.00000
G1 F900
G1 X123.295 Y103.469 E0.01838
G1 X123.683 Y103.125 E0.01625
G1 X124.170 Y102.864 E0.01732
G1 X124.742 Y102.723 E0.01846
G1 X125.293 Y102.728 E0.01728
G1 X125.793 Y102.851 E0.01616
G1 X126.310 Y103.119 E0.01825
G1 X126.722 Y103.488 E0.01733
G1 X127.033 Y103.941 E0.01723
G1 X127.227 Y104.455 E0.01723
G1 X127.289 Y104.970 E0.01626
G1 X127.217 Y105.574 E0.01910
G1 X127.033 Y106.060 E0.01627
G1 X126.720 Y106.515 E0.01732
G1 X126.282 Y106.898 E0.01824
G1 X125.826 Y107.137 E0.01615
G1 X125.295 Y107.272 E0.01717
G1 X124.745 Y107.277 E0.01726
G1 X124.205 Y107.149 E0.01740
G1 X123.686 Y106.877 E0.01838
G1 X123.298 Y106.533 E0.01625
G1 X122.981 Y106.084 E0.01723
G1 X122.781 Y105.569 E0.01732
G1 X122.709 Y105.021 E0.01732
G1 X122.770 Y104.472 E0.01732
G1 X122.942 Y104.008 E0.01552
G1 X123.295 Y104.138 F10800.000
G1 F900
G1 X123.580 Y103.721 E0.01583
G1 X123.901 Y103.437 E0.01344
G1 X124.307 Y103.219 E0.01445
G1 X124.786 Y103.101 E0.01548
G1 X125.246 Y103.104 E0.01441
G1 X125.660 Y103.206 E0.01337
G1 X126.094 Y103.432 E0.01536
G1 X126.437 Y103.738 E0.01441
G1 X126.696 Y104.116 E0.01438
G1 X126.858 Y104.545 E0.01438
G1 X126.909 Y104.970 E0.01341
G1 X126.848 Y105.484 E0.01623
G1 X126.696 Y105.884 E0.01341
G1 X126.436 Y106.263 E0.01441
G1 X126.067 Y106.585 E0.01535
G1 X125.690 Y106.783 E0.01337
G1 X125.246 Y106.896 E0.01435
G1 X124.787 Y106.899 E0.01440
G1 X124.338 Y106.793 E0.01448
G1 X123.901 Y106.564 E0.01546
G1 X123.581 Y106.280 E0.01344
G1 X123.316 Y105.904 E0.01442
G1 X123.148 Y105.475 E0.01445
G1 X123.089 Y105.018 E0.01445
G1 X123.140 Y104.560 E0.01445
G1 X123.275 Y104.194 E0.01221
G1 X123.079 Y103.802 F10800.000
G1 F8640.000
G1 X123.580 Y103.721 E-0.13009
G1 X123.901 Y103.437 E-0.09896
G1 X124.307 Y103.219 E-0.10640
G1 X124.786 Y103.101 E-0.11403
G1 X125.246 Y103.104 E-0.10609
G1 X125.660 Y103.206 E-0.09846
G1 X126.067 Y103.418 E-0.10596
G1 E-0.04000 F2100.00000
G1 Z0.800 F10800.000
G1 X122.069 Y103.695
G1 Z0.200
G1 E0.80000 F2100.00000
G1 F900
G1 X122.404 Y103.114 E0.02103
G1 X122.850 Y102.618 E0.02091
G1 X123.398 Y102.220 E0.02121
G1 X124.008 Y101.948 E0.02096
G1 X124.665 Y101.809 E0.02103
G1 X125.335 Y101.809 E0.02103
G1 X125.992 Y101.948 E0.02103
G1 X126.604 Y102.221 E0.02103
G1 X127.147 Y102.616 E0.02103
G1 X127.596 Y103.114 E0.02103
G1 X127.931 Y103.695 E0.02103
G1 X128.138 Y104.333 E0.02103
G1 X128.209 Y105.000 E0.02103
G1 X128.138 Y105.667 E0.02103
G1 X127.931 Y106.305 E0.02103
G1 X127.596 Y106.886 E0.02103
G1 X127.147 Y107.384 E0.02103
G1 X126.604 Y107.779 E0.02103
G1 X125.992 Y108.052 E0.02103
G1 X125.335 Y108.191 E0.02103
G1 X124.665 Y108.191 E0.02103
G1 X124.008 Y108.052 E0.02103
G1 X123.398 Y107.780 E0.02096
G1 X122.850 Y107.382 E0.02121
G1 X122.404 Y106.886 E0.02091
G1 X122.069 Y106.305 E0.02103
G1 X121.861 Y105.667 E0.02103
G1 X121.791 Y105.000 E0.02104
G1 X121.861 Y104.333 E0.02104
G1 X122.050 Y103.752 E0.01915
G1 X121.722 Y103.540 F10800.000
G1 F900
G1 X122.097 Y102.891 E0.02352
G1 X122.597 Y102.336 E0.02340
G1 X123.208 Y101.892 E0.02370
G1 X123.891 Y101.588 E0.02345
G1 X124.625 Y101.432 E0.02352
G1 X125.375 Y101.432 E0.02352
G1 X126.109 Y101.588 E0.02352
G1 X126.794 Y101.893 E0.02352
G1 X127.401 Y102.334 E0.02352
G1 X127.903 Y102.891 E0.02352
G1 X128.278 Y103.541 E0.02352
G1 X128.509 Y104.254 E0.02352
G1 X128.588 Y105.000 E0.02352
G1 X128.509 Y105.746 E0.02352
G1 X128.278 Y106.459 E0.02352
G1 X127.903 Y107.109 E0.02352
G1 X127.401 Y107.666 E0.02352
G1 X126.794 Y108.107 E0.02352
G1 X126.109 Y108.412 E0.02352
G1 X125.375 Y108.568 E0.02352
G1 X124.625 Y108.568 E0.02352
G1 X123.891 Y108.412 E0.02352
G1 X123.208 Y108.108 E0.02345
G1 X122.597 Y107.664 E0.02370
G1 X122.097 Y107.109 E0.02340
G1 X121.722 Y106.460 E0.02352
G1 X121.491 Y105.746 E0.02352
G1 X121.412 Y105.000 E0.02353
G1 X121.491 Y104.254 E0.02353
G1 X121.704 Y103.597 E0.02164
G1 X122.120 Y103.499 F10800.000
G1 F8640.000
G1 X122.097 Y102.891 E-0.18676
G1 X122.597 Y102.336 E-0.17231
G1 X123.208 Y101.892 E-0.17450
G1 X123.891 Y101.588 E-0.17268
G1 X124.119 Y101.539 E-0.05375
G1 E-0.04000 F2100.00000
G1 Z0.800 F10800.000
G1 X122.222 Y106.345
G1 Z0.200
G1 E0.80000 F2100.00000
G1 F900
G1 X123.641 Y107.764 E0.06486
G1 F8640.000
G1 X122.222 Y106.345 E-0.46335
G1 E-0.33665 F2100.00000
G1 Z0.800 F10800.000
G1 X127.777 Y103.655
G1 Z0.200
G1 E0.80000 F2100.00000
G1 F900
G1 X126.930 Y102.808 E0.03871
G1 X126.462 Y102.468 E0.01871
G1 X125.904 Y102.219 E0.01976
G1 X125.762 Y102.189 E0.00469
G1 X127.810 Y104.237 E0.09363
G1 X127.860 Y104.392 E0.00527
G1 X127.913 Y104.889 E0.01616
G1 X127.516 Y104.493 E0.01812
G1 X127.574 Y104.970 E0.01551
G1 X127.560 Y105.087 E0.00381
G1 X127.881 Y105.408 E0.01469
G1 X127.860 Y105.608 E0.00650
G1 X127.780 Y105.856 E0.00843
G1 X127.501 Y105.577 E0.01274
G1 X127.493 Y105.643 E0.00212
G1 X127.362 Y105.988 E0.01195
G1 X127.632 Y106.258 E0.01233
G1 X127.431 Y106.606 E0.01301
G1 X127.176 Y106.351 E0.01166
G1 X126.952 Y106.677 E0.01278
G1 X127.189 Y106.915 E0.01085
G1 X126.923 Y107.198 E0.01257
G1 X126.664 Y106.939 E0.01181
G1 X126.443 Y107.133 E0.00951
G1 X126.355 Y107.179 E0.00322
G1 X126.604 Y107.429 E0.01142
G1 X126.462 Y107.532 E0.00568
G1 X126.252 Y107.626 E0.00744
G1 X125.994 Y107.368 E0.01178
G1 X125.928 Y107.403 E0.00242
G1 X125.570 Y107.494 E0.01193
G1 X125.865 Y107.789 E0.01349
G1 X125.412 Y107.886 E0.01498
G1 X125.083 Y107.557 E0.01503
G1 X124.713 Y107.560 E0.01197
G1 X124.482 Y107.505 E0.00767
G1 X124.885 Y107.908 E0.01841
G1 X124.694 Y107.908 E0.00615
G1 X124.238 Y107.811 E0.01508
G1 X122.190 Y105.763 E0.09361
G1 X122.140 Y105.608 E0.00526
G1 X122.087 Y105.111 E0.01617
G1 X122.488 Y105.511 E0.01830
G1 X122.424 Y105.024 E0.01589
G1 X122.437 Y104.910 E0.00369
G1 X122.119 Y104.592 E0.01454
G1 X122.140 Y104.392 E0.00652
G1 X122.220 Y104.144 E0.00841
G1 X122.492 Y104.416 E0.01243
G1 X122.638 Y104.013 E0.01387
G1 X122.368 Y103.742 E0.01237
G1 X122.569 Y103.394 E0.01301
G1 X122.826 Y103.651 E0.01176
G1 X123.051 Y103.326 E0.01277
G1 X122.810 Y103.085 E0.01099
G1 X123.077 Y102.803 E0.01257
G1 X123.333 Y103.058 E0.01167
G1 X123.521 Y102.892 E0.00811
G1 X123.648 Y102.823 E0.00466
G1 X123.396 Y102.571 E0.01152
G1 X123.540 Y102.467 E0.00576
G1 X123.748 Y102.374 E0.00737
G1 X124.005 Y102.631 E0.01177
G1 X124.068 Y102.598 E0.00229
G1 X124.432 Y102.508 E0.01212
G1 X124.135 Y102.211 E0.01359
G1 X124.588 Y102.114 E0.01498
G1 X124.915 Y102.442 E0.01496
G1 X125.328 Y102.445 E0.01335
G1 X125.514 Y102.491 E0.00619
G1 X124.945 Y101.922 E0.02600
M106 S255
;BEFORE_LAYER_CHANGE
G92 E0.0
;0.4


G1 F8640.000
G1 X125.514 Y102.491 E-0.18577
G1 X125.328 Y102.445 E-0.04419
G1 X124.915 Y102.442 E-0.09541
G1 X124.588 Y102.114 E-0.10687
G1 X124.135 Y102.211 E-0.10702
G1 X124.432 Y102.508 E-0.09711
G1 X124.068 Y102.598 E-0.08659
G1 X124.005 Y102.631 E-0.01635
G1 X123.942 Y102.568 E-0.02069
G1 E-0.04000 F2100.00000
G1 Z0.800 F10800.000
;AFTER_LAYER_CHANGE
;0.4
G1 X121.220 Y98.513
G1 Z0.400
G1 E0.80000 F2100.00000
G1 F900
G1 X122.588 Y97.891 E0.04712
G1 X124.117 Y97.545 E0.04914
G1 X125.423 Y97.514 E0.04096
G1 X126.966 Y97.764 E0.04901
G1 X127.660 Y97.989 E0.02288
G1 X128.895 Y98.583 E0.04298
G1 X130.266 Y99.660 E0.05465
G1 X131.130 Y100.667 E0.04161
G1 X131.912 Y102.071 E0.05039
G1 X132.363 Y103.532 E0.04795
G1 X132.498 Y105.250 E0.05402
G1 X132.330 Y106.626 E0.04345
G1 X131.833 Y108.111 E0.04911
G1 X131.062 Y109.430 E0.04792
G1 X130.001 Y110.600 E0.04950
G1 X128.752 Y111.504 E0.04835
G1 X127.341 Y112.133 E0.04842
G1 X125.814 Y112.464 E0.04900
G1 X124.323 Y112.477 E0.04676
G1 X122.730 Y112.157 E0.05095
G1 X121.344 Y111.557 E0.04733
G1 X120.053 Y110.647 E0.04952
G1 X119.176 Y109.721 E0.04000
G1 X118.729 Y109.112 E0.02369
G1 X118.017 Y107.737 E0.04854
G1 X117.629 Y106.423 E0.04297
G1 X117.501 Y104.742 E0.05287
G1 X117.668 Y103.382 E0.04296
G1 X118.158 Y101.910 E0.04864
G1 X118.917 Y100.599 E0.04749
G1 X119.944 Y99.449 E0.04835
G1 X121.172 Y98.548 E0.04774
G1 X121.394 Y98.851 F10800.000
G1 F900
G1 X122.720 Y98.244 E0.04571
G1 X124.176 Y97.917 E0.04682
G1 X125.422 Y97.891 E0.03908
G1 X126.867 Y98.129 E0.04589
G1 X127.506 Y98.333 E0.02104
G1 X128.682 Y98.895 E0.04085
G1 X129.989 Y99.916 E0.05202
G1 X130.813 Y100.871 E0.03954
G1 X131.560 Y102.207 E0.04801
G1 X131.991 Y103.594 E0.04554
G1 X132.122 Y105.229 E0.05141
G1 X131.963 Y106.537 E0.04132
G1 X131.493 Y107.948 E0.04664
G1 X130.759 Y109.206 E0.04565
G1 X129.749 Y110.320 E0.04715
G1 X128.562 Y111.178 E0.04593
G1 X127.223 Y111.775 E0.04598
G1 X125.772 Y112.089 E0.04655
G1 X124.346 Y112.100 E0.04470
G1 X122.834 Y111.794 E0.04838
G1 X121.518 Y111.223 E0.04497
G1 X120.294 Y110.356 E0.04704
G1 X119.460 Y109.474 E0.03807
G1 X119.059 Y108.930 E0.02118
G1 X118.377 Y107.622 E0.04625
G1 X118.003 Y106.370 E0.04096
G1 X117.878 Y104.764 E0.05051
G1 X118.035 Y103.471 E0.04086
G1 X118.500 Y102.068 E0.04633
G1 X119.223 Y100.819 E0.04524
G1 X120.202 Y99.724 E0.04606
G1 X121.345 Y98.886 E0.04445
G1 X121.567 Y99.190 F10800.000
G1 F900
G1 X122.851 Y98.598 E0.04432
G1 X124.232 Y98.290 E0.04436
G1 X125.422 Y98.268 E0.03734
G1 X126.965 Y98.540 E0.04913
G1 X128.097 Y99.009 E0.03841
G1 X128.604 Y99.298 E0.01830
G1 X129.713 Y100.173 E0.04428
G1 X130.499 Y101.081 E0.03765
G1 X131.208 Y102.342 E0.04536
G1 X131.620 Y103.663 E0.04339
G1 X131.745 Y105.209 E0.04863
G1 X131.596 Y106.450 E0.03921
G1 X131.152 Y107.787 E0.04416
G1 X130.455 Y108.982 E0.04338
G1 X129.499 Y110.037 E0.04466
G1 X128.375 Y110.851 E0.04350
G1 X127.103 Y111.418 E0.04367
G1 X125.724 Y111.715 E0.04423
G1 X124.365 Y111.724 E0.04261
G1 X122.948 Y111.434 E0.04533
G1 X121.689 Y110.886 E0.04308
G1 X120.533 Y110.065 E0.04443
G1 X119.741 Y109.222 E0.03627
G1 X119.384 Y108.738 E0.01886
G1 X118.733 Y107.499 E0.04387
G1 X118.375 Y106.311 E0.03891
G1 X118.254 Y104.785 E0.04799
G1 X118.402 Y103.557 E0.03878
G1 X118.843 Y102.225 E0.04400
G1 X119.530 Y101.039 E0.04298
G1 X120.469 Y99.992 E0.04410
G1 X121.519 Y99.225 E0.04076
G1 X121.740 Y99.528 F10800.000
G1 F900
G1 X121.803 Y99.482 E0.00244
G1 X122.982 Y98.952 E0.04055
G1 X124.287 Y98.663 E0.04189
G1 X125.422 Y98.645 E0.03560
G1 X126.875 Y98.907 E0.04630
G1 X127.948 Y99.356 E0.03646
G1 X128.386 Y99.606 E0.01581
G1 X129.436 Y100.429 E0.04183
