; generated by PrusaSlicer 2.2.0+linux-x64 on 2020-11-02 at 15:34:21 UTC

; 

; external perimeters extrusion width = 0.60mm
; perimeters extrusion width = 0.50mm
; infill extrusion width = 0.50mm
; solid infill extrusion width = 0.50mm
; top infill extrusion width = 0.45mm
; first layer extrusion width = 0.42mm

M73 P0 R55
M73 Q0 S55
M201 X1000 Y1000 Z200 E5000 ; sets maximum accelerations, mm/sec^2
M203 X200 Y200 Z12 E120 ; sets maximum feedrates, mm/sec
M204 P1250 R1250 T1250 ; sets acceleration (P, T) and retract acceleration (R), mm/sec^2
M205 X8.00 Y8.00 Z0.40 E4.50 ; sets the jerk limits, mm/sec
M205 S0 T0 ; sets the minimum extruding and travel feed rate, mm/sec
M107
M862.3 P "MK3S" ; printer model check
M862.1 P0.4 ; nozzle diameter check
M115 U3.9.1 ; tell printer latest fw version
G90 ; use absolute coordinates
M83 ; extruder relative mode
M104 S215 ; set extruder temp
M140 S60 ; set bed temp
M190 S60 ; wait for bed temp
M109 S215 ; wait for extruder temp
G28 W ; home all without mesh bed level
G80 ; mesh bed leveling
G1 Y-3.0 F1000.0 ; go outside print area
G92 E0.0
G1 X60.0 E9.0 F1000.0 ; intro line
M73 Q0 S55
M73 P0 R55
G1 X100.0 E12.5 F1000.0 ; intro line
G92 E0.0
M221 S95

; Don't change E values below. Excessive value can damage the printer.

M907 E538 ; set extruder motor current
G21 ; set units to millimeters
G90 ; use absolute coordinates
M83 ; use relative distances for extrusion
M900 K0.05 ; Filament gcode LA 1.5
M900 K30 ; Filament gcode LA 1.0
;BEFORE_LAYER_CHANGE
G92 E0.0
;0.2


G1 E-0.80000 F2100.00000
G1 Z0.600 F10800.000
;AFTER_LAYER_CHANGE
;0.2
G1 X64.160 Y81.276
G1 Z0.200
G1 E0.80000 F2100.00000
M204 S1000
G1 F1200.000
G1 X64.995 Y81.123 E0.02661
G1 X185.004 Y81.123 E3.76279
G1 X185.902 Y81.301 E0.02872
G1 X186.667 Y81.805 E0.02872
G1 X187.184 Y82.562 E0.02872
G1 X187.377 Y83.457 E0.02872
G1 X187.376 Y126.580 E1.35209
G1 X187.251 Y127.263 E0.02178
G1 X186.932 Y127.885 E0.02190
G1 X186.450 Y128.384 E0.02178
G1 X185.840 Y128.724 E0.02190
G1 X185.005 Y128.877 E0.02661
G1 X64.973 Y128.877 E3.76350
G1 X64.273 Y128.763 E0.02225
G1 X63.637 Y128.448 E0.02225
G1 X63.123 Y127.959 E0.02225
G1 X62.776 Y127.340 E0.02225
G1 X62.623 Y126.509 E0.02649
G1 X62.624 Y83.428 E1.35078
G1 X62.748 Y82.740 E0.02190
G1 X63.066 Y82.119 E0.02190
G1 X63.550 Y81.616 E0.02190
G1 X64.108 Y81.305 E0.02001
G1 F8640.000
G1 X64.995 Y81.123 E-0.20912
G1 X67.381 Y81.123 E-0.55088
G1 E-0.04000 F2100.00000
G1 Z0.800 F10800.000
G1 X109.213 Y92.713
G1 Z0.200
G1 E0.80000 F2100.00000
G1 F1200.000
G1 X140.787 Y92.713 E0.98999
G1 X140.787 Y117.287 E0.77051
G1 X109.213 Y117.287 E0.98999
G1 X109.213 Y92.773 E0.76862
G1 X109.590 Y93.090 F10800.000
G1 F1200.000
G1 X140.410 Y93.090 E0.96634
G1 X140.410 Y116.910 E0.74686
G1 X109.590 Y116.910 E0.96634
G1 X109.590 Y93.150 E0.74498
G1 X109.470 Y92.708 F10800.000
G1 F8640.000
G1 X112.881 Y93.144 E-0.76000
G1 E-0.04000 F2100.00000
G1 Z0.800 F10800.000
G1 X109.921 Y91.845
G1 Z0.200
G1 E0.80000 F2100.00000
G1 F1200.000
G1 X109.271 Y91.504 E0.02300
G1 X108.722 Y91.018 E0.02300
G1 X108.306 Y90.414 E0.02300
G1 X108.046 Y89.728 E0.02300
G1 X107.957 Y89.000 E0.02300
G1 X108.041 Y88.311 E0.02177
G1 X108.303 Y87.589 E0.02407
G1 X108.722 Y86.982 E0.02313
G1 X109.271 Y86.496 E0.02300
G1 X109.921 Y86.155 E0.02300
G1 X110.633 Y85.979 E0.02300
G1 X111.367 Y85.979 E0.02300
G1 X112.079 Y86.155 E0.02300
G1 X112.729 Y86.496 E0.02300
G1 X113.278 Y86.982 E0.02300
G1 X113.694 Y87.586 E0.02300
G1 X113.954 Y88.272 E0.02300
G1 X114.043 Y89.000 E0.02300
G1 X113.954 Y89.728 E0.02300
G1 X113.694 Y90.414 E0.02300
G1 X113.278 Y91.018 E0.02300
G1 X112.729 Y91.504 E0.02300
G1 X112.079 Y91.845 E0.02300
G1 X111.367 Y92.021 E0.02300
G1 X110.633 Y92.021 E0.02300
G1 X109.979 Y91.859 E0.02112
G1 X110.069 Y91.493 F10800.000
G1 F1200.000
G1 X109.487 Y91.192 E0.02056
G1 X109.007 Y90.766 E0.02013
G1 X108.642 Y90.238 E0.02013
G1 X108.414 Y89.637 E0.02013
G1 X108.337 Y89.000 E0.02013
G1 X108.410 Y88.399 E0.01898
G1 X108.641 Y87.764 E0.02120
G1 X109.007 Y87.234 E0.02017
G1 X109.487 Y86.808 E0.02013
G1 X110.056 Y86.510 E0.02013
G1 X110.679 Y86.356 E0.02013
G1 X111.321 Y86.356 E0.02013
G1 X111.944 Y86.510 E0.02013
G1 X112.513 Y86.808 E0.02013
G1 X112.993 Y87.234 E0.02013
G1 X113.358 Y87.762 E0.02013
G1 X113.586 Y88.363 E0.02013
G1 X113.663 Y89.000 E0.02013
G1 X113.586 Y89.637 E0.02013
G1 X113.358 Y90.238 E0.02013
G1 X112.993 Y90.766 E0.02013
G1 X112.513 Y91.192 E0.02013
G1 X111.944 Y91.490 E0.02013
G1 X111.321 Y91.644 E0.02013
G1 X110.679 Y91.644 E0.02013
G1 X110.128 Y91.508 E0.01780
G1 X109.761 Y91.748 F10800.000
G1 F8640.000
G1 X109.487 Y91.192 E-0.16492
G1 X109.007 Y90.766 E-0.14824
G1 X108.642 Y90.238 E-0.14823
G1 X108.414 Y89.637 E-0.14824
G1 X108.337 Y89.000 E-0.14824
G1 X108.338 Y88.991 E-0.00213
G1 E-0.04000 F2100.00000
G1 Z0.800 F10800.000
G1 X105.226 Y89.549
G1 Z0.200
G1 E0.80000 F2100.00000
G1 F1200.000
G1 X105.030 Y90.066 E0.01733
G1 X104.716 Y90.520 E0.01733
G1 X104.302 Y90.887 E0.01733
G1 X103.813 Y91.144 E0.01733
G1 X103.276 Y91.276 E0.01733
G1 X102.724 Y91.276 E0.01733
G1 X102.187 Y91.144 E0.01733
G1 X101.692 Y90.884 E0.01754
G1 X101.256 Y90.480 E0.01862
G1 X100.970 Y90.066 E0.01579
G1 X100.774 Y89.549 E0.01733
G1 X100.707 Y89.000 E0.01733
G1 X100.774 Y88.451 E0.01733
G1 X100.970 Y87.934 E0.01733
G1 X101.284 Y87.480 E0.01733
G1 X101.698 Y87.113 E0.01733
G1 X102.187 Y86.856 E0.01733
G1 X102.724 Y86.724 E0.01733
G1 X103.276 Y86.724 E0.01733
G1 X103.813 Y86.856 E0.01733
G1 X104.308 Y87.116 E0.01754
G1 X104.744 Y87.520 E0.01862
G1 X105.030 Y87.934 E0.01579
G1 X105.226 Y88.451 E0.01733
G1 X105.293 Y89.000 E0.01733
G1 X105.233 Y89.489 E0.01545
G1 X104.859 Y89.444 F10800.000
G1 F1200.000
G1 X104.694 Y89.889 E0.01489
G1 X104.432 Y90.269 E0.01446
G1 X104.087 Y90.574 E0.01446
G1 X103.678 Y90.789 E0.01446
G1 X103.231 Y90.899 E0.01446
G1 X102.769 Y90.899 E0.01446
G1 X102.322 Y90.789 E0.01446
G1 X101.911 Y90.573 E0.01453
G1 X101.543 Y90.232 E0.01575
G1 X101.306 Y89.889 E0.01306
G1 X101.143 Y89.458 E0.01446
G1 X101.087 Y89.000 E0.01446
G1 X101.143 Y88.542 E0.01446
G1 X101.306 Y88.111 E0.01446
G1 X101.568 Y87.731 E0.01446
G1 X101.913 Y87.426 E0.01446
G1 X102.322 Y87.211 E0.01446
G1 X102.769 Y87.101 E0.01446
G1 X103.231 Y87.101 E0.01446
G1 X103.678 Y87.211 E0.01446
G1 X104.089 Y87.427 E0.01453
G1 X104.457 Y87.768 E0.01575
G1 X104.694 Y88.111 E0.01306
G1 X104.857 Y88.542 E0.01446
G1 X104.913 Y89.000 E0.01446
G1 X104.866 Y89.384 E0.01213
G1 X105.149 Y89.719 F10800.000
G1 F8640.000
G1 X104.694 Y89.889 E-0.12319
G1 X104.432 Y90.269 E-0.10649
G1 X104.087 Y90.574 E-0.10649
G1 X103.678 Y90.789 E-0.10649
G1 X103.231 Y90.899 E-0.10649
G1 X102.769 Y90.899 E-0.10649
G1 X102.331 Y90.791 E-0.10437
G1 E-0.04000 F2100.00000
G1 Z0.800 F10800.000
G1 X79.293 Y89.000
G1 Z0.200
G1 E0.80000 F2100.00000
G1 F1200.000
G1 X79.226 Y89.549 E0.01733
G1 X79.030 Y90.066 E0.01733
G1 X78.716 Y90.520 E0.01733
G1 X78.302 Y90.887 E0.01733
G1 X77.813 Y91.144 E0.01733
G1 X77.276 Y91.276 E0.01733
G1 X76.724 Y91.276 E0.01733
G1 X76.187 Y91.144 E0.01733
G1 X75.698 Y90.887 E0.01733
G1 X75.284 Y90.520 E0.01733
G1 X74.970 Y90.066 E0.01733
G1 X74.774 Y89.549 E0.01733
G1 X74.707 Y89.000 E0.01733
G1 X74.774 Y88.451 E0.01733
G1 X74.970 Y87.934 E0.01733
G1 X75.284 Y87.480 E0.01733
G1 X75.698 Y87.113 E0.01733
G1 X76.187 Y86.856 E0.01733
G1 X76.724 Y86.724 E0.01733
G1 X77.276 Y86.724 E0.01733
G1 X77.813 Y86.856 E0.01733
G1 X78.302 Y87.113 E0.01733
G1 X78.716 Y87.480 E0.01733
G1 X79.030 Y87.934 E0.01733
G1 X79.226 Y88.451 E0.01733
G1 X79.286 Y88.940 E0.01545
G1 X78.911 Y88.986 F10800.000
G1 F1200.000
G1 X78.857 Y89.458 E0.01489
G1 X78.694 Y89.889 E0.01446
G1 X78.432 Y90.269 E0.01446
G1 X78.087 Y90.574 E0.01446
G1 X77.678 Y90.789 E0.01446
G1 X77.231 Y90.899 E0.01446
G1 X76.769 Y90.899 E0.01446
G1 X76.322 Y90.789 E0.01446
G1 X75.913 Y90.574 E0.01446
G1 X75.568 Y90.269 E0.01446
G1 X75.306 Y89.889 E0.01446
G1 X75.143 Y89.458 E0.01446
G1 X75.087 Y89.000 E0.01446
G1 X75.143 Y88.542 E0.01446
G1 X75.306 Y88.111 E0.01446
G1 X75.568 Y87.731 E0.01446
G1 X75.913 Y87.426 E0.01446
G1 X76.322 Y87.211 E0.01446
G1 X76.769 Y87.101 E0.01446
G1 X77.231 Y87.101 E0.01446
G1 X77.678 Y87.211 E0.01446
G1 X78.087 Y87.426 E0.01446
G1 X78.432 Y87.731 E0.01446
G1 X78.694 Y88.111 E0.01446
G1 X78.857 Y88.542 E0.01446
G1 X78.904 Y88.926 E0.01213
G1 X79.259 Y89.184 F10800.000
G1 F8640.000
G1 X78.857 Y89.458 E-0.12319
G1 X78.694 Y89.889 E-0.10649
G1 X78.432 Y90.269 E-0.10649
G1 X78.087 Y90.574 E-0.10649
G1 X77.678 Y90.789 E-0.10649
G1 X77.231 Y90.899 E-0.10649
G1 X76.779 Y90.899 E-0.10437
G1 E-0.04000 F2100.00000
G1 Z0.800 F10800.000
G1 X77.276 Y118.724
G1 Z0.200
G1 E0.80000 F2100.00000
G1 F1200.000
G1 X77.813 Y118.856 E0.01733
G1 X78.302 Y119.113 E0.01733
G1 X78.716 Y119.480 E0.01733
G1 X79.030 Y119.934 E0.01733
G1 X79.226 Y120.451 E0.01733
G1 X79.293 Y121.000 E0.01733
G1 X79.226 Y121.549 E0.01733
G1 X79.030 Y122.066 E0.01733
G1 X78.716 Y122.520 E0.01733
G1 X78.302 Y122.887 E0.01733
G1 X77.813 Y123.144 E0.01733
G1 X77.276 Y123.276 E0.01733
G1 X76.724 Y123.276 E0.01733
G1 X76.187 Y123.144 E0.01733
G1 X75.698 Y122.887 E0.01733
G1 X75.284 Y122.520 E0.01733
G1 X74.970 Y122.066 E0.01733
G1 X74.774 Y121.549 E0.01733
G1 X74.707 Y121.000 E0.01733
G1 X74.774 Y120.451 E0.01733
G1 X74.970 Y119.934 E0.01733
G1 X75.284 Y119.480 E0.01733
G1 X75.698 Y119.113 E0.01733
G1 X76.187 Y118.856 E0.01733
G1 X76.724 Y118.724 E0.01733
G1 X77.216 Y118.724 E0.01545
G1 X77.216 Y119.101 F10800.000
G1 F1200.000
G1 X77.678 Y119.211 E0.01489
G1 X78.087 Y119.426 E0.01446
G1 X78.432 Y119.731 E0.01446
G1 X78.694 Y120.111 E0.01446
G1 X78.857 Y120.542 E0.01446
G1 X78.913 Y121.000 E0.01446
G1 X78.857 Y121.458 E0.01446
G1 X78.694 Y121.889 E0.01446
G1 X78.432 Y122.269 E0.01446
G1 X78.087 Y122.574 E0.01446
G1 X77.678 Y122.789 E0.01446
G1 X77.231 Y122.899 E0.01446
G1 X76.769 Y122.899 E0.01446
G1 X76.322 Y122.789 E0.01446
G1 X75.913 Y122.574 E0.01446
G1 X75.568 Y122.269 E0.01446
G1 X75.306 Y121.889 E0.01446
G1 X75.143 Y121.458 E0.01446
G1 X75.087 Y121.000 E0.01446
G1 X75.143 Y120.542 E0.01446
G1 X75.306 Y120.111 E0.01446
G1 X75.568 Y119.731 E0.01446
G1 X75.913 Y119.426 E0.01446
G1 X76.322 Y119.211 E0.01446
G1 X76.769 Y119.101 E0.01446
G1 X77.156 Y119.101 E0.01213
G1 X77.455 Y118.780 F10800.000
G1 F8640.000
G1 X77.678 Y119.211 E-0.12319
G1 X78.087 Y119.426 E-0.10649
G1 X78.432 Y119.731 E-0.10649
G1 X78.694 Y120.111 E-0.10649
G1 X78.857 Y120.542 E-0.10649
G1 X78.913 Y121.000 E-0.10649
G1 X78.859 Y121.449 E-0.10437
G1 E-0.04000 F2100.00000
G1 Z0.800 F10800.000
G1 X87.042 Y120.301
G1 Z0.200
G1 E0.80000 F2100.00000
G1 F1200.000
G1 X87.306 Y119.586 E0.02390
G1 X87.722 Y118.982 E0.02300
G1 X88.271 Y118.496 E0.02300
G1 X88.886 Y118.173 E0.02177
G1 X89.629 Y117.979 E0.02407
G1 X90.367 Y117.979 E0.02313
G1 X91.079 Y118.155 E0.02300
G1 X91.729 Y118.496 E0.02300
G1 X92.278 Y118.982 E0.02300
G1 X92.694 Y119.586 E0.02300
G1 X92.954 Y120.272 E0.02300
G1 X93.043 Y121.000 E0.02300
G1 X92.954 Y121.728 E0.02300
G1 X92.694 Y122.414 E0.02300
G1 X92.300 Y122.986 E0.02177
G1 X91.732 Y123.502 E0.02407
G1 X91.079 Y123.845 E0.02313
G1 X90.367 Y124.021 E0.02300
G1 X89.633 Y124.021 E0.02300
G1 X88.921 Y123.845 E0.02300
G1 X88.271 Y123.504 E0.02300
G1 X87.722 Y123.018 E0.02300
G1 X87.306 Y122.414 E0.02300
G1 X87.046 Y121.728 E0.02300
G1 X86.957 Y121.000 E0.02300
G1 X87.035 Y120.361 E0.02019
G1 X87.414 Y120.363 F10800.000
G1 F1200.000
G1 X87.642 Y119.762 E0.02013
G1 X88.007 Y119.234 E0.02013
G1 X88.487 Y118.808 E0.02013
G1 X89.023 Y118.527 E0.01898
G1 X89.678 Y118.356 E0.02120
G1 X90.321 Y118.356 E0.02017
G1 X90.944 Y118.510 E0.02013
G1 X91.513 Y118.808 E0.02013
G1 X91.993 Y119.234 E0.02013
G1 X92.358 Y119.762 E0.02013
G1 X92.586 Y120.363 E0.02013
G1 X92.663 Y121.000 E0.02013
G1 X92.586 Y121.637 E0.02013
G1 X92.358 Y122.238 E0.02013
G1 X92.014 Y122.736 E0.01898
G1 X91.514 Y123.191 E0.02120
G1 X90.944 Y123.490 E0.02017
G1 X90.321 Y123.644 E0.02013
G1 X89.679 Y123.644 E0.02013
G1 X89.056 Y123.490 E0.02013
G1 X88.487 Y123.192 E0.02013
G1 X88.007 Y122.766 E0.02013
G1 X87.642 Y122.238 E0.02013
G1 X87.414 Y121.637 E0.02013
G1 X87.337 Y121.000 E0.02013
G1 X87.407 Y120.422 E0.01825
G1 X87.126 Y120.086 F10800.000
G1 F8640.000
G1 X87.642 Y119.762 E-0.16172
G1 X88.007 Y119.234 E-0.14823
G1 X88.487 Y118.808 E-0.14824
G1 X89.023 Y118.527 E-0.13979
G1 X89.678 Y118.356 E-0.15612
G1 X89.703 Y118.356 E-0.00589
G1 E-0.04000 F2100.00000
G1 Z0.800 F10800.000
G1 X100.707 Y121.000
G1 Z0.200
G1 E0.80000 F2100.00000
G1 F1200.000
G1 X100.774 Y120.451 E0.01733
G1 X100.970 Y119.934 E0.01733
G1 X101.284 Y119.480 E0.01733
G1 X101.698 Y119.113 E0.01733
G1 X102.187 Y118.856 E0.01733
G1 X102.724 Y118.724 E0.01733
G1 X103.276 Y118.724 E0.01733
G1 X103.813 Y118.856 E0.01733
G1 X104.308 Y119.116 E0.01754
G1 X104.744 Y119.520 E0.01862
G1 X105.030 Y119.934 E0.01579
G1 X105.226 Y120.451 E0.01733
G1 X105.293 Y121.000 E0.01733
G1 X105.226 Y121.549 E0.01733
G1 X105.030 Y122.066 E0.01733
G1 X104.716 Y122.520 E0.01733
G1 X104.302 Y122.887 E0.01733
G1 X103.813 Y123.144 E0.01733
G1 X103.276 Y123.276 E0.01733
G1 X102.724 Y123.276 E0.01733
G1 X102.187 Y123.144 E0.01733
G1 X101.692 Y122.884 E0.01754
G1 X101.256 Y122.480 E0.01862
G1 X100.970 Y122.066 E0.01579
G1 X100.774 Y121.549 E0.01733
G1 X100.714 Y121.060 E0.01545
G1 X101.089 Y121.014 F10800.000
G1 F1200.000
G1 X101.143 Y120.542 E0.01489
G1 X101.306 Y120.111 E0.01446
G1 X101.568 Y119.731 E0.01446
G1 X101.913 Y119.426 E0.01446
G1 X102.322 Y119.211 E0.01446
G1 X102.769 Y119.101 E0.01446
G1 X103.231 Y119.101 E0.01446
G1 X103.678 Y119.211 E0.01446
G1 X104.089 Y119.427 E0.01453
G1 X104.457 Y119.768 E0.01575
G1 X104.694 Y120.111 E0.01306
G1 X104.857 Y120.542 E0.01446
G1 X104.913 Y121.000 E0.01446
G1 X104.857 Y121.458 E0.01446
G1 X104.694 Y121.889 E0.01446
G1 X104.432 Y122.269 E0.01446
G1 X104.087 Y122.574 E0.01446
G1 X103.678 Y122.789 E0.01446
G1 X103.231 Y122.899 E0.01446
G1 X102.769 Y122.899 E0.01446
G1 X102.322 Y122.789 E0.01446
G1 X101.911 Y122.573 E0.01453
G1 X101.543 Y122.232 E0.01575
G1 X101.306 Y121.889 E0.01306
G1 X101.143 Y121.458 E0.01446
G1 X101.096 Y121.074 E0.01213
G1 X100.741 Y120.816 F10800.000
G1 F8640.000
G1 X101.143 Y120.542 E-0.12319
G1 X101.306 Y120.111 E-0.10649
G1 X101.568 Y119.731 E-0.10649
G1 X101.913 Y119.426 E-0.10649
G1 X102.322 Y119.211 E-0.10649
G1 X102.769 Y119.101 E-0.10649
G1 X103.221 Y119.101 E-0.10437
G1 E-0.04000 F2100.00000
G1 Z0.800 F10800.000
G1 X144.707 Y121.000
G1 Z0.200
G1 E0.80000 F2100.00000
G1 F1200.000
G1 X144.774 Y120.451 E0.01733
G1 X144.970 Y119.934 E0.01733
G1 X145.284 Y119.480 E0.01733
G1 X145.698 Y119.113 E0.01733
G1 X146.187 Y118.856 E0.01733
G1 X146.724 Y118.724 E0.01733
G1 X147.276 Y118.724 E0.01733
G1 X147.813 Y118.856 E0.01733
G1 X148.308 Y119.116 E0.01754
G1 X148.744 Y119.520 E0.01862
G1 X149.030 Y119.934 E0.01579
G1 X149.226 Y120.451 E0.01733
G1 X149.293 Y121.000 E0.01733
G1 X149.226 Y121.549 E0.01733
G1 X149.030 Y122.066 E0.01733
G1 X148.716 Y122.520 E0.01733
G1 X148.302 Y122.887 E0.01733
G1 X147.813 Y123.144 E0.01733
G1 X147.276 Y123.276 E0.01733
G1 X146.724 Y123.276 E0.01733
G1 X146.187 Y123.144 E0.01733
G1 X145.692 Y122.884 E0.01754
G1 X145.256 Y122.480 E0.01862
G1 X144.970 Y122.066 E0.01579
G1 X144.774 Y121.549 E0.01733
G1 X144.714 Y121.060 E0.01545
G1 X145.089 Y121.014 F10800.000
G1 F1200.000
G1 X145.143 Y120.542 E0.01489
G1 X145.306 Y120.111 E0.01446
G1 X145.568 Y119.731 E0.01446
G1 X145.913 Y119.426 E0.01446
G1 X146.322 Y119.211 E0.01446
G1 X146.769 Y119.101 E0.01446
G1 X147.231 Y119.101 E0.01446
G1 X147.678 Y119.211 E0.01446
G1 X148.089 Y119.427 E0.01453
G1 X148.457 Y119.768 E0.01575
G1 X148.694 Y120.111 E0.01306
G1 X148.857 Y120.542 E0.01446
G1 X148.913 Y121.000 E0.01446
G1 X148.857 Y121.458 E0.01446
G1 X148.694 Y121.889 E0.01446
G1 X148.432 Y122.269 E0.01446
G1 X148.087 Y122.574 E0.01446
G1 X147.678 Y122.789 E0.01446
G1 X147.231 Y122.899 E0.01446
G1 X146.769 Y122.899 E0.01446
G1 X146.322 Y122.789 E0.01446
G1 X145.911 Y122.573 E0.01453
G1 X145.543 Y122.232 E0.01575
G1 X145.306 Y121.889 E0.01306
